; generated by Slic3r 1.3.0-dev on 2017-10-07 at 20:28:20

; external perimeters extrusion width = 0.40mm (1.14mm^3/s)
; perimeters extrusion width = 0.68mm (3.95mm^3/s)
; infill extrusion width = 1.20mm (9.43mm^3/s)
; solid infill extrusion width = 0.68mm (1.32mm^3/s)
; top infill extrusion width = 0.68mm (0.99mm^3/s)

M107
M190 S66 ; set bed temperature and wait for it to be reached
M104 S215 ; set temperature
G28 ; home all axes
G1 Z5 F5000 ; lift nozzle

; Filament gcode

M109 S215 ; set temperature and wait for it to be reached
G21 ; set units to millimeters
G90 ; use absolute coordinates
M82 ; use absolute distances for extrusion
G92 E0
G1 Z0.350 F7800.000
G1 E-2.00000 F2400.00000
G92 E0
G1 X85.385 Y60.925 F7800.000
G1 E2.00000 F2400.00000
G1 F900
G1 X86.165 Y59.943 E2.11402
G1 X86.375 Y59.729 E2.14125
G1 X87.482 Y58.827 E2.27113
G1 X89.358 Y57.989 E2.45800
G1 X90.413 Y57.788 E2.55563
G1 X128.213 Y53.710 E6.01277
G1 X128.841 Y53.687 E6.06984
G1 X129.255 Y53.698 E6.10753
G1 X132.047 Y53.854 E6.36182
G1 X135.247 Y54.196 E6.65442
G1 X138.415 Y55.421 E6.96322
G1 X139.354 Y56.249 E7.07709
G1 X140.059 Y57.083 E7.17638
G1 X141.072 Y58.675 E7.34803
G1 X144.352 Y64.377 E7.94616
G1 X144.823 Y65.312 E8.04137
G1 X145.274 Y66.469 E8.15420
G1 X145.590 Y67.577 E8.25905
G1 X145.845 Y69.407 E8.42703
G1 X145.842 Y71.562 E8.62301
G1 X145.205 Y74.385 E8.88616
G1 X134.789 Y94.600 E10.95397
G1 X134.212 Y95.523 E11.05292
G1 X122.339 Y111.455 E12.85966
G1 X121.787 Y112.105 E12.93721
G1 X119.852 Y114.048 E13.18658
G1 X119.296 Y114.545 E13.25433
G1 X118.506 Y115.176 E13.34625
G1 X116.493 Y116.275 E13.55479
G1 X114.378 Y116.623 E13.74975
G1 X112.759 Y116.618 E13.89697
G1 X80.577 Y115.522 E16.82497
G1 X79.070 Y115.295 E16.96350
G1 X77.845 Y114.832 E17.08263
G1 X75.996 Y113.471 E17.29136
G1 X74.429 Y110.753 E17.57663
G1 X74.280 Y110.136 E17.63435
G1 X74.160 Y108.925 E17.74498
G1 X74.156 Y108.295 E17.80228
G1 X74.328 Y106.792 E17.93986
G1 X84.488 Y63.036 E22.02440
G1 X85.362 Y60.980 E22.22749
G1 E20.22749 F2400.00000
G92 E0
G1 X119.301 Y96.006 F7800.000
G1 E2.00000 F2400.00000
G1 F900
G1 X119.225 Y96.993 E2.08993
G1 X118.896 Y97.347 E2.13386
G1 X117.955 Y98.193 E2.24897
G1 X117.954 Y98.252 E2.25429
G1 X117.591 Y98.612 E2.30076
G1 X117.410 Y98.625 E2.31730
G1 X116.228 Y99.818 E2.46998
G1 X116.222 Y100.605 E2.54155
G1 X116.100 Y100.731 E2.55750
G1 X115.410 Y101.144 E2.63062
G1 X115.451 Y102.323 E2.73787
G1 X115.381 Y102.397 E2.74715
G1 X115.356 Y102.560 E2.76217
G1 X115.177 Y102.740 E2.78525
G1 X115.161 Y102.953 E2.80459
G1 X114.935 Y103.209 E2.83572
G1 X114.813 Y103.235 E2.84702
G1 X114.816 Y105.826 E3.08263
G1 X113.970 Y106.813 E3.20084
G1 X114.728 Y107.233 E3.27961
G1 X114.191 Y107.767 E3.34844
G1 X113.110 Y107.765 E3.44681
G1 X113.103 Y108.242 E3.49019
G1 X111.296 Y108.243 E3.65451
G1 X110.353 Y108.100 E3.74127
G1 X109.926 Y108.097 E3.78011
G1 X109.893 Y107.935 E3.79508
G1 X107.380 Y107.930 E4.02363
G1 X106.969 Y107.771 E4.06368
G1 X103.287 Y107.772 E4.39849
G1 X103.249 Y107.728 E4.40376
G1 X102.404 Y107.623 E4.48114
G1 X101.535 Y107.619 E4.56016
G1 X101.528 Y107.457 E4.57489
G1 X96.159 Y107.462 E5.06313
G1 X95.945 Y107.305 E5.08725
G1 X91.070 Y107.298 E5.53053
G1 X91.051 Y107.168 E5.54250
G1 X88.459 Y107.142 E5.77817
G1 X88.433 Y107.166 E5.78142
G1 X87.735 Y107.166 E5.84485
G1 X87.559 Y107.305 E5.86526
G1 X83.223 Y107.300 E6.25956
G1 X83.481 Y107.024 E6.29389
G1 X83.480 Y106.904 E6.30479
G1 X83.823 Y106.466 E6.35543
G1 X84.635 Y106.308 E6.43067
G1 X84.692 Y105.229 E6.52891
G1 X85.131 Y104.658 E6.59440
G1 X85.144 Y104.533 E6.60582
G1 X85.696 Y103.819 E6.68793
G1 X85.721 Y104.412 E6.74195
G1 X87.548 Y103.103 E6.94629
G1 X88.379 Y102.815 E7.02627
G1 X89.905 Y101.602 E7.20349
G1 X89.692 Y101.310 E7.23640
G1 X91.642 Y99.352 E7.48772
G1 X89.767 Y99.085 E7.65993
G1 X89.054 Y98.168 E7.76557
G1 X88.921 Y98.160 E7.77773
G1 X88.900 Y97.332 E7.85299
G1 X89.769 Y97.290 E7.93211
G1 X89.716 Y95.965 E8.05262
G1 X90.120 Y95.907 E8.08980
G1 X90.146 Y95.190 E8.15504
G1 X90.361 Y95.187 E8.17457
G1 X91.158 Y94.839 E8.25363
G1 X91.641 Y94.804 E8.29767
G1 X92.227 Y93.562 E8.42256
G1 X92.227 Y81.355 E9.53253
G1 X92.380 Y81.168 E9.55448
G1 X92.383 Y70.942 E10.48434
G1 X92.554 Y70.548 E10.52338
G1 X92.438 Y69.158 E10.65026
G1 X92.381 Y69.131 E10.65597
G1 X92.382 Y66.741 E10.87329
G1 X92.539 Y66.406 E10.90693
G1 X92.540 Y65.981 E10.94554
G1 X95.802 Y65.975 E11.24218
G1 X95.958 Y66.130 E11.26211
G1 X102.008 Y66.130 E11.81223
G1 X102.316 Y66.287 E11.84369
G1 X106.324 Y66.289 E12.20812
G1 X106.441 Y66.442 E12.22563
G1 X109.800 Y66.443 E12.53108
G1 X109.799 Y66.598 E12.54516
G1 X114.091 Y66.600 E12.93541
G1 X114.195 Y66.751 E12.95211
G1 X117.811 Y66.758 E13.28092
G1 X118.095 Y66.910 E13.31012
G1 X120.801 Y66.917 E13.55618
G1 X121.160 Y67.065 E13.59154
G1 X123.438 Y67.069 E13.79865
G1 X123.581 Y67.217 E13.81735
G1 X125.408 Y67.221 E13.98352
G1 X125.421 Y67.362 E13.99639
G1 X128.577 Y67.377 E14.28337
G1 X128.718 Y67.528 E14.30221
G1 X131.522 Y67.527 E14.55722
G1 X131.664 Y66.522 E14.64954
G1 X131.861 Y66.319 E14.67525
G1 X131.867 Y66.163 E14.68946
G1 X132.552 Y65.485 E14.77710
G1 X132.510 Y64.613 E14.85646
G1 X132.630 Y64.442 E14.87549
G1 X133.160 Y64.620 E14.92631
G1 X133.316 Y66.891 E15.13327
G1 X133.690 Y66.566 E15.17833
G1 X133.825 Y68.469 E15.35178
G1 X134.704 Y68.563 E15.43222
G1 X135.150 Y68.788 E15.47762
G1 X135.667 Y68.781 E15.52467
G1 X135.699 Y68.882 E15.53427
G1 X136.644 Y69.388 E15.63181
G1 X136.843 Y69.395 E15.64987
G1 X136.844 Y70.108 E15.71472
G1 X136.993 Y70.225 E15.73194
G1 X136.688 Y70.484 E15.76834
G1 X135.693 Y70.585 E15.85928
G1 X135.683 Y70.725 E15.87208
G1 X134.939 Y70.704 E15.93980
G1 X134.970 Y72.327 E16.08741
G1 X134.413 Y72.870 E16.15815
G1 X134.391 Y73.110 E16.18005
G1 X134.212 Y73.323 E16.20537
G1 X134.202 Y73.713 E16.24083
G1 X133.710 Y74.168 E16.30176
G1 X133.744 Y76.500 E16.51380
G1 X133.675 Y76.570 E16.52274
G1 X133.633 Y76.831 E16.54680
G1 X133.405 Y77.117 E16.58008
G1 X133.413 Y77.933 E16.65421
G1 X132.809 Y77.933 E16.70915
G1 X132.754 Y78.399 E16.75181
G1 X132.119 Y79.386 E16.85852
G1 X132.017 Y79.482 E16.87128
G1 X131.917 Y79.531 E16.88135
G1 X130.456 Y79.507 E17.01423
G1 X129.423 Y80.518 E17.14571
G1 X129.419 Y80.556 E17.14914
G1 X128.403 Y81.546 E17.27817
G1 X128.264 Y81.549 E17.29080
G1 X128.025 Y81.778 E17.32086
G1 X127.846 Y81.809 E17.33743
G1 X126.970 Y82.646 E17.44756
G1 X125.839 Y83.803 E17.59470
G1 X125.814 Y83.994 E17.61223
G1 X125.598 Y84.223 E17.64082
G1 X125.589 Y85.315 E17.74008
G1 X125.466 Y85.631 E17.77095
G1 X125.772 Y87.067 E17.90446
G1 X125.965 Y87.248 E17.92848
G1 X126.018 Y87.862 E17.98459
G1 X126.220 Y87.905 E18.00343
G1 X126.223 Y88.572 E18.06403
G1 X126.460 Y88.746 E18.09077
G1 X126.666 Y89.317 E18.14594
G1 X126.468 Y90.037 E18.21387
G1 X124.838 Y89.977 E18.36222
G1 X124.019 Y90.112 E18.43769
G1 X122.691 Y91.502 E18.61250
G1 X122.680 Y91.600 E18.62146
G1 X122.495 Y91.762 E18.64382
G1 X122.480 Y92.183 E18.68218
G1 X122.385 Y92.294 E18.69548
G1 X122.366 Y92.459 E18.71063
G1 X122.171 Y92.693 E18.73828
G1 X122.146 Y93.889 E18.84699
G1 X121.994 Y94.053 E18.86738
G1 X121.993 Y94.804 E18.93563
G1 X121.661 Y95.138 E18.97848
G1 X121.544 Y95.142 E18.98913
G1 X121.376 Y95.298 E19.00998
G1 X121.177 Y95.308 E19.02805
G1 X120.709 Y95.786 E19.08896
G1 X120.477 Y95.800 E19.11008
G1 X120.310 Y95.945 E19.13020
G1 X119.361 Y96.003 E19.21668
G1 E17.21668 F2400.00000
G92 E0
G1 X132.522 Y63.227 F7800.000
G1 E2.00000 F2400.00000
G1 F900
G1 X132.495 Y62.386 E2.07647
G1 X133.328 Y62.384 E2.15222
G1 X132.564 Y63.183 E2.25280
G1 X132.360 Y63.738 F7800.000
G1 F900
G1 X131.902 Y63.392 E2.30495
G1 X131.891 Y63.040 E2.33706
G1 X131.594 Y62.877 E2.36788
G1 X131.585 Y62.231 E2.42657
G1 X130.976 Y62.185 E2.48207
G1 X130.948 Y62.066 E2.49321
G1 X130.725 Y62.003 E2.51420
G1 X130.622 Y61.770 E2.53740
G1 X130.600 Y61.442 E2.56727
G1 X131.191 Y61.443 E2.62104
G1 X131.600 Y61.587 E2.66048
G1 X132.624 Y61.600 E2.75357
G1 X132.794 Y61.761 E2.77487
G1 X133.716 Y61.758 E2.85865
G1 X133.720 Y61.983 E2.87904
G1 X133.886 Y62.222 E2.90557
G1 X133.892 Y62.380 E2.91994
G1 X134.043 Y62.541 E2.94001
G1 X132.800 Y63.840 E3.10343
G1 X133.755 Y64.161 E3.19499
G1 X133.853 Y65.596 E3.32577
G1 X134.292 Y65.215 E3.37860
G1 X134.454 Y66.384 E3.48594
G1 X134.315 Y66.543 E3.50517
G1 X134.411 Y67.903 E3.62916
G1 X134.884 Y67.954 E3.67245
G1 X135.295 Y68.161 E3.71425
G1 X135.965 Y68.152 E3.77521
G1 X136.133 Y68.183 E3.79074
G1 X136.218 Y68.451 E3.81633
G1 X136.811 Y68.769 E3.87751
G1 X137.467 Y68.790 E3.93719
G1 X137.468 Y69.802 E4.02922
G1 X137.622 Y69.922 E4.04692
G1 X137.623 Y70.510 E4.10034
G1 X136.945 Y71.086 E4.18124
G1 X136.279 Y71.153 E4.24207
G1 X136.264 Y71.366 E4.26147
G1 X135.576 Y71.347 E4.32407
G1 X135.600 Y72.586 E4.43675
G1 X135.015 Y73.156 E4.51103
G1 X134.997 Y73.362 E4.52983
G1 X134.831 Y73.558 E4.55319
G1 X134.820 Y73.992 E4.59265
G1 X134.339 Y74.437 E4.65221
G1 X134.363 Y76.113 E4.80458
G1 X134.582 Y76.151 E4.82479
G1 X134.623 Y76.497 E4.85654
G1 X134.260 Y76.866 E4.90361
G1 X134.224 Y77.093 E4.92445
G1 X134.032 Y77.333 E4.95243
G1 X134.030 Y78.557 E5.06367
G1 X133.365 Y78.557 E5.12412
G1 X133.309 Y79.038 E5.16813
G1 X133.081 Y79.046 E5.18887
G1 X132.603 Y79.788 E5.26911
G1 X132.378 Y80.001 E5.29728
G1 X132.059 Y80.159 E5.32966
G1 X130.707 Y80.136 E5.45259
G1 X130.019 Y80.809 E5.54008
G1 X129.987 Y81.104 E5.56702
G1 X129.779 Y81.343 E5.59584
G1 X129.646 Y81.207 E5.61315
G1 X128.662 Y82.167 E5.73812
G1 X128.520 Y82.169 E5.75098
G1 X128.321 Y82.361 E5.77609
G1 X128.143 Y82.392 E5.79254
G1 X127.349 Y83.160 E5.89295
G1 X127.342 Y83.262 E5.90224
G1 X127.239 Y83.264 E5.91159
G1 X126.431 Y84.091 E6.01671
G1 X126.407 Y84.276 E6.03366
G1 X126.221 Y84.473 E6.05830
G1 X126.213 Y85.435 E6.14576
G1 X126.116 Y85.684 E6.17006
G1 X126.342 Y86.745 E6.26870
G1 X126.567 Y86.955 E6.29668
G1 X126.601 Y87.347 E6.33244
G1 X126.843 Y87.398 E6.35497
G1 X126.847 Y88.254 E6.43282
G1 X126.984 Y88.355 E6.44830
G1 X127.267 Y89.143 E6.52441
G1 X127.557 Y89.188 E6.55111
G1 X127.270 Y89.474 E6.58793
G1 X127.110 Y90.059 E6.64309
G1 X127.356 Y90.924 E6.72482
G1 X127.387 Y91.359 E6.76453
G1 X126.669 Y91.378 E6.82989
G1 X126.573 Y91.462 E6.84148
G1 X126.295 Y91.391 E6.86763
G1 X126.147 Y91.324 E6.88236
G1 X126.088 Y91.088 E6.90443
G1 X126.065 Y91.083 E6.90655
G1 X126.029 Y90.646 E6.94638
G1 X124.878 Y90.604 E7.05117
G1 X124.327 Y90.695 E7.10196
G1 X123.289 Y91.780 E7.23847
G1 X123.276 Y91.910 E7.25034
G1 X123.110 Y92.054 E7.27030
G1 X123.097 Y92.426 E7.30410
G1 X122.984 Y92.557 E7.31989
G1 X122.966 Y92.715 E7.33437
G1 X122.792 Y92.925 E7.35913
G1 X122.774 Y93.785 E7.43741
G1 X122.860 Y93.938 E7.45338
G1 X122.797 Y94.016 E7.46254
G1 X122.792 Y94.111 E7.47120
G1 X122.619 Y94.298 E7.49442
G1 X122.618 Y95.062 E7.56381
G1 X122.031 Y95.652 E7.63948
G1 X121.883 Y95.755 E7.65592
G1 X121.798 Y95.758 E7.66364
G1 X121.634 Y95.910 E7.68396
G1 X121.453 Y95.919 E7.70047
G1 X120.986 Y96.396 E7.76115
G1 X120.727 Y96.411 E7.78477
G1 X120.561 Y96.556 E7.80479
G1 X119.882 Y96.597 E7.86662
G1 X119.831 Y97.258 E7.92687
G1 X119.531 Y97.582 E7.96706
G1 X119.513 Y97.815 E7.98832
G1 X119.269 Y97.852 E8.01075
G1 X118.573 Y98.477 E8.09578
G1 X118.572 Y98.518 E8.09947
G1 X117.867 Y99.218 E8.18982
G1 X117.689 Y99.231 E8.20607
G1 X116.851 Y100.077 E8.31434
G1 X116.845 Y100.860 E8.38555
G1 X116.492 Y101.225 E8.43176
G1 X116.048 Y101.491 E8.47883
G1 X116.085 Y102.562 E8.57631
G1 X115.969 Y102.685 E8.59169
G1 X115.942 Y102.857 E8.60748
G1 X115.783 Y103.017 E8.62797
G1 X115.769 Y103.208 E8.64544
G1 X115.597 Y103.404 E8.66915
G1 X115.595 Y103.708 E8.69682
G1 X115.439 Y103.741 E8.71139
G1 X115.441 Y106.057 E8.92195
G1 X114.943 Y106.638 E8.99156
G1 X115.658 Y107.034 E9.06586
G1 X115.313 Y107.394 E9.11118
G1 X115.172 Y107.673 E9.13957
G1 X114.449 Y108.393 E9.23236
G1 X113.726 Y108.391 E9.29809
G1 X113.717 Y109.023 E9.35552
G1 X113.461 Y109.022 E9.37880
G1 X113.248 Y108.866 E9.40281
G1 X111.063 Y108.868 E9.60154
G1 X111.054 Y108.839 E9.60436
G1 X110.303 Y108.724 E9.67346
G1 X109.413 Y108.718 E9.75437
G1 X109.381 Y108.559 E9.76910
G1 X107.263 Y108.554 E9.96176
G1 X106.852 Y108.396 E10.00173
G1 X103.001 Y108.397 E10.35190
G1 X102.933 Y108.319 E10.36135
G1 X102.364 Y108.247 E10.41351
G1 X100.937 Y108.242 E10.54325
G1 X100.930 Y108.083 E10.55772
G1 X95.954 Y108.087 E11.01025
G1 X95.740 Y107.929 E11.03442
G1 X90.532 Y107.923 E11.50794
G1 X90.512 Y107.788 E11.52035
G1 X88.706 Y107.769 E11.68460
G1 X88.682 Y107.791 E11.68751
G1 X87.953 Y107.791 E11.75386
G1 X87.776 Y107.931 E11.77430
G1 X82.508 Y107.924 E12.25339
G1 X82.529 Y107.270 E12.31287
G1 X82.666 Y107.120 E12.33133
G1 X82.675 Y106.971 E12.34495
G1 X82.853 Y106.780 E12.36866
G1 X82.851 Y106.514 E12.39288
G1 X83.075 Y106.407 E12.41553
G1 X83.474 Y105.896 E12.47442
G1 X84.037 Y105.788 E12.52654
G1 X84.081 Y104.959 E12.60201
G1 X84.272 Y104.766 E12.62665
G1 X84.527 Y104.423 E12.66555
G1 X84.541 Y104.292 E12.67754
G1 X84.745 Y104.027 E12.70800
G1 X84.726 Y103.683 E12.73932
G1 X85.572 Y102.841 E12.84786
G1 X85.916 Y102.829 E12.87916
G1 X86.261 Y102.398 E12.92940
G1 X86.297 Y103.231 E13.00525
G1 X87.257 Y102.542 E13.11274
G1 X88.074 Y102.259 E13.19129
G1 X89.047 Y101.486 E13.30434
G1 X88.872 Y101.246 E13.33127
G1 X90.319 Y99.795 E13.51762
G1 X89.257 Y99.643 E13.61517
G1 X89.272 Y99.465 E13.63141
G1 X88.735 Y98.775 E13.71094
G1 X88.311 Y98.750 E13.74955
G1 X88.295 Y98.117 E13.80712
G1 X87.842 Y98.103 E13.84834
G1 X87.838 Y97.816 E13.87442
G1 X87.693 Y97.810 E13.88759
G1 X87.692 Y97.611 E13.90569
G1 X87.605 Y97.525 E13.91685
G1 X88.392 Y96.732 E14.01847
G1 X89.120 Y96.696 E14.08466
G1 X89.069 Y95.428 E14.20005
G1 X89.515 Y95.363 E14.24104
G1 X89.540 Y94.660 E14.30505
G1 X89.673 Y94.639 E14.31724
G1 X89.748 Y94.569 E14.32658
G1 X90.227 Y94.564 E14.37012
G1 X91.006 Y94.223 E14.44745
G1 X91.232 Y94.207 E14.46803
G1 X91.602 Y93.422 E14.54692
G1 X91.602 Y81.133 E15.66439
G1 X91.755 Y80.946 E15.68635
G1 X91.758 Y70.812 E16.60777
G1 X91.918 Y70.444 E16.64430
G1 X91.845 Y69.567 E16.72433
G1 X91.756 Y69.524 E16.73327
G1 X91.757 Y66.601 E16.99913
G1 X91.915 Y66.266 E17.03277
G1 X91.915 Y65.358 E17.11536
G1 X96.059 Y65.350 E17.49213
G1 X96.215 Y65.505 E17.51212
G1 X102.157 Y65.506 E18.05243
G1 X102.466 Y65.662 E18.08391
G1 X106.634 Y65.664 E18.46292
G1 X106.751 Y65.817 E18.48042
G1 X110.428 Y65.818 E18.81480
G1 X110.427 Y65.973 E18.82890
G1 X114.419 Y65.975 E19.19187
G1 X114.524 Y66.127 E19.20862
G1 X117.969 Y66.134 E19.52188
G1 X118.252 Y66.285 E19.55110
G1 X120.925 Y66.292 E19.79417
G1 X121.285 Y66.440 E19.82952
G1 X123.703 Y66.445 E20.04947
G1 X123.846 Y66.593 E20.06818
G1 X125.981 Y66.597 E20.26227
G1 X125.993 Y66.740 E20.27527
G1 X128.850 Y66.753 E20.53498
G1 X128.989 Y66.903 E20.55364
G1 X130.979 Y66.903 E20.73457
G1 X131.074 Y66.232 E20.79610
G1 X131.246 Y66.055 E20.81856
G1 X131.252 Y65.892 E20.83341
G1 X131.915 Y65.237 E20.91814
G1 X131.876 Y64.430 E20.99158
G1 X132.326 Y63.787 E21.06298
G1 X133.932 Y63.561 F7800.000
G1 F900
G1 X134.350 Y63.702 E21.10306
G1 X134.391 Y64.301 E21.15767
G1 X134.752 Y63.987 E21.20120
G1 X134.937 Y65.316 E21.32318
G1 X135.247 Y65.106 E21.35724
G1 X135.314 Y66.224 E21.45909
G1 X135.140 Y66.411 E21.48228
G1 X135.121 Y66.572 E21.49706
G1 X134.956 Y66.759 E21.51970
G1 X134.997 Y67.337 E21.57242
G1 X135.065 Y67.345 E21.57857
G1 X135.439 Y67.534 E21.61676
G1 X136.076 Y67.525 E21.67464
G1 X136.532 Y67.101 E21.73129
G1 X136.557 Y67.625 E21.77900
G1 X136.615 Y67.636 E21.78435
G1 X136.737 Y68.020 E21.82102
G1 X136.978 Y68.149 E21.84584
G1 X137.464 Y68.165 E21.89009
G1 X138.090 Y67.560 E21.96924
G1 X138.105 Y68.024 E22.01143
G1 X138.249 Y68.076 E22.02534
G1 X138.244 Y68.363 E22.05151
G1 X138.570 Y68.455 E22.08231
G1 X138.092 Y68.929 E22.14350
G1 X138.093 Y69.497 E22.19516
G1 X138.385 Y69.724 E22.22880
G1 X138.283 Y69.858 E22.24410
G1 X138.247 Y70.024 E22.25950
G1 X138.247 Y70.333 E22.28767
G1 X138.389 Y70.646 E22.31887
G1 X138.556 Y70.654 E22.33407
G1 X138.559 Y70.866 E22.35342
G1 X138.713 Y71.062 E22.37604
G1 X138.716 Y71.524 E22.41803
