; generated by Slic3r 1.3.0-dev on 2017-08-18 at 21:21:30

; external perimeters extrusion width = 0.40mm (1.14mm^3/s)
; perimeters extrusion width = 0.68mm (3.95mm^3/s)
; infill extrusion width = 1.20mm (9.43mm^3/s)
; solid infill extrusion width = 0.68mm (1.32mm^3/s)
; top infill extrusion width = 0.68mm (0.99mm^3/s)
; support material extrusion width = 0.40mm (2.27mm^3/s)

M107
M190 S66 ; set bed temperature and wait for it to be reached
M104 S215 ; set temperature
G28 ; home all axes
G1 Z5 F5000 ; lift nozzle

; Filament gcode

M109 S215 ; set temperature and wait for it to be reached
G21 ; set units to millimeters
G90 ; use absolute coordinates
M82 ; use absolute distances for extrusion
G92 E0
G1 Z0.350 F7800.000
G1 E-2.00000 F2400.00000
G92 E0
G1 X65.886 Y73.154 F7800.000
G1 E2.00000 F2400.00000
G1 F1800
G1 X67.820 Y71.923 E2.20854
G1 X69.478 Y71.477 E2.36464
G1 X81.164 Y69.915 E3.43666
G1 X82.337 Y69.863 E3.54347
G1 X91.167 Y70.257 E4.34719
G1 X92.355 Y70.419 E4.45621
G1 X110.148 Y74.508 E6.11622
G1 X110.647 Y74.643 E6.16323
G1 X117.799 Y76.886 E6.84484
G1 X119.309 Y77.578 E6.99584
G1 X143.074 Y92.321 E9.53886
G1 X144.276 Y93.276 E9.67844
G1 X144.621 Y93.623 E9.72296
G1 X145.934 Y95.504 E9.93150
G1 X146.552 Y98.300 E10.19189
G1 X146.551 Y99.676 E10.31703
G1 X146.363 Y101.244 E10.46057
G1 X139.455 Y129.569 E13.11167
G1 X139.073 Y131.055 E13.25123
G1 X138.125 Y133.144 E13.45977
G1 X136.066 Y135.083 E13.71697
G1 X135.240 Y135.574 E13.80429
G1 X133.469 Y136.556 E13.98845
G1 X131.524 Y137.265 E14.17669
G1 X117.364 Y140.028 E15.48857
G1 X116.095 Y140.151 E15.60448
G1 X115.059 Y140.151 E15.69869
G1 X112.781 Y139.747 E15.90903
G1 X110.123 Y138.773 E16.16646
G1 X109.444 Y138.481 E16.23371
G1 X106.660 Y137.092 E16.51658
G1 X105.722 Y136.523 E16.61629
G1 X100.518 Y132.742 E17.20124
G1 X99.015 Y131.224 E17.39547
G1 X88.677 Y116.700 E19.01653
G1 X64.798 Y82.439 E22.81389
G1 X63.832 Y80.359 E23.02243
G1 X63.634 Y78.064 E23.23184
G1 X63.682 Y77.526 E23.28104
G1 X64.278 Y75.311 E23.48958
G1 X65.841 Y73.195 E23.72882
G1 E21.72882 F2400.00000
G92 E0
G1 X129.786 Y128.492 F7800.000
G1 E2.00000 F2400.00000
G1 F1800
G1 X126.845 Y128.455 E2.26740
G1 X126.484 Y128.817 E2.31387
G1 X124.420 Y128.816 E2.50157
G1 X123.860 Y129.373 E2.57336
G1 X123.743 Y129.419 E2.58476
G1 X122.268 Y129.472 E2.71901
G1 X121.052 Y127.041 E2.96614
G1 X119.929 Y129.456 E3.20833
G1 X118.752 Y130.044 E3.32793
G1 X117.944 Y128.429 E3.49217
G1 X116.636 Y131.235 E3.77376
G1 X116.123 Y131.235 E3.82036
G1 X115.749 Y131.609 E3.86843
G1 X115.629 Y131.282 E3.90013
G1 X115.634 Y130.545 E3.96718
G1 X113.665 Y130.544 E4.14620
G1 X112.948 Y130.435 E4.21216
G1 X112.450 Y130.102 E4.26666
G1 X112.169 Y129.667 E4.31377
G1 X112.169 Y129.239 E4.35270
G1 X111.006 Y129.201 E4.45847
G1 X110.963 Y128.818 E4.49353
G1 X110.442 Y128.818 E4.54088
G1 X110.443 Y128.127 E4.60369
G1 X109.761 Y128.127 E4.66570
G1 X109.663 Y126.372 E4.82546
G1 X109.465 Y126.376 E4.84350
G1 X109.479 Y126.057 E4.87254
G1 X108.375 Y126.056 E4.97293
G1 X108.378 Y125.364 E5.03590
G1 X106.644 Y125.364 E5.19355
G1 X106.644 Y124.515 E5.27074
G1 X107.971 Y123.182 E5.44176
G1 X107.866 Y122.924 E5.46710
G1 X107.968 Y121.791 E5.57053
G1 X108.371 Y121.637 E5.60985
G1 X109.119 Y120.713 E5.71789
G1 X109.256 Y120.662 E5.73120
G1 X110.172 Y120.659 E5.81448
G1 X111.606 Y119.678 E5.97246
G1 X111.823 Y118.838 E6.05133
G1 X111.823 Y116.728 E6.24318
G1 X111.025 Y116.728 E6.31571
G1 X111.145 Y116.523 E6.33734
G1 X109.433 Y116.265 E6.49479
G1 X109.450 Y115.375 E6.57573
G1 X106.136 Y116.038 E6.88308
G1 X104.478 Y116.033 E7.03379
G1 X104.479 Y116.981 E7.11998
G1 X104.020 Y116.419 E7.18595
G1 X103.302 Y116.730 E7.25702
G1 X103.533 Y116.210 E7.30871
G1 X103.533 Y115.020 E7.41690
G1 X104.058 Y114.408 E7.49028
G1 X106.036 Y114.403 E7.67014
G1 X106.379 Y114.064 E7.71397
G1 X106.567 Y114.354 E7.74536
G1 X106.945 Y114.376 E7.77976
G1 X106.740 Y115.334 E7.86888
G1 X109.988 Y114.252 E8.18019
G1 X110.788 Y113.483 E8.28103
G1 X110.786 Y111.450 E8.46589
G1 X110.442 Y111.292 E8.50033
G1 X110.442 Y109.561 E8.65769
G1 X110.085 Y108.035 E8.80023
G1 X110.085 Y107.749 E8.82624
G1 X109.751 Y107.749 E8.85665
G1 X109.751 Y107.410 E8.88745
G1 X107.400 Y107.400 E9.10122
G1 X107.176 Y107.247 E9.12588
G1 X106.893 Y106.358 E9.21070
G1 X104.761 Y106.358 E9.40457
G1 X104.424 Y106.689 E9.44747
G1 X104.313 Y106.022 E9.50897
G1 X104.225 Y106.022 E9.51698
G1 X104.225 Y105.331 E9.57979
G1 X103.880 Y105.331 E9.61120
G1 X103.880 Y104.973 E9.64376
G1 X102.960 Y104.973 E9.72741
G1 X102.932 Y104.891 E9.73529
G1 X102.844 Y104.832 E9.74496
G1 X102.844 Y103.088 E9.90354
G1 X104.699 Y100.660 E10.18140
G1 X103.402 Y100.271 E10.30451
G1 X103.989 Y99.479 E10.39415
G1 X103.904 Y99.435 E10.40285
G1 X103.995 Y99.137 E10.43117
G1 X104.704 Y99.216 E10.49600
G1 X105.025 Y99.541 E10.53752
G1 X107.157 Y98.830 E10.74183
G1 X107.333 Y97.606 E10.85428
G1 X107.333 Y97.232 E10.88832
G1 X107.876 Y96.690 E10.95807
G1 X107.940 Y97.317 E11.01539
G1 X110.487 Y94.769 E11.34294
G1 X110.838 Y94.953 E11.37897
G1 X111.549 Y94.716 E11.44707
G1 X113.896 Y94.716 E11.66048
G1 X114.590 Y93.505 E11.78744
G1 X114.590 Y93.163 E11.81850
G1 X115.761 Y91.953 E11.97155
G1 X116.132 Y91.953 E12.00529
G1 X116.222 Y92.134 E12.02375
G1 X116.222 Y92.982 E12.10081
G1 X116.699 Y92.984 E12.14416
G1 X116.448 Y96.436 E12.45892
G1 X117.094 Y96.438 E12.51761
G1 X115.916 Y99.580 E12.82268
G1 X118.323 Y98.164 E13.07663
G1 X118.709 Y98.165 E13.11177
G1 X118.644 Y98.555 E13.14775
G1 X118.906 Y98.656 E13.17326
G1 X118.843 Y98.740 E13.18279
G1 X119.874 Y99.772 E13.31549
G1 X120.022 Y100.222 E13.35854
G1 X120.022 Y101.278 E13.45458
G1 X120.751 Y101.278 E13.52090
G1 X121.425 Y101.529 E13.58630
G1 X121.629 Y101.733 E13.61258
G1 X121.825 Y102.232 E13.66124
G1 X123.749 Y102.659 E13.84051
G1 X124.700 Y102.659 E13.92698
G1 X126.473 Y100.893 E14.15454
G1 X128.351 Y102.275 E14.36662
G1 X128.727 Y101.970 E14.41066
G1 X130.373 Y101.970 E14.56032
G1 X130.373 Y102.782 E14.63418
G1 X132.994 Y100.241 E14.96614
G1 X136.255 Y100.242 E15.26263
G1 X136.255 Y101.778 E15.40237
G1 X135.909 Y102.124 E15.44679
G1 X135.909 Y103.505 E15.57241
G1 X135.564 Y103.851 E15.61682
G1 X135.564 Y105.578 E15.77385
G1 X135.219 Y105.923 E15.81826
G1 X135.219 Y107.306 E15.94402
G1 X134.874 Y107.655 E15.98865
G1 X134.873 Y109.036 E16.11418
G1 X134.528 Y109.386 E16.15888
G1 X134.528 Y111.104 E16.31514
G1 X134.182 Y111.451 E16.35964
G1 X134.182 Y112.831 E16.48512
G1 X133.837 Y113.176 E16.52953
G1 X133.837 Y114.557 E16.65512
G1 X133.492 Y114.902 E16.69951
G1 X133.492 Y116.285 E16.82529
G1 X133.147 Y116.634 E16.86986
G1 X133.147 Y118.357 E17.02660
G1 X132.801 Y118.705 E17.07116
G1 X132.801 Y120.085 E17.19671
G1 X132.455 Y120.433 E17.24128
G1 X132.456 Y121.811 E17.36658
G1 X132.110 Y122.157 E17.41104
G1 X132.110 Y123.538 E17.53655
G1 X131.765 Y123.883 E17.58095
G1 X131.765 Y125.612 E17.73822
G1 X131.419 Y125.963 E17.78300
G1 X131.419 Y127.337 E17.90798
G1 X131.074 Y127.682 E17.95237
G1 X131.074 Y128.396 E18.01725
G1 X130.823 Y128.471 E18.04104
G1 X130.288 Y128.468 E18.08970
G1 X129.785 Y128.971 E18.15440
G1 X129.786 Y128.552 E18.19250
G1 X129.160 Y129.109 F7800.000
G1 F1800
G1 X127.101 Y129.084 E18.37973
G1 X126.743 Y129.442 E18.42580
G1 X124.677 Y129.441 E18.61366
G1 X124.210 Y129.906 E18.67358
G1 X123.874 Y130.040 E18.70642
G1 X121.889 Y130.111 E18.88710
G1 X121.073 Y128.479 E19.05300
G1 X120.403 Y129.917 E19.19727
G1 X118.473 Y130.882 E19.39352
G1 X117.964 Y129.865 E19.49695
G1 X117.034 Y131.860 E19.69711
G1 X116.382 Y131.860 E19.75637
G1 X115.641 Y132.601 E19.85169
G1 X115.337 Y132.297 E19.89080
G1 X115.003 Y131.391 E19.97859
G1 X115.005 Y131.169 E19.99875
G1 X112.958 Y131.169 E20.18484
G1 X112.962 Y131.069 E20.19396
G1 X112.506 Y130.999 E20.23591
G1 X112.487 Y130.878 E20.24709
G1 X111.995 Y130.550 E20.30083
G1 X111.846 Y130.320 E20.32576
G1 X111.544 Y130.269 E20.35363
G1 X111.544 Y129.843 E20.39234
G1 X110.446 Y129.808 E20.49228
G1 X110.405 Y129.442 E20.52569
G1 X109.817 Y129.442 E20.57908
G1 X109.818 Y128.752 E20.64189
G1 X109.170 Y128.752 E20.70081
G1 X109.073 Y127.008 E20.85962
G1 X108.812 Y127.012 E20.88333
G1 X108.826 Y126.681 E20.91346
G1 X108.024 Y126.681 E20.98646
G1 X107.748 Y126.497 E21.01657
G1 X107.750 Y125.989 E21.06283
G1 X105.316 Y125.988 E21.28414
G1 X105.283 Y125.169 E21.35869
G1 X106.019 Y125.169 E21.42562
G1 X106.019 Y124.256 E21.50861
G1 X107.236 Y123.035 E21.66540
G1 X107.137 Y122.793 E21.68916
G1 X107.262 Y122.668 E21.70519
G1 X107.363 Y121.534 E21.80873
G1 X107.652 Y121.243 E21.84602
G1 X107.991 Y121.113 E21.87900
G1 X108.741 Y120.186 E21.98740
G1 X109.143 Y120.037 E22.02640
G1 X109.978 Y120.035 E22.10228
G1 X111.059 Y119.294 E22.22148
G1 X111.198 Y118.759 E22.27181
G1 X111.198 Y117.353 E22.39960
G1 X109.939 Y117.353 E22.51414
G1 X110.142 Y117.004 E22.55091
G1 X108.797 Y116.801 E22.67456
G1 X108.810 Y116.140 E22.73468
G1 X106.197 Y116.663 E22.97703
G1 X105.103 Y116.660 E23.07644
G1 X105.104 Y117.572 E23.15941
G1 X104.495 Y117.989 E23.22648
G1 X103.834 Y117.180 E23.32142
G1 X103.268 Y117.425 E23.37751
G1 X103.270 Y117.287 E23.39010
G1 X102.909 Y117.310 E23.42292
G1 X102.909 Y117.243 E23.42897
G1 X102.218 Y117.141 E23.49248
G1 X102.218 Y116.835 E23.52033
G1 X102.648 Y116.663 E23.56239
G1 X102.908 Y116.077 E23.62068
G1 X102.908 Y114.789 E23.73783
G1 X103.541 Y114.051 E23.82625
G1 X103.612 Y113.784 E23.85139
G1 X105.779 Y113.779 E24.04842
G1 X106.486 Y113.080 E24.13877
G1 X106.919 Y113.748 E24.21118
G1 X107.708 Y113.794 E24.28300
G1 X107.579 Y114.396 E24.33897
G1 X109.657 Y113.703 E24.53811
G1 X110.163 Y113.218 E24.60188
G1 X110.161 Y111.850 E24.72619
G1 X109.654 Y111.617 E24.77696
G1 X109.817 Y111.348 E24.80549
G1 X109.817 Y109.633 E24.96143
G1 X109.603 Y108.716 E25.04711
G1 X109.460 Y108.716 E25.06007
G1 X109.460 Y108.374 E25.09118
G1 X109.126 Y108.374 E25.12159
G1 X109.126 Y108.032 E25.15262
G1 X107.205 Y108.025 E25.32725
G1 X106.646 Y107.642 E25.38890
G1 X106.436 Y106.983 E25.45173
G1 X105.016 Y106.983 E25.58081
G1 X104.005 Y107.977 E25.70971
G1 X103.784 Y106.647 E25.83234
G1 X103.600 Y106.647 E25.84904
G1 X103.600 Y105.956 E25.91185
G1 X103.255 Y105.956 E25.94325
G1 X103.255 Y105.598 E25.97582
G1 X102.509 Y105.598 E26.04360
G1 X102.408 Y105.293 E26.07284
G1 X102.219 Y105.168 E26.09344
G1 X102.219 Y103.621 E26.23410
G1 X101.530 Y103.779 E26.29837
G1 X103.654 Y100.999 E26.61648
G1 X102.563 Y100.672 E26.72000
G1 X102.564 Y100.353 E26.74895
G1 X103.052 Y99.695 E26.82350
G1 X102.765 Y99.545 E26.85285
G1 X103.255 Y99.031 E26.91739
G1 X103.255 Y98.355 E26.97892
G1 X103.374 Y98.235 E26.99430
G1 X103.723 Y98.235 E27.02596
G1 X103.723 Y98.478 E27.04802
G1 X104.993 Y98.620 E27.16427
G1 X105.196 Y98.825 E27.19053
G1 X106.593 Y98.360 E27.32444
G1 X106.709 Y97.562 E27.39776
G1 X106.709 Y96.973 E27.45125
G1 X108.363 Y95.319 E27.66401
G1 X108.427 Y95.946 E27.72131
G1 X110.370 Y94.003 E27.97111
G1 X110.892 Y94.276 E28.02475
G1 X111.963 Y93.919 E28.12738
G1 X112.045 Y94.091 E28.14467
G1 X113.534 Y94.091 E28.28008
G1 X113.965 Y93.338 E28.35899
G1 X113.965 Y91.790 E28.49980
G1 X113.271 Y91.790 E28.56295
G1 X113.271 Y89.378 E28.78230
G1 X113.004 Y89.378 E28.80653
G1 X113.050 Y88.788 E28.86028
G1 X112.231 Y88.481 E28.93988
G1 X112.079 Y88.025 E28.98354
G1 X111.897 Y87.904 E29.00346
G1 X111.903 Y87.478 E29.04222
G1 X112.760 Y87.573 E29.12065
G1 X112.994 Y88.219 E29.18314
G1 X113.189 Y88.219 E29.20089
G1 X113.707 Y89.601 E29.33507
G1 X114.353 Y89.600 E29.39382
G1 X114.468 Y89.946 E29.42693
G1 X114.758 Y89.946 E29.45324
G1 X114.758 Y92.091 E29.64834
G1 X115.495 Y91.329 E29.74479
G1 X116.517 Y91.327 E29.83774
G1 X116.703 Y91.699 E29.87555
G1 X116.847 Y91.657 E29.88919
G1 X116.847 Y92.360 E29.95310
G1 X117.538 Y92.362 E30.01595
G1 X117.542 Y93.248 E30.09652
G1 X117.306 Y93.251 E30.11793
G1 X117.120 Y95.813 E30.35156
G1 X117.994 Y95.816 E30.43107
G1 X117.120 Y98.146 E30.65738
G1 X118.953 Y97.069 E30.85067
G1 X118.987 Y97.541 E30.89368
G1 X119.447 Y97.542 E30.93551
G1 X119.345 Y98.156 E30.99212
G1 X119.909 Y98.373 E31.04712
G1 X119.671 Y98.684 E31.08271
G1 X120.422 Y99.435 E31.17927
G1 X120.595 Y99.964 E31.22985
G1 X120.646 Y99.964 E31.23455
G1 X120.646 Y100.653 E31.29717
G1 X120.864 Y100.653 E31.31692
G1 X121.771 Y100.991 E31.40494
G1 X122.096 Y101.316 E31.44674
G1 X122.143 Y101.331 E31.45121
G1 X122.285 Y101.694 E31.48664
G1 X123.818 Y102.034 E31.62943
G1 X124.442 Y102.034 E31.68618
G1 X126.497 Y99.986 E31.94997
G1 X127.108 Y100.381 E32.01610
G1 X127.042 Y100.536 E32.03140
G1 X128.332 Y101.485 E32.17709
G1 X128.505 Y101.345 E32.19734
G1 X129.954 Y101.345 E32.32907
G1 X130.153 Y100.613 E32.39807
G1 X130.998 Y100.382 E32.47765
G1 X130.998 Y101.306 E32.56162
G1 X132.741 Y99.616 E32.78239
G1 X133.424 Y99.616 E32.84444
G1 X133.768 Y99.272 E32.88872
G1 X134.117 Y99.272 E32.92043
G1 X134.117 Y99.617 E32.95180
G1 X137.330 Y99.617 E33.24399
G1 X137.265 Y100.271 E33.30377
G1 X136.880 Y100.656 E33.35326
G1 X136.880 Y102.037 E33.47888
G1 X136.534 Y102.383 E33.52329
G1 X136.534 Y103.764 E33.64892
G1 X136.189 Y104.110 E33.69333
G1 X136.189 Y105.836 E33.85036
G1 X135.844 Y106.182 E33.89477
G1 X135.843 Y107.563 E34.02033
G1 X135.499 Y107.912 E34.06495
G1 X135.498 Y109.292 E34.19048
G1 X135.153 Y109.642 E34.23517
G1 X135.153 Y111.362 E34.39159
G1 X134.807 Y111.709 E34.43609
G1 X134.807 Y113.090 E34.56163
G1 X134.462 Y113.435 E34.60604
G1 X134.462 Y114.816 E34.73164
G1 X134.117 Y115.161 E34.77603
G1 X134.117 Y116.543 E34.90165
G1 X133.771 Y116.891 E34.94623
G1 X133.771 Y118.615 E35.10302
G1 X133.426 Y118.963 E35.14758
G1 X133.426 Y120.343 E35.27312
G1 X133.080 Y120.691 E35.31769
G1 X133.080 Y122.069 E35.44304
G1 X132.735 Y122.416 E35.48751
G1 X132.735 Y123.796 E35.61306
G1 X132.390 Y124.142 E35.65746
G1 X132.390 Y125.869 E35.81454
G1 X132.044 Y126.219 E35.85930
G1 X132.044 Y127.596 E35.98448
G1 X131.699 Y127.941 E36.02888
G1 X131.699 Y128.821 E36.10891
G1 X131.600 Y128.848 E36.11821
G1 X131.532 Y128.911 E36.12664
G1 X130.913 Y129.097 E36.18538
G1 X130.546 Y129.094 E36.21881
G1 X129.947 Y129.692 E36.29574
G1 X129.160 Y129.576 E36.36814
G1 X129.160 Y129.169 E36.40514
G1 E34.40514 F2400.00000
G92 E0
G1 X109.203 Y85.677 F7800.000
G1 E2.00000 F2400.00000
G1 F1800
G1 X108.757 Y85.633 E2.04075
G1 X108.468 Y84.765 E2.12395
G1 X108.886 Y84.765 E2.16194
G1 X108.899 Y84.717 E2.16645
G1 X109.235 Y84.774 E2.19748
G1 X109.205 Y85.617 E2.27421
G1 E0.27421 F2400.00000
G92 E0
G1 X107.017 Y94.819 F7800.000
G1 E2.00000 F2400.00000
G1 F1800
G1 X107.178 Y95.249 E2.04174
G1 X106.709 Y95.249 E2.08441
G1 X106.709 Y94.875 E2.11842
G1 X106.958 Y94.830 E2.14143
G1 E0.14143 F2400.00000
G92 E0
G1 X123.755 Y97.203 F7800.000
G1 E2.00000 F2400.00000
G1 F1800
G1 X124.446 Y97.202 E2.06286
G1 X124.446 Y98.235 E2.15681
G1 X126.086 Y98.235 E2.30600
G1 X126.698 Y99.390 E2.42478
G1 X123.591 Y99.390 E2.70726
G1 X123.434 Y98.862 E2.75730
G1 X123.562 Y98.728 E2.77412
G1 X122.985 Y97.863 E2.86866
G1 X122.817 Y96.854 E2.96167
G1 X123.755 Y96.854 E3.04690
G1 X123.755 Y97.143 E3.07319
G1 X124.379 Y96.577 F7800.000
G1 F1800
G1 X125.071 Y96.576 E3.13605
G1 X125.071 Y97.610 E3.23011
G1 X125.909 Y97.610 E3.30639
G1 X126.260 Y97.265 E3.35114
G1 X126.798 Y97.265 E3.40002
G1 X126.798 Y97.584 E3.42905
G1 X126.578 Y97.827 E3.45887
G1 X127.129 Y98.869 E3.56607
G1 X127.818 Y98.398 E3.64192
G1 X127.751 Y98.914 E3.68924
G1 X127.394 Y99.821 E3.77791
G1 X127.889 Y100.141 E3.83147
G1 X127.810 Y100.325 E3.84969
G1 X128.313 Y100.695 E3.90649
G1 X128.551 Y100.502 E3.93435
G1 X128.646 Y100.720 E3.95596
G1 X129.477 Y100.720 E4.03144
G1 X129.645 Y100.104 E4.08951
G1 X130.233 Y99.943 E4.14500
G1 X130.268 Y99.040 E4.22718
G1 X131.156 Y99.336 E4.31228
G1 X131.623 Y99.345 E4.35471
G1 X131.623 Y99.830 E4.39882
G1 X132.488 Y98.991 E4.50840
G1 X133.165 Y98.991 E4.56993
G1 X133.509 Y98.647 E4.61419
G1 X134.741 Y98.647 E4.72626
G1 X134.741 Y98.992 E4.75766
G1 X137.626 Y98.992 E5.01993
G1 X138.113 Y98.626 E5.07533
G1 X138.664 Y98.302 E5.13346
G1 X139.231 Y98.301 E5.18504
G1 X139.231 Y98.649 E5.21662
G1 X139.577 Y98.648 E5.24802
