; generated by Slic3r 1.3.0-dev on 2017-08-18 at 21:22:54

; external perimeters extrusion width = 0.40mm (1.14mm^3/s)
; perimeters extrusion width = 0.68mm (3.95mm^3/s)
; infill extrusion width = 1.20mm (9.43mm^3/s)
; solid infill extrusion width = 0.68mm (1.32mm^3/s)
; top infill extrusion width = 0.68mm (0.99mm^3/s)
; support material extrusion width = 0.40mm (2.27mm^3/s)

M107
M190 S66 ; set bed temperature and wait for it to be reached
M104 S215 ; set temperature
G28 ; home all axes
G1 Z5 F5000 ; lift nozzle

; Filament gcode

M109 S215 ; set temperature and wait for it to be reached
G21 ; set units to millimeters
G90 ; use absolute coordinates
M82 ; use absolute distances for extrusion
G92 E0
G1 Z0.350 F7800.000
G1 E-2.00000 F2400.00000
G92 E0
G1 X85.823 Y74.687 F7800.000
G1 E2.00000 F2400.00000
G1 F1800
G1 X87.112 Y73.361 E2.16815
G1 X90.042 Y71.609 E2.47862
G1 X90.347 Y71.522 E2.50742
G1 X92.069 Y71.268 E2.66575
G1 X92.866 Y71.277 E2.73818
G1 X96.838 Y71.535 E3.10010
G1 X98.375 Y71.820 E3.24225
G1 X100.879 Y72.598 E3.48069
G1 X101.674 Y72.903 E3.55811
G1 X124.642 Y83.436 E5.85574
G1 X126.530 Y84.738 E6.06429
G1 X127.861 Y86.606 E6.27283
G1 X128.506 Y89.487 E6.54123
G1 X127.806 Y103.689 E7.83419
G1 X127.453 Y105.517 E8.00351
G1 X117.696 Y133.839 E10.72733
G1 X117.318 Y134.724 E10.81483
G1 X117.103 Y135.140 E10.85743
G1 X115.772 Y136.908 E11.05866
G1 X113.849 Y138.182 E11.26843
G1 X111.282 Y138.731 E11.50709
G1 X110.731 Y138.737 E11.55725
G1 X110.047 Y138.710 E11.61945
G1 X87.597 Y136.637 E13.66955
G1 X85.384 Y136.034 E13.87810
G1 X82.795 Y133.863 E14.18527
G1 X82.735 Y133.777 E14.19485
G1 X81.560 Y130.686 E14.49557
G1 X81.494 Y129.675 E14.58765
G1 X81.765 Y95.874 E17.66128
G1 X81.893 Y94.056 E17.82700
G1 X83.707 Y79.895 E19.12515
G1 X83.903 Y78.607 E19.24365
G1 X84.295 Y77.166 E19.37943
G1 X84.417 Y76.857 E19.40965
G1 X85.790 Y74.738 E19.63925
G1 E17.63925 F2400.00000
G92 E0
G1 X115.816 Y107.854 F7800.000
G1 E2.00000 F2400.00000
G1 F1800
G1 X116.515 Y108.087 E2.06698
G1 X116.112 Y108.393 E2.11294
G1 X116.220 Y108.716 E2.14387
G1 X116.172 Y109.223 E2.19023
G1 X115.972 Y109.423 E2.21593
G1 X115.968 Y109.845 E2.25430
G1 X115.874 Y109.955 E2.26746
G1 X115.874 Y110.221 E2.29163
G1 X115.713 Y110.464 E2.31813
G1 X115.705 Y110.944 E2.36177
G1 X115.539 Y111.172 E2.38740
G1 X115.414 Y111.852 E2.45031
G1 X115.190 Y112.163 E2.48513
G1 X115.188 Y112.629 E2.52757
G1 X114.922 Y113.390 E2.60082
G1 X114.924 Y113.494 E2.61031
G1 X114.686 Y114.271 E2.68421
G1 X114.450 Y115.153 E2.76717
G1 X114.442 Y115.259 E2.77692
G1 X114.338 Y115.415 E2.79396
G1 X114.180 Y116.137 E2.86116
G1 X113.978 Y116.339 E2.88716
G1 X113.978 Y116.599 E2.91072
G1 X113.891 Y116.685 E2.92183
G1 X113.891 Y117.030 E2.95322
G1 X113.719 Y117.203 E2.97543
G1 X113.719 Y117.462 E2.99898
G1 X113.609 Y117.571 E3.01304
G1 X113.626 Y118.062 E3.05767
G1 X113.585 Y118.200 E3.07083
G1 X113.373 Y118.412 E3.09801
G1 X113.373 Y118.843 E3.13727
G1 X113.201 Y119.016 E3.15948
G1 X113.201 Y119.362 E3.19088
G1 X113.114 Y119.448 E3.20199
G1 X113.114 Y119.707 E3.22554
G1 X113.058 Y119.763 E3.23278
G1 X112.904 Y120.601 E3.31019
G1 X112.587 Y120.912 E3.35065
G1 X112.654 Y121.412 E3.39647
G1 X112.601 Y121.680 E3.42134
G1 X112.300 Y122.507 E3.50131
G1 X112.126 Y123.310 E3.57603
G1 X112.047 Y123.534 E3.59769
G1 X111.861 Y124.213 E3.66164
G1 X111.844 Y124.431 E3.68153
G1 X111.628 Y124.864 E3.72558
G1 X111.585 Y125.098 E3.74719
G1 X111.534 Y125.250 E3.76171
G1 X111.376 Y125.401 E3.78164
G1 X111.285 Y126.202 E3.85489
G1 X111.042 Y126.449 E3.88644
G1 X111.042 Y126.701 E3.90935
G1 X110.956 Y126.787 E3.92045
G1 X110.956 Y127.311 E3.96806
G1 X110.900 Y127.395 E3.97724
G1 X110.705 Y128.161 E4.04911
G1 X110.518 Y128.349 E4.07320
G1 X110.410 Y129.208 E4.15199
G1 X110.248 Y129.451 E4.17856
G1 X110.175 Y129.946 E4.22402
G1 X110.034 Y130.066 E4.24087
G1 X110.017 Y130.168 E4.25020
G1 X109.226 Y130.168 E4.32210
G1 X109.226 Y130.081 E4.32996
G1 X108.414 Y130.081 E4.40381
G1 X108.411 Y129.995 E4.41161
G1 X107.571 Y129.995 E4.48803
G1 X107.570 Y129.908 E4.49590
G1 X106.789 Y129.908 E4.56687
G1 X106.788 Y129.822 E4.57473
G1 X105.607 Y129.822 E4.68209
G1 X105.607 Y129.736 E4.68994
G1 X105.175 Y129.736 E4.72919
G1 X105.175 Y129.649 E4.73704
G1 X104.398 Y129.649 E4.80771
G1 X104.398 Y129.511 E4.82028
G1 X102.671 Y129.566 E4.97743
G1 X102.671 Y129.477 E4.98558
G1 X101.808 Y129.477 E5.06406
G1 X101.808 Y129.390 E5.07192
G1 X100.925 Y129.390 E5.15221
G1 X100.924 Y129.304 E5.16006
G1 X100.069 Y129.304 E5.23778
G1 X100.068 Y129.218 E5.24563
G1 X99.207 Y129.218 E5.32397
G1 X99.206 Y129.131 E5.33182
G1 X97.400 Y129.131 E5.49603
G1 X97.400 Y129.045 E5.50388
G1 X96.454 Y129.045 E5.58990
G1 X96.454 Y129.006 E5.59349
G1 X94.638 Y128.952 E5.75871
G1 X94.637 Y128.786 E5.77377
G1 X93.690 Y128.786 E5.85994
G1 X93.690 Y128.700 E5.86779
G1 X92.738 Y128.700 E5.95436
G1 X92.738 Y128.613 E5.96221
G1 X91.790 Y128.613 E6.04840
G1 X91.790 Y128.525 E6.05645
G1 X90.755 Y128.526 E6.15047
G1 X90.755 Y128.441 E6.15816
G1 X90.668 Y128.441 E6.16610
G1 X90.669 Y126.906 E6.30567
G1 X90.687 Y126.844 E6.31158
G1 X90.606 Y124.808 E6.49687
G1 X90.637 Y124.777 E6.50078
G1 X90.577 Y124.017 E6.57008
G1 X90.577 Y122.491 E6.70885
G1 X91.033 Y120.669 E6.87969
G1 X90.496 Y120.669 E6.92847
G1 X90.494 Y119.353 E7.04808
G1 X90.480 Y119.296 E7.05350
G1 X90.496 Y119.224 E7.06012
G1 X90.496 Y116.889 E7.27252
G1 X90.673 Y116.839 E7.28925
G1 X90.378 Y115.627 E7.40266
G1 X90.659 Y114.221 E7.53306
G1 X92.672 Y112.207 E7.79202
G1 X90.323 Y112.207 E8.00562
G1 X90.323 Y110.912 E8.12344
G1 X90.343 Y110.745 E8.13865
G1 X90.316 Y110.736 E8.14126
G1 X90.325 Y109.920 E8.21547
G1 X91.429 Y108.484 E8.38015
G1 X90.889 Y108.323 E8.43139
G1 X91.429 Y107.621 E8.51187
G1 X90.237 Y107.263 E8.62502
G1 X90.238 Y102.191 E9.08624
G1 X90.151 Y102.191 E9.09416
G1 X90.151 Y100.438 E9.25360
G1 X89.994 Y100.379 E9.26879
G1 X90.151 Y100.223 E9.28891
G1 X90.151 Y97.701 E9.51819
G1 X90.080 Y97.701 E9.52462
G1 X90.064 Y95.560 E9.71933
G1 X90.197 Y95.427 E9.73640
G1 X90.170 Y95.024 E9.77314
G1 X90.237 Y94.854 E9.78977
G1 X90.237 Y94.437 E9.82763
G1 X90.302 Y94.372 E9.83599
G1 X90.338 Y93.260 E9.93724
G1 X90.492 Y92.924 E9.97079
G1 X90.502 Y92.101 E10.04569
G1 X90.669 Y91.933 E10.06718
G1 X90.669 Y91.156 E10.13784
G1 X90.755 Y91.070 E10.14895
G1 X90.755 Y90.379 E10.21176
G1 X90.847 Y90.288 E10.22352
G1 X90.845 Y90.068 E10.24348
G1 X90.928 Y89.992 E10.25376
G1 X90.928 Y88.997 E10.34420
G1 X90.960 Y88.966 E10.34830
G1 X91.046 Y87.929 E10.44285
G1 X91.175 Y87.801 E10.45940
G1 X91.192 Y86.835 E10.54722
G1 X91.360 Y86.668 E10.56875
G1 X91.360 Y85.716 E10.65524
G1 X91.446 Y85.630 E10.66632
G1 X91.446 Y85.285 E10.69773
G1 X91.532 Y85.198 E10.70886
G1 X91.532 Y84.594 E10.76381
G1 X91.601 Y84.525 E10.77262
G1 X91.614 Y84.026 E10.81800
G1 X92.795 Y84.158 E10.92597
G1 X93.136 Y84.669 E10.98190
G1 X94.590 Y84.669 E11.11411
G1 X95.047 Y84.339 E11.16544
G1 X95.554 Y84.070 E11.21764
G1 X96.445 Y82.733 E11.36369
G1 X96.447 Y82.653 E11.37096
G1 X97.186 Y81.648 E11.48439
G1 X96.640 Y81.060 E11.55737
G1 X97.368 Y80.492 E11.64133
G1 X97.757 Y80.755 E11.68399
G1 X97.900 Y82.438 E11.83761
G1 X96.882 Y83.409 E11.96549
G1 X96.777 Y83.457 E11.97604
G1 X95.839 Y84.399 E12.09694
G1 X95.734 Y85.238 E12.17377
G1 X95.847 Y86.596 E12.29776
G1 X95.850 Y87.520 E12.38178
G1 X95.931 Y87.520 E12.38913
G1 X95.931 Y88.381 E12.46735
G1 X96.795 Y88.381 E12.54586
G1 X96.795 Y88.467 E12.55371
G1 X97.744 Y88.467 E12.64008
G1 X97.744 Y88.553 E12.64793
G1 X98.608 Y88.553 E12.72644
G1 X98.608 Y88.640 E12.73431
G1 X99.558 Y88.640 E12.82068
G1 X99.558 Y88.726 E12.82854
G1 X100.420 Y88.726 E12.90696
G1 X100.420 Y88.812 E12.91479
G1 X101.285 Y88.812 E12.99340
G1 X101.285 Y88.899 E13.00125
G1 X102.148 Y88.899 E13.07977
G1 X102.148 Y88.985 E13.08762
G1 X103.012 Y88.985 E13.16613
G1 X103.012 Y89.071 E13.17399
G1 X103.875 Y89.071 E13.25251
G1 X103.875 Y89.158 E13.26036
G1 X104.652 Y89.158 E13.33102
G1 X104.652 Y89.244 E13.33887
G1 X105.516 Y89.244 E13.41739
G1 X105.516 Y89.330 E13.42524
G1 X106.379 Y89.330 E13.50376
G1 X106.379 Y89.417 E13.51161
G1 X107.156 Y89.417 E13.58226
G1 X107.156 Y89.503 E13.59011
G1 X108.020 Y89.503 E13.66864
G1 X108.020 Y89.589 E13.67649
G1 X108.797 Y89.589 E13.74715
G1 X108.797 Y89.676 E13.75500
G1 X109.574 Y89.676 E13.82566
G1 X109.574 Y89.762 E13.83352
G1 X110.351 Y89.762 E13.90417
G1 X110.351 Y89.848 E13.91203
G1 X111.128 Y89.848 E13.98269
G1 X111.128 Y89.936 E13.99067
G1 X111.905 Y89.936 E14.06132
G1 X111.905 Y90.021 E14.06909
G1 X112.769 Y90.021 E14.14761
G1 X112.769 Y90.108 E14.15555
G1 X113.460 Y90.108 E14.21836
G1 X113.460 Y90.197 E14.22641
G1 X114.945 Y90.195 E14.36144
G1 X115.705 Y90.275 E14.43093
G1 X115.705 Y90.454 E14.44713
G1 X116.482 Y90.453 E14.51779
G1 X116.482 Y90.540 E14.52564
G1 X117.259 Y90.539 E14.59630
G1 X117.259 Y90.625 E14.60410
G1 X117.432 Y90.625 E14.61980
G1 X117.432 Y90.713 E14.62780
G1 X117.863 Y90.713 E14.66705
G1 X117.863 Y90.799 E14.67487
G1 X118.640 Y90.799 E14.74553
G1 X118.640 Y90.885 E14.75341
G1 X118.829 Y90.885 E14.77054
G1 X119.050 Y91.546 E14.83391
G1 X118.595 Y92.924 E14.96585
G1 X118.986 Y93.187 E15.00869
G1 X118.986 Y95.029 E15.17622
G1 X119.062 Y95.029 E15.18317
G1 X119.072 Y95.257 E15.20390
G1 X119.101 Y95.285 E15.20753
G1 X119.056 Y95.457 E15.22368
G1 X118.350 Y96.170 E15.31497
G1 X118.342 Y96.260 E15.32317
G1 X118.212 Y96.390 E15.33990
G1 X118.210 Y96.991 E15.39457
G1 X118.163 Y97.038 E15.40067
G1 X117.956 Y98.074 E15.49671
G1 X117.934 Y98.595 E15.54410
G1 X117.997 Y99.879 E15.66101
G1 X118.138 Y99.950 E15.67531
G1 X118.146 Y100.344 E15.71117
G1 X118.467 Y100.461 E15.74224
G1 X118.467 Y100.712 E15.76507
G1 X118.251 Y100.929 E15.79297
G1 X118.360 Y102.613 E15.94644
G1 X118.720 Y102.901 E15.98834
G1 X118.106 Y105.152 E16.20052
G1 X118.024 Y105.174 E16.20820
G1 X117.859 Y105.627 E16.25202
G1 X117.822 Y105.650 E16.25598
G1 X117.618 Y106.053 E16.29707
G1 X115.858 Y107.812 E16.52328
G1 X116.973 Y107.581 F7800.000
G1 F1800
G1 X117.660 Y107.810 E16.58914
G1 X117.356 Y108.195 E16.63375
G1 X117.363 Y108.228 E16.63675
G1 X116.847 Y108.620 E16.69573
G1 X116.919 Y108.837 E16.71650
G1 X116.833 Y108.873 E16.72501
G1 X116.773 Y109.506 E16.78282
G1 X116.594 Y109.685 E16.80580
G1 X116.590 Y110.078 E16.84157
G1 X116.499 Y110.186 E16.85440
G1 X116.499 Y110.409 E16.87469
G1 X116.335 Y110.657 E16.90170
G1 X116.327 Y111.120 E16.94384
G1 X116.295 Y111.197 E16.95143
G1 X116.128 Y111.425 E16.97711
G1 X115.991 Y112.122 E17.04167
G1 X115.814 Y112.366 E17.06910
G1 X115.812 Y112.820 E17.11035
G1 X115.730 Y112.943 E17.12387
G1 X115.549 Y113.485 E17.17583
G1 X115.551 Y113.572 E17.18370
G1 X115.304 Y114.394 E17.26170
G1 X115.289 Y114.617 E17.28205
G1 X115.229 Y114.677 E17.28978
G1 X115.069 Y115.258 E17.34457
G1 X115.054 Y115.468 E17.36371
G1 X114.924 Y115.664 E17.38516
G1 X114.775 Y116.339 E17.44801
G1 X114.775 Y116.426 E17.45585
G1 X114.603 Y116.598 E17.47806
G1 X114.603 Y116.857 E17.50162
G1 X114.516 Y116.944 E17.51272
G1 X114.516 Y117.289 E17.54412
G1 X114.344 Y117.462 E17.56633
G1 X114.344 Y117.721 E17.58988
G1 X114.243 Y117.821 E17.60278
G1 X114.254 Y118.143 E17.63207
G1 X114.138 Y118.531 E17.66889
G1 X113.998 Y118.671 E17.68686
G1 X113.998 Y119.102 E17.72612
G1 X113.825 Y119.275 E17.74833
G1 X113.825 Y119.620 E17.77973
G1 X113.739 Y119.707 E17.79084
G1 X113.739 Y119.966 E17.81439
G1 X113.637 Y120.068 E17.82748
G1 X113.483 Y120.908 E17.90517
G1 X113.248 Y121.139 E17.93516
G1 X113.290 Y121.458 E17.96441
G1 X113.242 Y121.626 E17.98031
G1 X113.195 Y121.926 E18.00789
G1 X113.151 Y121.986 E18.01465
G1 X112.962 Y122.539 E18.06781
G1 X112.962 Y122.729 E18.08507
G1 X112.872 Y122.819 E18.09662
G1 X112.733 Y123.462 E18.15648
G1 X112.480 Y124.321 E18.23786
G1 X112.458 Y124.601 E18.26342
G1 X112.226 Y125.065 E18.31058
G1 X112.191 Y125.255 E18.32816
G1 X112.078 Y125.593 E18.36058
G1 X111.972 Y125.696 E18.37402
G1 X111.882 Y126.487 E18.44641
G1 X111.667 Y126.705 E18.47429
G1 X111.667 Y126.960 E18.49745
G1 X111.580 Y127.046 E18.50855
G1 X111.580 Y127.500 E18.54984
G1 X111.479 Y127.653 E18.56648
G1 X111.268 Y128.481 E18.64423
G1 X111.111 Y128.639 E18.66444
G1 X111.012 Y129.432 E18.73717
G1 X110.846 Y129.681 E18.76442
G1 X110.759 Y130.269 E18.81842
G1 X110.613 Y130.394 E18.83589
G1 X110.517 Y130.965 E18.88856
G1 X110.143 Y130.965 E18.92256
G1 X110.141 Y130.879 E18.93041
G1 X109.386 Y130.879 E18.99910
G1 X109.386 Y130.792 E19.00694
G1 X108.604 Y130.792 E19.07802
G1 X108.604 Y130.706 E19.08587
G1 X107.806 Y130.706 E19.15841
G1 X107.804 Y130.620 E19.16625
G1 X106.956 Y130.620 E19.24337
G1 X106.954 Y130.533 E19.25121
G1 X106.175 Y130.533 E19.32204
G1 X106.174 Y130.447 E19.32990
G1 X104.982 Y130.447 E19.43827
G1 X104.982 Y130.361 E19.44611
G1 X104.550 Y130.361 E19.48537
G1 X104.550 Y130.274 E19.49322
G1 X103.773 Y130.274 E19.56389
G1 X103.773 Y130.156 E19.57461
G1 X102.783 Y130.188 E19.66473
G1 X102.046 Y130.188 E19.73171
G1 X102.046 Y130.102 E19.73956
G1 X101.183 Y130.102 E19.81806
G1 X101.183 Y130.015 E19.82591
G1 X100.308 Y130.015 E19.90547
G1 X100.307 Y129.929 E19.91332
G1 X99.449 Y129.929 E19.99133
G1 X99.448 Y129.843 E19.99918
G1 X98.586 Y129.843 E20.07757
G1 X98.585 Y129.756 E20.08542
G1 X96.777 Y129.756 E20.24989
G1 X96.777 Y129.670 E20.25774
G1 X95.829 Y129.670 E20.34389
G1 X95.829 Y129.612 E20.34914
G1 X94.014 Y129.558 E20.51426
G1 X94.014 Y129.411 E20.52766
G1 X93.065 Y129.411 E20.61390
G1 X93.065 Y129.325 E20.62175
G1 X92.114 Y129.325 E20.70823
G1 X92.114 Y129.238 E20.71608
G1 X91.165 Y129.238 E20.80234
G1 X91.165 Y129.150 E20.81034
G1 X90.130 Y129.151 E20.90444
G1 X90.130 Y129.066 E20.91219
G1 X90.044 Y129.066 E20.92007
G1 X90.044 Y126.816 E21.12467
G1 X90.059 Y126.766 E21.12942
G1 X90.006 Y125.439 E21.25018
G1 X89.958 Y125.439 E21.25457
G1 X89.958 Y124.572 E21.33339
G1 X89.991 Y124.539 E21.33760
G1 X89.928 Y123.738 E21.41064
G1 X89.952 Y123.714 E21.41370
G1 X89.952 Y122.414 E21.53192
G1 X90.232 Y121.294 E21.63697
G1 X89.899 Y121.294 E21.66732
G1 X89.871 Y120.776 E21.71448
G1 X89.870 Y119.430 E21.83682
G1 X89.838 Y119.303 E21.84876
G1 X89.871 Y119.155 E21.86257
G1 X89.871 Y117.840 E21.98210
G1 X89.785 Y117.840 E21.98996
G1 X89.785 Y116.888 E22.07654
G1 X89.803 Y116.870 E22.07890
G1 X89.784 Y116.439 E22.11813
G1 X89.923 Y116.400 E22.13129
G1 X89.738 Y115.641 E22.20231
G1 X90.006 Y114.300 E22.32662
G1 X89.696 Y114.300 E22.35480
G1 X91.164 Y112.832 E22.54359
G1 X89.699 Y112.832 E22.67683
G1 X89.699 Y111.361 E22.81061
G1 X89.640 Y111.361 E22.81596
G1 X89.710 Y110.779 E22.86925
G1 X89.692 Y110.700 E22.87664
G1 X89.702 Y109.705 E22.96714
G1 X90.381 Y108.822 E23.06835
G1 X89.841 Y108.660 E23.11958
G1 X90.381 Y107.959 E23.20006
G1 X89.612 Y107.728 E23.27302
G1 X89.613 Y102.816 E23.71970
G1 X89.543 Y102.816 E23.72605
G1 X89.526 Y102.389 E23.76490
G1 X89.526 Y98.326 E24.13434
G1 X89.440 Y98.326 E24.14212
G1 X89.439 Y95.301 E24.41718
G1 X89.555 Y95.186 E24.43200
G1 X89.537 Y94.926 E24.45569
G1 X89.612 Y94.736 E24.47429
G1 X89.612 Y94.179 E24.52493
G1 X89.686 Y94.105 E24.53436
G1 X89.718 Y93.113 E24.62460
G1 X89.869 Y92.784 E24.65754
G1 X89.880 Y91.839 E24.74352
G1 X90.044 Y91.675 E24.76462
G1 X90.044 Y90.897 E24.83528
G1 X90.130 Y90.811 E24.84639
G1 X90.130 Y90.120 E24.90920
G1 X90.220 Y90.031 E24.92071
G1 X90.218 Y89.794 E24.94223
G1 X90.303 Y89.716 E24.95274
G1 X90.303 Y88.739 E25.04164
G1 X90.356 Y88.685 E25.04847
G1 X90.443 Y87.649 E25.14302
G1 X90.555 Y87.537 E25.15745
G1 X90.572 Y86.571 E25.24527
G1 X90.735 Y86.409 E25.26619
G1 X90.735 Y85.458 E25.35268
G1 X90.821 Y85.371 E25.36377
G1 X90.821 Y85.026 E25.39518
G1 X90.907 Y84.939 E25.40630
G1 X90.907 Y84.335 E25.46126
G1 X90.983 Y84.259 E25.47097
G1 X91.015 Y83.093 E25.57704
G1 X91.166 Y82.762 E25.61015
G1 X91.166 Y82.177 E25.66333
G1 X91.253 Y82.091 E25.67444
G1 X91.253 Y81.140 E25.76091
G1 X91.425 Y80.967 E25.78311
G1 X91.425 Y80.694 E25.80794
G1 X92.398 Y80.353 E25.90165
G1 X91.966 Y81.401 E26.00469
G1 X92.333 Y81.592 E26.04226
G1 X92.336 Y81.776 E26.05900
G1 X92.397 Y81.807 E26.06516
G1 X92.296 Y82.436 E26.12310
