; generated by Slic3r 1.3.0-dev on 2017-08-18 at 21:23:53

; external perimeters extrusion width = 0.40mm (1.14mm^3/s)
; perimeters extrusion width = 0.68mm (3.95mm^3/s)
; infill extrusion width = 1.20mm (9.43mm^3/s)
; solid infill extrusion width = 0.68mm (1.32mm^3/s)
; top infill extrusion width = 0.68mm (0.99mm^3/s)
; support material extrusion width = 0.40mm (2.27mm^3/s)

M107
M190 S66 ; set bed temperature and wait for it to be reached
M104 S215 ; set temperature
G28 ; home all axes
G1 Z5 F5000 ; lift nozzle

; Filament gcode

M109 S215 ; set temperature and wait for it to be reached
G21 ; set units to millimeters
G90 ; use absolute coordinates
M82 ; use absolute distances for extrusion
G92 E0
G1 Z0.350 F7800.000
G1 E-2.00000 F2400.00000
G92 E0
G1 X84.855 Y80.001 F7800.000
G1 E2.00000 F2400.00000
G1 F1800
G1 X87.874 Y78.742 E2.29740
G1 X88.988 Y78.668 E2.39898
G1 X100.777 Y78.889 E3.47115
G1 X108.980 Y79.133 E4.21736
G1 X115.655 Y79.461 E4.82505
G1 X117.890 Y79.977 E5.03359
G1 X120.050 Y81.453 E5.27152
G1 X120.545 Y81.961 E5.33600
G1 X121.970 Y84.289 E5.58422
G1 X133.305 Y116.150 E8.65917
G1 X133.687 Y118.219 E8.85050
G1 X133.456 Y120.138 E9.02620
G1 X133.388 Y120.387 E9.04972
G1 X132.627 Y122.135 E9.22307
G1 X132.291 Y122.630 E9.27749
G1 X131.966 Y123.056 E9.32616
G1 X127.248 Y128.889 E10.00836
G1 X125.519 Y130.396 E10.21690
G1 X123.380 Y131.223 E10.42544
G1 X122.177 Y131.347 E10.53542
G1 X120.989 Y131.356 E10.64341
G1 X82.667 Y129.820 E14.13087
G1 X80.426 Y129.332 E14.33942
G1 X78.485 Y128.110 E14.54796
G1 X77.078 Y126.299 E14.75650
G1 X76.308 Y123.201 E15.04680
G1 X76.317 Y121.736 E15.17997
G1 X77.854 Y91.650 E17.91920
G1 X78.366 Y89.415 E18.12775
G1 X78.922 Y88.368 E18.23549
G1 X83.288 Y81.676 E18.96207
G1 X84.814 Y80.045 E19.16516
G1 E17.16516 F2400.00000
G92 E0
G1 X119.503 Y121.610 F7800.000
G1 E2.00000 F2400.00000
G1 F1800
G1 X120.244 Y121.857 E2.07107
G1 X120.290 Y122.149 E2.09795
G1 X120.459 Y122.244 E2.11560
G1 X120.536 Y122.971 E2.18203
G1 X119.985 Y122.971 E2.23214
G1 X119.986 Y122.888 E2.23964
G1 X118.674 Y122.889 E2.35891
G1 X118.674 Y122.810 E2.36614
G1 X117.133 Y122.810 E2.50625
G1 X117.133 Y122.730 E2.51352
G1 X115.678 Y122.729 E2.64582
G1 X115.677 Y122.649 E2.65315
G1 X114.238 Y122.649 E2.78400
G1 X114.237 Y122.568 E2.79133
G1 X112.692 Y122.568 E2.93185
G1 X112.690 Y122.488 E2.93917
G1 X111.016 Y122.488 E3.09141
G1 X111.015 Y122.407 E3.09873
G1 X109.330 Y122.407 E3.25194
G1 X109.330 Y122.326 E3.25926
G1 X107.628 Y122.326 E3.41400
G1 X107.627 Y122.246 E3.42132
G1 X105.700 Y122.246 E3.59662
G1 X105.699 Y122.166 E3.60388
G1 X103.671 Y122.165 E3.78830
G1 X103.669 Y122.085 E3.79561
G1 X101.686 Y122.085 E3.97598
G1 X101.686 Y122.004 E3.98330
G1 X99.267 Y122.004 E4.20323
G1 X99.267 Y121.924 E4.21056
G1 X96.852 Y121.924 E4.43010
G1 X96.852 Y121.843 E4.43742
G1 X94.027 Y121.843 E4.69430
G1 X94.027 Y121.763 E4.70163
G1 X90.948 Y121.763 E4.98155
G1 X90.947 Y121.682 E4.98888
G1 X86.949 Y121.682 E5.35244
G1 X86.949 Y121.602 E5.35970
G1 X84.693 Y121.601 E5.56480
G1 X84.698 Y121.202 E5.60111
G1 X84.855 Y121.046 E5.62125
G1 X84.855 Y120.562 E5.66519
G1 X84.917 Y120.501 E5.67310
G1 X84.943 Y119.589 E5.75606
G1 X85.038 Y119.494 E5.76825
G1 X85.118 Y118.608 E5.84914
G1 X85.258 Y118.469 E5.86708
G1 X85.258 Y117.985 E5.91102
G1 X85.338 Y117.905 E5.92138
G1 X85.338 Y117.422 E5.96531
G1 X85.419 Y117.341 E5.97566
G1 X85.419 Y116.858 E6.01960
G1 X85.440 Y116.836 E6.02237
G1 X85.521 Y115.951 E6.10325
G1 X85.660 Y115.811 E6.12119
G1 X85.660 Y115.328 E6.16513
G1 X85.710 Y115.278 E6.17151
G1 X85.754 Y114.349 E6.25613
G1 X85.916 Y114.187 E6.27693
G1 X85.906 Y113.741 E6.31753
G1 X85.934 Y113.715 E6.32095
G1 X85.981 Y113.059 E6.38074
G1 X86.096 Y112.887 E6.39958
G1 X86.192 Y111.897 E6.49002
G1 X86.384 Y111.705 E6.51469
G1 X86.386 Y108.555 E6.80112
G1 X86.305 Y108.555 E6.80853
G1 X86.304 Y106.059 E7.03551
G1 X86.288 Y106.059 E7.03695
G1 X86.330 Y103.402 E7.27861
G1 X86.224 Y103.402 E7.28820
G1 X86.224 Y100.583 E7.54448
G1 X86.144 Y100.583 E7.55178
G1 X86.143 Y93.632 E8.18380
G1 X86.204 Y93.162 E8.22694
G1 X88.150 Y95.376 E8.49494
G1 X88.305 Y92.906 E8.71993
G1 X89.351 Y92.895 E8.81506
G1 X90.169 Y91.621 E8.95272
G1 X90.171 Y90.494 E9.05524
G1 X90.308 Y89.768 E9.12234
G1 X91.435 Y88.302 E9.29053
G1 X90.333 Y87.971 E9.39521
G1 X90.330 Y87.032 E9.48059
G1 X93.735 Y87.032 E9.79025
G1 X93.735 Y87.113 E9.79757
G1 X96.231 Y87.113 E10.02454
G1 X96.231 Y87.195 E10.03204
G1 X101.144 Y87.194 E10.47876
G1 X101.144 Y87.274 E10.48608
G1 X103.157 Y87.274 E10.66915
G1 X103.157 Y87.355 E10.67646
G1 X105.781 Y87.355 E10.91505
G1 X106.621 Y89.035 E11.08592
G1 X107.673 Y87.435 E11.26000
G1 X108.875 Y87.435 E11.36930
G1 X108.875 Y87.516 E11.37661
G1 X110.647 Y87.516 E11.53771
G1 X110.647 Y87.596 E11.54504
G1 X112.177 Y87.596 E11.68417
G1 X112.177 Y87.677 E11.69149
G1 X113.145 Y87.677 E11.77951
G1 X113.559 Y88.396 E11.85501
G1 X113.668 Y89.281 E11.93612
G1 X112.821 Y89.253 E12.01316
G1 X112.821 Y91.528 E12.22003
G1 X112.292 Y92.296 E12.30477
G1 X112.871 Y92.935 E12.38325
G1 X112.170 Y94.417 E12.53233
G1 X113.296 Y94.916 E12.64438
G1 X114.056 Y95.929 E12.75945
G1 X113.701 Y96.712 E12.83767
G1 X114.270 Y98.231 E12.98513
G1 X114.270 Y98.874 E13.04364
G1 X114.976 Y98.773 E13.10848
G1 X115.066 Y99.107 E13.13993
G1 X114.628 Y99.991 E13.22959
G1 X116.014 Y101.319 E13.40420
G1 X116.407 Y101.332 E13.43995
G1 X116.851 Y102.134 E13.52326
G1 X118.061 Y103.228 E13.67164
G1 X118.064 Y103.550 E13.70085
G1 X117.867 Y104.045 E13.74933
G1 X117.923 Y104.812 E13.81920
G1 X117.558 Y105.222 E13.86916
G1 X118.222 Y106.062 E13.96654
G1 X118.222 Y107.281 E14.07738
G1 X118.896 Y107.416 E14.13983
G1 X119.361 Y109.741 E14.35551
G1 X120.239 Y109.161 E14.45119
G1 X121.372 Y110.527 E14.61259
G1 X121.255 Y111.427 E14.69513
G1 X121.277 Y111.734 E14.72308
G1 X119.830 Y113.033 E14.89993
G1 X121.409 Y113.857 E15.06188
G1 X121.531 Y114.040 E15.08187
G1 X121.687 Y114.976 E15.16820
G1 X122.155 Y114.976 E15.21071
G1 X122.309 Y115.228 E15.23756
G1 X122.358 Y115.691 E15.27988
G1 X122.807 Y115.841 E15.32291
G1 X122.807 Y116.971 E15.42564
G1 X122.600 Y117.655 E15.49064
G1 X118.791 Y117.656 E15.83698
G1 X119.202 Y120.467 E16.09535
G1 X119.243 Y120.489 E16.09962
G1 X119.261 Y120.757 E16.12397
G1 X119.503 Y120.931 E16.15106
G1 X119.503 Y121.550 E16.20734
G1 E14.20734 F2400.00000
G92 E0
G1 X119.514 Y118.280 F7800.000
G1 E2.00000 F2400.00000
G1 F1800
G1 X119.774 Y120.065 E2.16401
G1 X119.843 Y120.102 E2.17109
G1 X119.865 Y120.422 E2.20022
G1 X120.128 Y120.611 E2.22970
G1 X120.128 Y121.159 E2.27954
G1 X120.648 Y121.333 E2.32941
G1 X120.846 Y121.660 E2.36420
G1 X120.860 Y121.753 E2.37272
G1 X121.047 Y121.858 E2.39216
G1 X121.093 Y122.293 E2.43194
G1 X121.581 Y122.414 E2.47770
G1 X121.580 Y122.524 E2.48772
G1 X121.989 Y122.971 E2.54280
G1 X121.338 Y123.403 E2.61389
G1 X121.338 Y123.676 E2.63869
G1 X120.630 Y123.676 E2.70306
G1 X120.630 Y123.596 E2.71038
G1 X119.353 Y123.596 E2.82650
G1 X119.354 Y123.514 E2.83396
G1 X118.051 Y123.514 E2.95244
G1 X118.051 Y123.435 E2.95971
G1 X116.514 Y123.435 E3.09943
G1 X116.513 Y123.354 E3.10672
G1 X115.061 Y123.354 E3.23877
G1 X115.060 Y123.273 E3.24608
G1 X113.617 Y123.273 E3.37728
G1 X113.617 Y123.193 E3.38460
G1 X112.078 Y123.193 E3.52453
G1 X112.076 Y123.112 E3.53185
G1 X110.396 Y123.112 E3.68469
G1 X110.395 Y123.032 E3.69201
G1 X108.708 Y123.032 E3.84541
G1 X108.708 Y122.951 E3.85273
G1 X107.010 Y122.951 E4.00707
G1 X107.009 Y122.871 E4.01440
G1 X105.080 Y122.871 E4.18983
G1 X105.079 Y122.791 E4.19712
G1 X103.058 Y122.790 E4.38096
G1 X103.056 Y122.710 E4.38825
G1 X101.061 Y122.710 E4.56967
G1 X101.061 Y122.629 E4.57699
G1 X98.643 Y122.629 E4.79682
G1 X98.643 Y122.549 E4.80414
G1 X96.228 Y122.549 E5.02373
G1 X96.228 Y122.468 E5.03106
G1 X93.406 Y122.468 E5.28769
G1 X93.405 Y122.388 E5.29502
G1 X90.335 Y122.388 E5.57424
G1 X90.333 Y122.307 E5.58157
G1 X86.324 Y122.307 E5.94613
G1 X86.324 Y122.227 E5.95341
G1 X83.757 Y122.226 E6.18677
G1 X84.064 Y121.920 E6.22613
G1 X84.076 Y121.019 E6.30801
G1 X84.090 Y120.927 E6.31653
G1 X84.230 Y120.787 E6.33453
G1 X84.230 Y120.304 E6.37847
G1 X84.299 Y120.235 E6.38734
G1 X84.321 Y119.479 E6.45608
G1 X84.342 Y119.306 E6.47197
G1 X84.436 Y119.212 E6.48397
G1 X84.516 Y118.326 E6.56486
G1 X84.633 Y118.210 E6.57984
G1 X84.633 Y117.727 E6.62378
G1 X84.713 Y117.646 E6.63413
G1 X84.713 Y117.163 E6.67807
G1 X84.794 Y117.082 E6.68842
G1 X84.794 Y116.599 E6.73236
G1 X84.838 Y116.555 E6.73809
G1 X84.919 Y115.669 E6.81897
G1 X85.036 Y115.552 E6.83395
G1 X85.036 Y115.069 E6.87789
G1 X85.097 Y115.007 E6.88582
G1 X85.148 Y114.071 E6.97113
G1 X85.285 Y113.933 E6.98877
G1 X85.276 Y113.474 E7.03055
G1 X85.328 Y113.425 E7.03702
G1 X85.369 Y112.849 E7.08958
G1 X85.489 Y112.670 E7.10920
G1 X85.592 Y111.613 E7.20569
G1 X85.759 Y111.446 E7.22722
G1 X85.761 Y109.180 E7.43328
G1 X85.680 Y109.180 E7.44064
G1 X85.680 Y106.684 E7.66761
G1 X85.654 Y106.684 E7.66996
G1 X85.695 Y104.027 E7.91161
G1 X85.519 Y104.027 E7.92764
G1 X85.519 Y103.473 E7.97801
G1 X85.599 Y103.392 E7.98838
G1 X85.599 Y101.208 E8.18696
G1 X85.519 Y101.208 E8.19427
G1 X85.518 Y93.005 E8.94017
G1 X85.594 Y93.008 E8.94712
G1 X85.672 Y92.408 E9.00213
G1 X85.772 Y92.390 E9.01138
G1 X85.868 Y92.221 E9.02904
G1 X86.177 Y92.508 E9.06731
G1 X86.399 Y92.436 E9.08849
G1 X87.621 Y93.828 E9.25690
G1 X87.711 Y92.406 E9.38642
G1 X88.006 Y92.369 E9.41348
G1 X88.141 Y92.283 E9.42802
G1 X89.008 Y92.274 E9.50686
G1 X89.545 Y91.437 E9.59727
G1 X89.547 Y90.435 E9.68841
G1 X89.721 Y89.506 E9.77434
G1 X90.387 Y88.640 E9.87368
G1 X89.503 Y88.375 E9.95758
G1 X89.708 Y88.170 E9.98397
G1 X89.704 Y86.740 E10.11393
G1 X89.785 Y86.619 E10.12717
G1 X89.785 Y86.327 E10.15377
G1 X91.300 Y86.327 E10.29154
G1 X91.300 Y86.407 E10.29886
G1 X94.360 Y86.407 E10.57711
G1 X94.360 Y86.488 E10.58443
G1 X96.856 Y86.488 E10.81140
G1 X96.856 Y86.570 E10.81883
G1 X101.769 Y86.569 E11.26555
G1 X101.769 Y86.649 E11.27288
G1 X103.782 Y86.649 E11.45595
G1 X103.782 Y86.730 E11.46327
G1 X106.167 Y86.730 E11.68015
G1 X106.695 Y87.785 E11.78747
G1 X107.395 Y86.720 E11.90336
G1 X107.809 Y86.723 E11.94097
G1 X107.809 Y86.810 E11.94892
G1 X109.500 Y86.810 E12.10269
G1 X109.500 Y86.891 E12.11000
G1 X111.271 Y86.891 E12.27110
G1 X111.271 Y86.971 E12.27843
G1 X112.802 Y86.971 E12.41756
G1 X112.802 Y87.052 E12.42489
G1 X113.897 Y87.052 E12.52449
G1 X113.860 Y87.666 E12.58042
G1 X114.164 Y88.194 E12.63586
G1 X114.321 Y89.479 E12.75357
G1 X113.727 Y89.909 E12.82028
G1 X113.446 Y89.899 E12.84584
G1 X113.446 Y91.418 E12.98390
G1 X113.565 Y91.550 E13.00010
G1 X113.087 Y92.243 E13.07659
G1 X113.615 Y92.825 E13.14804
G1 X113.009 Y94.105 E13.27682
G1 X113.999 Y94.544 E13.37529
G1 X113.960 Y94.759 E13.39519
G1 X114.654 Y95.684 E13.50032
G1 X114.654 Y96.123 E13.54024
G1 X114.377 Y96.735 E13.60127
G1 X114.791 Y97.841 E13.70866
G1 X114.895 Y97.841 E13.71810
G1 X114.895 Y98.154 E13.74655
G1 X115.436 Y98.077 E13.79618
G1 X115.731 Y99.173 E13.89945
G1 X115.392 Y99.857 E13.96889
G1 X116.274 Y100.703 E14.08000
G1 X116.783 Y100.720 E14.12627
G1 X117.347 Y101.741 E14.23235
G1 X118.155 Y102.471 E14.33143
G1 X118.513 Y102.222 E14.37103
G1 X118.680 Y102.474 E14.39850
G1 X118.687 Y103.376 E14.48051
G1 X118.716 Y103.406 E14.48431
G1 X118.715 Y103.603 E14.50219
G1 X118.501 Y104.142 E14.55499
G1 X118.566 Y105.029 E14.63588
G1 X118.374 Y105.246 E14.66220
G1 X118.847 Y105.845 E14.73164
G1 X118.847 Y106.769 E14.81565
G1 X119.427 Y106.884 E14.86939
G1 X119.791 Y108.708 E15.03845
G1 X120.340 Y108.345 E15.09827
G1 X120.695 Y108.716 E15.14495
G1 X121.612 Y109.838 E15.27673
G1 X121.969 Y109.771 E15.30975
G1 X122.115 Y110.252 E15.35546
G1 X122.364 Y110.500 E15.38745
G1 X121.952 Y110.912 E15.44037
G1 X121.883 Y111.445 E15.48928
G1 X121.922 Y111.994 E15.53933
G1 X120.918 Y112.896 E15.66205
G1 X121.840 Y113.377 E15.75662
G1 X122.125 Y113.805 E15.80338
G1 X122.217 Y114.352 E15.85377
G1 X122.504 Y114.352 E15.87994
G1 X122.670 Y114.621 E15.90864
G1 X122.872 Y114.609 E15.92711
G1 X122.937 Y115.226 E15.98350
G1 X123.702 Y115.482 E16.05687
G1 X123.432 Y115.916 E16.10335
G1 X123.432 Y117.064 E16.20772
G1 X123.267 Y117.607 E16.25932
G1 X123.673 Y117.622 E16.29627
G1 X123.673 Y117.735 E16.30650
G1 X124.880 Y117.735 E16.41621
G1 X124.986 Y118.119 E16.45247
G1 X124.990 Y118.442 E16.48189
G1 X124.261 Y118.442 E16.54825
G1 X124.261 Y118.361 E16.55566
G1 X122.974 Y118.361 E16.67272
G1 X122.974 Y118.280 E16.68007
G1 X119.574 Y118.280 E16.98931
G1 X120.236 Y118.905 F7800.000
G1 F1800
G1 X120.347 Y119.663 E17.05895
G1 X120.443 Y119.714 E17.06884
G1 X120.468 Y120.087 E17.10275
G1 X120.624 Y120.199 E17.12016
G1 X120.657 Y120.297 E17.12958
G1 X120.753 Y120.441 E17.14531
G1 X120.753 Y120.709 E17.16971
G1 X121.064 Y120.813 E17.19954
G1 X121.323 Y121.242 E17.24518
G1 X121.423 Y121.311 E17.25622
G1 X121.431 Y121.357 E17.26042
G1 X121.634 Y121.471 E17.28164
G1 X121.668 Y121.792 E17.31095
G1 X122.066 Y121.890 E17.34824
G1 X122.147 Y122.012 E17.36156
G1 X122.209 Y122.161 E17.37624
G1 X122.208 Y122.284 E17.38744
G1 X122.499 Y122.602 E17.42660
G1 X122.602 Y123.419 E17.50151
G1 X122.437 Y123.423 E17.51649
G1 X121.963 Y123.738 E17.56827
G1 X121.962 Y124.374 E17.62606
G1 X121.294 Y124.379 E17.68687
G1 X121.294 Y124.301 E17.69396
G1 X120.005 Y124.301 E17.81112
G1 X120.005 Y124.220 E17.81844
G1 X118.721 Y124.220 E17.93523
G1 X118.722 Y124.139 E17.94265
G1 X117.427 Y124.140 E18.06034
G1 X117.427 Y124.059 E18.06764
G1 X115.895 Y124.059 E18.20696
G1 X115.894 Y123.979 E18.21427
G1 X114.445 Y123.978 E18.34608
G1 X114.444 Y123.898 E18.35336
G1 X112.997 Y123.898 E18.48491
G1 X112.996 Y123.818 E18.49224
G1 X111.464 Y123.818 E18.63157
G1 X111.463 Y123.737 E18.63889
G1 X109.775 Y123.737 E18.79233
G1 X109.775 Y123.657 E18.79965
G1 X108.086 Y123.657 E18.95324
G1 X108.085 Y123.576 E18.96056
G1 X106.392 Y123.576 E19.11451
G1 X106.391 Y123.496 E19.12184
G1 X104.460 Y123.496 E19.29740
G1 X104.460 Y123.415 E19.30471
G1 X102.444 Y123.415 E19.48799
G1 X102.443 Y123.335 E19.49525
G1 X100.436 Y123.335 E19.67771
G1 X100.436 Y123.254 E19.68503
G1 X98.020 Y123.254 E19.90476
G1 X98.020 Y123.174 E19.91208
G1 X95.604 Y123.174 E20.13173
G1 X95.604 Y123.093 E20.13905
G1 X92.784 Y123.093 E20.39544
G1 X92.784 Y123.013 E20.40276
G1 X89.721 Y123.013 E20.68130
G1 X89.719 Y122.932 E20.68862
G1 X85.699 Y122.932 E21.05417
G1 X85.699 Y122.852 E21.06148
G1 X83.283 Y122.851 E21.28115
G1 X83.283 Y122.219 E21.33857
G1 X83.364 Y122.139 E21.34893
G1 X83.364 Y121.736 E21.38554
G1 X83.442 Y121.657 E21.39564
G1 X83.452 Y120.968 E21.45836
G1 X83.503 Y120.630 E21.48944
G1 X83.605 Y120.528 E21.50254
G1 X83.605 Y120.045 E21.54647
G1 X83.682 Y119.968 E21.55630
G1 X83.697 Y119.431 E21.60515
G1 X83.749 Y119.015 E21.64325
G1 X83.834 Y118.930 E21.65420
G1 X83.915 Y118.044 E21.73509
G1 X84.008 Y117.951 E21.74711
G1 X84.008 Y117.468 E21.79105
G1 X84.088 Y117.387 E21.80140
G1 X84.088 Y116.904 E21.84533
G1 X84.169 Y116.823 E21.85569
G1 X84.169 Y116.340 E21.89963
G1 X84.237 Y116.273 E21.90832
G1 X84.317 Y115.387 E21.98920
G1 X84.411 Y115.293 E22.00122
G1 X84.411 Y114.810 E22.04516
G1 X84.484 Y114.736 E22.05464
G1 X84.514 Y114.107 E22.11191
G1 X84.554 Y113.781 E22.14184
G1 X84.655 Y113.680 E22.15481
G1 X84.651 Y113.465 E22.17435
G1 X84.694 Y113.162 E22.20215
G1 X84.722 Y113.136 E22.20564
G1 X84.757 Y112.639 E22.25097
G1 X84.882 Y112.452 E22.27138
G1 X84.975 Y111.499 E22.35844
G1 X85.028 Y111.293 E22.37779
G1 X85.135 Y111.187 E22.39147
G1 X85.136 Y109.805 E22.51715
G1 X85.055 Y109.805 E22.52446
G1 X85.055 Y107.309 E22.75143
G1 X85.019 Y107.309 E22.75468
G1 X85.060 Y104.651 E22.99633
G1 X84.894 Y104.651 E23.01147
G1 X84.894 Y103.214 E23.14220
G1 X84.974 Y103.133 E23.15256
G1 X84.974 Y101.833 E23.27079
G1 X84.894 Y101.833 E23.27810
G1 X84.894 Y95.471 E23.85659
G1 X84.813 Y95.471 E23.86391
G1 X84.813 Y94.597 E23.94338
G1 X84.894 Y94.516 E23.95383
G1 X84.892 Y92.579 E24.12991
G1 X84.866 Y92.354 E24.15052
G1 X85.048 Y92.361 E24.16707
G1 X85.111 Y91.874 E24.21179
G1 X85.374 Y91.826 E24.23612
G1 X85.487 Y91.629 E24.25678
G1 X85.623 Y91.605 E24.26933
