; generated by Slic3r 1.3.0-dev on 2017-08-18 at 21:33:16

; external perimeters extrusion width = 0.40mm (1.14mm^3/s)
; perimeters extrusion width = 0.68mm (3.95mm^3/s)
; infill extrusion width = 1.20mm (9.43mm^3/s)
; solid infill extrusion width = 0.68mm (1.32mm^3/s)
; top infill extrusion width = 0.68mm (0.99mm^3/s)
; support material extrusion width = 0.40mm (2.27mm^3/s)

M107
M190 S66 ; set bed temperature and wait for it to be reached
M104 S215 ; set temperature
G28 ; home all axes
G1 Z5 F5000 ; lift nozzle

; Filament gcode

M109 S215 ; set temperature and wait for it to be reached
G21 ; set units to millimeters
G90 ; use absolute coordinates
M82 ; use absolute distances for extrusion
G92 E0
G1 Z0.350 F7800.000
G1 E-2.00000 F2400.00000
G92 E0
G1 X93.694 Y93.546 F7800.000
G1 E2.00000 F2400.00000
G1 F1800
G1 X94.288 Y92.953 E2.07629
G1 X96.166 Y91.637 E2.28483
G1 X98.971 Y91.014 E2.54608
G1 X99.045 Y91.014 E2.55281
G1 X102.199 Y91.813 E2.84869
G1 X115.589 Y99.063 E4.23327
G1 X117.119 Y100.205 E4.40685
G1 X117.193 Y100.279 E4.41636
G1 X118.510 Y102.156 E4.62491
G1 X119.117 Y104.491 E4.84425
G1 X119.191 Y105.527 E4.93866
G1 X119.208 Y106.073 E4.98832
G1 X119.061 Y107.461 E5.11526
G1 X118.788 Y108.715 E5.23198
G1 X117.939 Y111.885 E5.53036
G1 X117.209 Y114.251 E5.75549
G1 X115.566 Y116.972 E6.04451
G1 X115.492 Y117.046 E6.05402
G1 X113.614 Y118.362 E6.26256
G1 X110.807 Y118.986 E6.52398
G1 X110.585 Y118.986 E6.54416
G1 X109.496 Y118.896 E6.64353
G1 X108.158 Y118.656 E6.76718
G1 X96.032 Y115.755 E7.90087
G1 X95.323 Y115.539 E7.96831
G1 X93.305 Y114.448 E8.17685
G1 X91.781 Y112.735 E8.38539
G1 X90.931 Y110.605 E8.59394
G1 X90.792 Y109.255 E8.71734
G1 X90.792 Y109.033 E8.73752
G1 X91.395 Y98.297 E9.71526
G1 X91.920 Y96.064 E9.92380
G1 X92.920 Y94.434 E10.09772
G1 X93.289 Y93.990 E10.15025
G1 X93.654 Y93.591 E10.19939
G1 E8.19939 F2400.00000
G92 E0
G1 X108.172 Y108.085 F7800.000
G1 E2.00000 F2400.00000
G1 F1800
G1 X109.250 Y107.007 E2.13869
G1 X109.725 Y107.007 E2.18188
G1 X109.725 Y108.603 E2.32703
G1 X109.799 Y108.529 E2.33654
G1 X109.799 Y109.701 E2.44312
G1 X109.725 Y109.775 E2.45263
G1 X109.725 Y110.021 E2.47500
G1 X109.149 Y110.021 E2.52744
G1 X109.149 Y109.947 E2.53414
G1 X108.857 Y109.947 E2.56068
G1 X108.857 Y109.873 E2.56742
G1 X108.561 Y109.873 E2.59432
G1 X108.561 Y109.799 E2.60105
G1 X108.264 Y109.799 E2.62805
G1 X108.264 Y109.725 E2.63478
G1 X108.043 Y109.725 E2.65491
G1 X108.043 Y109.651 E2.66163
G1 X107.377 Y109.651 E2.72212
G1 X107.377 Y109.577 E2.72884
G1 X107.080 Y109.577 E2.75590
G1 X107.080 Y109.503 E2.76264
G1 X106.859 Y109.503 E2.78275
G1 X106.859 Y109.430 E2.78947
G1 X106.458 Y109.430 E2.82592
G1 X107.124 Y108.764 E2.91154
G1 X106.902 Y108.764 E2.93171
G1 X107.123 Y108.542 E2.96016
G1 X103.159 Y108.542 E3.32062
G1 X103.159 Y108.468 E3.32735
G1 X102.863 Y108.468 E3.35427
G1 X102.863 Y108.394 E3.36099
G1 X102.568 Y108.394 E3.38781
G1 X102.568 Y108.320 E3.39454
G1 X102.270 Y108.320 E3.42161
G1 X102.270 Y108.246 E3.42833
G1 X101.677 Y108.246 E3.48230
G1 X101.677 Y108.172 E3.48902
G1 X101.385 Y108.172 E3.51551
G1 X101.385 Y108.098 E3.52224
G1 X101.089 Y108.098 E3.54916
G1 X101.089 Y108.024 E3.55589
G1 X100.793 Y108.024 E3.58281
G1 X100.793 Y107.950 E3.58953
G1 X100.497 Y107.950 E3.61650
G1 X100.497 Y107.876 E3.62324
G1 X100.201 Y107.876 E3.65014
G1 X100.201 Y107.802 E3.65686
G1 X99.905 Y107.802 E3.68379
G1 X99.905 Y107.401 E3.72023
G1 X101.723 Y105.583 E3.95409
G1 X99.578 Y105.583 E4.14916
G1 X99.905 Y105.256 E4.19118
G1 X99.905 Y105.034 E4.21137
G1 X99.979 Y104.960 E4.22088
G1 X99.979 Y104.738 E4.24106
G1 X101.631 Y103.086 E4.45352
G1 X102.032 Y103.086 E4.48996
G1 X102.032 Y103.160 E4.49669
G1 X102.106 Y103.160 E4.50342
G1 X102.106 Y103.308 E4.51687
G1 X102.180 Y103.308 E4.52360
G1 X102.180 Y103.382 E4.53033
G1 X102.328 Y103.382 E4.54378
G1 X102.328 Y103.826 E4.58414
G1 X102.402 Y103.826 E4.59087
G1 X102.402 Y106.162 E4.80332
G1 X104.368 Y104.195 E5.05620
G1 X104.695 Y104.195 E5.08592
G1 X104.695 Y104.269 E5.09264
G1 X104.843 Y104.269 E5.10610
G1 X104.843 Y104.343 E5.11282
G1 X104.917 Y104.343 E5.11955
G1 X104.917 Y106.679 E5.33197
G1 X106.618 Y104.978 E5.55076
G1 X106.618 Y107.123 E5.74582
G1 X108.172 Y105.570 E5.94559
G1 X108.172 Y108.025 E6.16883
G1 X108.797 Y106.577 F7800.000
G1 F1800
G1 X109.879 Y105.494 E6.30805
G1 X110.350 Y105.494 E6.35087
G1 X110.350 Y106.039 E6.40038
G1 X110.007 Y106.382 E6.44452
G1 X110.350 Y106.382 E6.47573
G1 X110.350 Y107.094 E6.54053
G1 X111.238 Y106.207 E6.65468
G1 X111.238 Y107.296 E6.75376
G1 X111.164 Y107.370 E6.76327
G1 X111.164 Y107.518 E6.77673
G1 X111.090 Y107.592 E6.78625
G1 X111.090 Y107.814 E6.80643
G1 X111.016 Y107.888 E6.81594
G1 X111.016 Y108.110 E6.83611
G1 X110.942 Y108.184 E6.84563
G1 X110.942 Y108.332 E6.85908
G1 X110.868 Y108.406 E6.86859
G1 X110.868 Y108.628 E6.88878
G1 X110.794 Y108.702 E6.89830
G1 X110.794 Y108.924 E6.91847
G1 X110.720 Y108.998 E6.92798
G1 X110.720 Y109.241 E6.95005
G1 X110.424 Y109.241 E6.97696
G1 X110.424 Y109.960 E7.04235
G1 X110.350 Y110.034 E7.05186
G1 X110.350 Y110.256 E7.07203
G1 X110.276 Y110.330 E7.08154
G1 X110.276 Y110.552 E7.10173
G1 X109.636 Y111.192 E7.18407
G1 X109.636 Y110.868 E7.21352
G1 X109.341 Y110.868 E7.24031
G1 X109.341 Y110.794 E7.24703
G1 X109.045 Y110.794 E7.27393
G1 X109.045 Y110.720 E7.28065
G1 X108.749 Y110.720 E7.30760
G1 X108.749 Y110.646 E7.31434
G1 X108.525 Y110.646 E7.33467
G1 X108.525 Y110.572 E7.34138
G1 X108.232 Y110.572 E7.36806
G1 X108.232 Y110.498 E7.37479
G1 X107.936 Y110.498 E7.40170
G1 X107.936 Y110.424 E7.40843
G1 X107.639 Y110.424 E7.43539
G1 X107.639 Y110.350 E7.44212
G1 X107.418 Y110.350 E7.46227
G1 X107.418 Y110.276 E7.46899
G1 X106.752 Y110.276 E7.52950
G1 X106.752 Y110.202 E7.53623
G1 X106.455 Y110.202 E7.56323
G1 X106.455 Y110.128 E7.56996
G1 X106.234 Y110.128 E7.59010
G1 X106.234 Y110.054 E7.59682
G1 X105.938 Y110.054 E7.62373
G1 X105.938 Y109.980 E7.63046
G1 X105.864 Y109.980 E7.63718
G1 X105.864 Y109.906 E7.64391
G1 X105.716 Y109.906 E7.65738
G1 X105.716 Y109.832 E7.66411
G1 X105.171 Y109.832 E7.71363
G1 X105.615 Y109.389 E7.77071
G1 X105.393 Y109.389 E7.79088
G1 X105.615 Y109.167 E7.81937
G1 X102.534 Y109.167 E8.09946
G1 X102.534 Y109.093 E8.10618
G1 X102.238 Y109.093 E8.13309
G1 X102.238 Y109.019 E8.13982
G1 X101.943 Y109.019 E8.16667
G1 X101.943 Y108.945 E8.17340
G1 X101.646 Y108.945 E8.20040
G1 X101.646 Y108.871 E8.20713
G1 X101.053 Y108.871 E8.26103
G1 X101.053 Y108.797 E8.26775
G1 X100.760 Y108.797 E8.29441
G1 X100.760 Y108.723 E8.30114
G1 X100.464 Y108.723 E8.32805
G1 X100.464 Y108.649 E8.33478
G1 X100.168 Y108.649 E8.36169
G1 X100.168 Y108.575 E8.36842
G1 X99.872 Y108.575 E8.39537
G1 X99.872 Y108.501 E8.40210
G1 X99.576 Y108.501 E8.42900
G1 X99.576 Y108.427 E8.43573
G1 X99.280 Y108.427 E8.46264
G1 X99.280 Y107.142 E8.57945
G1 X100.215 Y106.208 E8.69966
G1 X98.809 Y106.208 E8.82747
G1 X99.132 Y105.885 E8.86899
G1 X99.132 Y105.663 E8.88917
G1 X99.206 Y105.589 E8.89868
G1 X99.206 Y105.071 E8.94576
G1 X99.280 Y104.997 E8.95528
G1 X99.280 Y104.775 E8.97547
G1 X99.354 Y104.701 E8.98498
G1 X99.354 Y104.479 E9.00516
G1 X100.806 Y103.026 E9.19196
G1 X99.401 Y103.026 E9.31977
G1 X99.724 Y102.704 E9.36129
G1 X99.724 Y102.186 E9.40837
G1 X99.798 Y102.112 E9.41789
G1 X99.798 Y101.890 E9.43807
G1 X99.872 Y101.816 E9.44758
G1 X99.872 Y101.594 E9.46776
G1 X100.040 Y101.425 E9.48946
G1 X100.659 Y101.425 E9.54572
G1 X100.659 Y102.212 E9.61729
G1 X101.446 Y101.425 E9.71850
G1 X101.843 Y101.425 E9.75457
G1 X101.843 Y101.499 E9.76131
G1 X102.165 Y101.499 E9.79065
G1 X101.204 Y102.461 E9.91431
G1 X102.656 Y102.461 E10.04643
G1 X102.656 Y102.535 E10.05315
G1 X102.730 Y102.535 E10.05988
G1 X102.730 Y102.683 E10.07333
G1 X102.804 Y102.683 E10.08006
G1 X102.804 Y102.757 E10.08679
G1 X102.952 Y102.757 E10.10024
G1 X102.952 Y103.201 E10.14060
G1 X103.026 Y103.201 E10.14733
G1 X103.026 Y104.653 E10.27942
G1 X104.331 Y103.349 E10.44720
G1 X105.114 Y103.349 E10.51840
G1 X105.119 Y103.571 E10.53859
G1 X105.320 Y103.571 E10.55684
G1 X105.320 Y103.645 E10.56356
G1 X105.468 Y103.645 E10.57702
G1 X105.468 Y103.719 E10.58375
G1 X105.542 Y103.719 E10.59047
G1 X105.542 Y105.171 E10.72254
G1 X106.624 Y104.088 E10.86176
G1 X106.947 Y104.088 E10.89113
G1 X106.947 Y104.162 E10.89785
G1 X107.243 Y104.162 E10.92476
G1 X107.243 Y105.615 E11.05683
G1 X107.882 Y104.976 E11.13897
G1 X108.723 Y104.976 E11.21543
G1 X108.723 Y105.050 E11.22215
G1 X108.797 Y105.050 E11.22888
G1 X108.797 Y106.517 E11.36222
G1 X109.422 Y105.068 F7800.000
G1 F1800
G1 X109.916 Y104.573 E11.42585
G1 X110.235 Y104.573 E11.45485
G1 X110.235 Y104.721 E11.46830
G1 X110.531 Y104.721 E11.49521
G1 X110.531 Y104.795 E11.50194
G1 X110.753 Y104.795 E11.52212
G1 X110.753 Y104.869 E11.52884
G1 X110.975 Y104.869 E11.54903
G1 X110.975 Y105.586 E11.61420
G1 X111.322 Y105.239 E11.65882
G1 X111.715 Y105.239 E11.69454
G1 X111.715 Y105.558 E11.72352
G1 X111.516 Y105.757 E11.74913
G1 X111.863 Y105.757 E11.78069
G1 X111.863 Y106.201 E11.82105
G1 X111.937 Y106.201 E11.82778
G1 X111.937 Y106.275 E11.83450
G1 X112.011 Y106.275 E11.84123
G1 X112.011 Y106.742 E11.88367
G1 X111.937 Y106.815 E11.89319
G1 X111.937 Y107.259 E11.93355
G1 X111.863 Y107.333 E11.94306
G1 X111.863 Y107.555 E11.96324
G1 X111.789 Y107.629 E11.97275
G1 X111.789 Y107.777 E11.98621
G1 X111.715 Y107.851 E11.99572
G1 X111.715 Y108.073 E12.01590
G1 X111.641 Y108.147 E12.02542
G1 X111.641 Y108.369 E12.04560
G1 X111.567 Y108.443 E12.05511
G1 X111.567 Y108.591 E12.06856
G1 X111.493 Y108.665 E12.07808
G1 X111.493 Y108.887 E12.09826
G1 X111.419 Y108.961 E12.10777
G1 X111.419 Y109.183 E12.12795
G1 X111.345 Y109.257 E12.13746
G1 X111.345 Y109.405 E12.15092
G1 X111.271 Y109.479 E12.16043
G1 X111.271 Y109.701 E12.18061
G1 X111.106 Y109.866 E12.20181
G1 X111.049 Y109.866 E12.20700
G1 X111.049 Y110.219 E12.23910
G1 X110.975 Y110.293 E12.24862
G1 X110.975 Y110.514 E12.26879
G1 X110.901 Y110.588 E12.27830
G1 X110.901 Y110.810 E12.29849
G1 X110.827 Y110.884 E12.30800
G1 X110.827 Y111.032 E12.32145
G1 X110.418 Y111.441 E12.37406
G1 X110.418 Y111.293 E12.38753
G1 X109.997 Y111.715 E12.44175
G1 X109.530 Y111.715 E12.48419
G1 X109.530 Y111.641 E12.49092
G1 X109.233 Y111.641 E12.51788
G1 X109.233 Y111.567 E12.52461
G1 X109.012 Y111.567 E12.54476
G1 X109.011 Y111.493 E12.55149
G1 X108.716 Y111.493 E12.57836
G1 X108.716 Y111.419 E12.58508
G1 X108.420 Y111.419 E12.61198
G1 X108.420 Y111.345 E12.61871
G1 X108.124 Y111.345 E12.64563
G1 X108.124 Y111.271 E12.65237
G1 X107.902 Y111.271 E12.67259
G1 X107.902 Y111.197 E12.67931
G1 X107.606 Y111.197 E12.70614
G1 X107.607 Y111.123 E12.71287
G1 X107.311 Y111.123 E12.73977
G1 X107.311 Y111.049 E12.74650
G1 X107.014 Y111.049 E12.77343
G1 X107.014 Y110.975 E12.78016
G1 X106.793 Y110.975 E12.80033
G1 X106.793 Y110.901 E12.80705
G1 X106.127 Y110.901 E12.86759
G1 X106.127 Y110.827 E12.87431
G1 X105.831 Y110.827 E12.90125
G1 X105.831 Y110.753 E12.90798
G1 X105.609 Y110.753 E12.92815
G1 X105.609 Y110.679 E12.93487
G1 X105.313 Y110.679 E12.96178
G1 X105.313 Y110.605 E12.96851
G1 X105.239 Y110.605 E12.97523
G1 X105.239 Y110.531 E12.98196
G1 X105.091 Y110.531 E12.99542
G1 X105.091 Y110.457 E13.00215
G1 X104.795 Y110.457 E13.02905
G1 X104.795 Y110.383 E13.03577
G1 X104.573 Y110.383 E13.05596
G1 X104.573 Y110.309 E13.06268
G1 X103.811 Y110.309 E13.13203
G1 X104.106 Y110.014 E13.17009
G1 X103.885 Y110.014 E13.19026
G1 X104.106 Y109.792 E13.21879
G1 X101.910 Y109.792 E13.41851
G1 X101.910 Y109.718 E13.42524
G1 X101.614 Y109.718 E13.45214
G1 X101.614 Y109.644 E13.45887
G1 X101.318 Y109.644 E13.48576
G1 X101.318 Y109.570 E13.49249
G1 X101.022 Y109.570 E13.51942
G1 X101.022 Y109.496 E13.52615
G1 X100.430 Y109.496 E13.57999
G1 X100.430 Y109.422 E13.58672
G1 X100.135 Y109.422 E13.61353
G1 X100.135 Y109.348 E13.62026
G1 X99.839 Y109.348 E13.64717
G1 X99.839 Y109.274 E13.65390
G1 X99.543 Y109.274 E13.68081
G1 X99.543 Y109.200 E13.68753
G1 X99.247 Y109.200 E13.71446
G1 X99.247 Y109.126 E13.72119
G1 X98.951 Y109.126 E13.74809
G1 X98.951 Y109.052 E13.75482
G1 X98.655 Y109.052 E13.78173
G1 X98.655 Y108.483 E13.83347
G1 X98.234 Y108.904 E13.88762
G1 X97.915 Y108.904 E13.91660
G1 X97.915 Y108.585 E13.94559
G1 X97.989 Y108.511 E13.95511
G1 X97.989 Y107.993 E14.00219
G1 X98.063 Y107.919 E14.01171
G1 X98.063 Y107.697 E14.03188
G1 X98.137 Y107.623 E14.04140
G1 X98.137 Y107.401 E14.06158
G1 X98.706 Y106.832 E14.13475
G1 X98.285 Y106.832 E14.17302
G1 X98.285 Y106.514 E14.20200
G1 X98.359 Y106.440 E14.21151
G1 X98.359 Y105.996 E14.25189
G1 X98.433 Y105.922 E14.26140
G1 X98.433 Y105.700 E14.28158
G1 X98.507 Y105.626 E14.29110
G1 X98.507 Y105.404 E14.31128
G1 X98.581 Y105.330 E14.32079
G1 X98.581 Y104.812 E14.36787
G1 X98.655 Y104.738 E14.37738
G1 X98.655 Y104.516 E14.39757
G1 X98.729 Y104.442 E14.40708
G1 X98.729 Y104.220 E14.42726
G1 X99.298 Y103.651 E14.50043
G1 X98.877 Y103.651 E14.53871
G1 X98.877 Y103.333 E14.56770
G1 X98.951 Y103.259 E14.57721
G1 X98.951 Y102.815 E14.61757
G1 X99.025 Y102.741 E14.62709
G1 X99.025 Y102.519 E14.64727
G1 X99.099 Y102.445 E14.65678
G1 X99.099 Y101.927 E14.70387
G1 X99.173 Y101.853 E14.71338
G1 X99.173 Y101.631 E14.73357
G1 X99.247 Y101.557 E14.74308
G1 X99.247 Y101.335 E14.76326
G1 X99.321 Y101.261 E14.77278
G1 X99.321 Y101.187 E14.77950
G1 X99.708 Y100.800 E14.82924
G1 X99.987 Y100.800 E14.85461
G1 X99.987 Y99.901 E14.93636
G1 X99.839 Y100.049 E14.95539
G1 X99.839 Y99.730 E14.98438
G1 X99.446 Y99.730 E15.02011
G1 X100.003 Y99.173 E15.09182
G1 X100.715 Y99.173 E15.15653
G1 X100.049 Y99.839 E15.24215
G1 X100.840 Y99.839 E15.31406
G1 X100.840 Y99.913 E15.32079
G1 X100.914 Y99.913 E15.32752
G1 X100.914 Y99.986 E15.33424
G1 X101.062 Y99.986 E15.34770
G1 X101.062 Y100.134 E15.36116
G1 X101.284 Y100.134 E15.38133
G1 X101.284 Y100.703 E15.43308
G1 X101.409 Y100.578 E15.44917
G1 X101.802 Y100.578 E15.48488
G1 X101.802 Y100.726 E15.49833
G1 X101.876 Y100.726 E15.50506
G1 X101.876 Y100.800 E15.51179
G1 X102.468 Y100.800 E15.56560
G1 X102.468 Y100.874 E15.57233
G1 X102.542 Y100.874 E15.57906
G1 X102.542 Y101.170 E15.60596
G1 X102.690 Y101.170 E15.61942
G1 X102.690 Y101.392 E15.63960
G1 X102.764 Y101.392 E15.64632
G1 X102.764 Y101.785 E15.68203
G1 X102.712 Y101.836 E15.68861
G1 X103.281 Y101.836 E15.74036
G1 X103.281 Y101.910 E15.74708
G1 X103.355 Y101.910 E15.75381
G1 X103.355 Y102.058 E15.76726
G1 X103.429 Y102.058 E15.77399
G1 X103.429 Y102.132 E15.78072
G1 X103.577 Y102.132 E15.79417
G1 X103.577 Y102.576 E15.83453
G1 X103.651 Y102.576 E15.84126
G1 X103.651 Y103.145 E15.89300
G1 X104.294 Y102.502 E15.97567
G1 X104.613 Y102.502 E16.00466
G1 X104.613 Y102.576 E16.01139
G1 X104.761 Y102.576 E16.02484
G1 X104.761 Y102.650 E16.03160
G1 X104.835 Y102.650 E16.03833
G1 X104.835 Y102.724 E16.04503
G1 X105.725 Y102.724 E16.12600
G1 X105.730 Y102.946 E16.14619
G1 X105.945 Y102.946 E16.16567
G1 X105.945 Y103.020 E16.17240
G1 X106.093 Y103.020 E16.18585
G1 X106.093 Y103.094 E16.19258
G1 X106.167 Y103.094 E16.19931
G1 X106.167 Y103.662 E16.25103
G1 X106.588 Y103.242 E16.30516
G1 X107.128 Y103.242 E16.35434
G1 X107.128 Y103.316 E16.36106
G1 X107.350 Y103.316 E16.38124
G1 X107.350 Y103.464 E16.39470
G1 X107.572 Y103.464 E16.41488
G1 X107.572 Y103.538 E16.42160
G1 X107.868 Y103.538 E16.44851
G1 X107.868 Y104.106 E16.50024
G1 X108.067 Y103.907 E16.52583
G1 X108.904 Y103.907 E16.60191
G1 X108.904 Y104.226 E16.63089
G1 X108.779 Y104.351 E16.64699
G1 X109.348 Y104.351 E16.69873
G1 X109.348 Y104.425 E16.70545
G1 X109.422 Y104.425 E16.71218
G1 X109.422 Y105.008 E16.76518
G1 X109.635 Y105.407 F7800.000
G1 X108.736 Y103.483 F7800.000
G1 F1800
G1 X109.032 Y103.483 E16.76832
G1 X109.328 Y103.779 F7800.000
G1 F1800
G1 X109.340 Y103.915 E16.76993
G1 X109.402 Y103.927 E16.77068
G1 X109.591 Y103.922 E16.77293
G1 X109.698 Y103.816 E16.77472
G1 X109.920 Y104.149 F7800.000
G1 F1800
G1 X110.437 Y104.149 E16.78021
G1 E14.78021 F2400.00000
G92 E0
G1 X112.324 Y105.110 F7800.000
G1 E2.00000 F2400.00000
G1 F1800
G1 X112.264 Y105.156 E2.00326
G1 X112.263 Y105.242 E2.00699
G1 F1800
