; generated by Slic3r 1.3.0-dev on 2017-08-18 at 21:34:22

; external perimeters extrusion width = 0.40mm (1.14mm^3/s)
; perimeters extrusion width = 0.68mm (3.95mm^3/s)
; infill extrusion width = 1.20mm (9.43mm^3/s)
; solid infill extrusion width = 0.68mm (1.32mm^3/s)
; top infill extrusion width = 0.68mm (0.99mm^3/s)
; support material extrusion width = 0.40mm (2.27mm^3/s)

M107
M190 S66 ; set bed temperature and wait for it to be reached
M104 S215 ; set temperature
G28 ; home all axes
G1 Z5 F5000 ; lift nozzle

; Filament gcode

M109 S215 ; set temperature and wait for it to be reached
G21 ; set units to millimeters
G90 ; use absolute coordinates
M82 ; use absolute distances for extrusion
G92 E0
G1 Z0.350 F7800.000
G1 E-2.00000 F2400.00000
G92 E0
G1 X99.495 Y92.888 F7800.000
G1 E2.00000 F2400.00000
G1 F1800
G1 X99.582 Y92.801 E2.01121
G1 X101.460 Y91.485 E2.21975
G1 X104.266 Y90.861 E2.48109
G1 X105.130 Y90.861 E2.55962
G1 X106.619 Y91.031 E2.69595
G1 X111.141 Y92.095 E3.11836
G1 X113.236 Y93.028 E3.32690
G1 X114.305 Y93.924 E3.45374
G1 X115.622 Y95.802 E3.66228
G1 X116.246 Y98.609 E3.92370
G1 X116.246 Y99.127 E3.97082
G1 X115.906 Y101.222 E4.16381
G1 X114.956 Y104.072 E4.43699
G1 X114.546 Y105.038 E4.53241
G1 X109.191 Y115.316 E5.58619
G1 X108.000 Y116.939 E5.76926
G1 X107.828 Y117.112 E5.79147
G1 X105.950 Y118.429 E6.00002
G1 X104.750 Y118.855 E6.11578
G1 X104.404 Y118.941 E6.14816
G1 X102.798 Y119.139 E6.29537
G1 X102.279 Y119.139 E6.34249
G1 X100.980 Y119.010 E6.46121
G1 X99.895 Y118.768 E6.56227
G1 X97.827 Y117.853 E6.76790
G1 X97.568 Y117.681 E6.79621
G1 X96.559 Y116.853 E6.91493
G1 X96.213 Y116.507 E6.95936
G1 X95.598 Y115.798 E7.04476
G1 X95.339 Y115.452 E7.08403
G1 X94.435 Y113.804 E7.25497
G1 X94.176 Y113.113 E7.32207
G1 X93.754 Y110.787 E7.53704
G1 X93.754 Y110.614 E7.55274
G1 X93.924 Y109.124 E7.68907
G1 X94.279 Y107.633 E7.82843
G1 X96.525 Y99.947 E8.55659
G1 X97.748 Y95.842 E8.94608
G1 X98.168 Y94.782 E9.04968
G1 X98.254 Y94.610 E9.06724
G1 X99.460 Y92.937 E9.25476
G1 E7.25476 F2400.00000
G92 E0
G1 X102.361 Y111.419 F7800.000
G1 E2.00000 F2400.00000
G1 F1800
G1 X101.962 Y111.818 E2.05139
G1 X101.593 Y111.818 E2.08491
G1 X101.593 Y111.732 E2.09276
G1 X101.507 Y111.732 E2.10061
G1 X101.507 Y111.559 E2.11632
G1 X101.334 Y111.559 E2.13203
G1 X101.334 Y111.473 E2.13988
G1 X101.248 Y111.473 E2.14773
G1 X101.248 Y111.300 E2.16344
G1 X101.161 Y111.300 E2.17129
G1 X101.161 Y111.018 E2.19696
G1 X101.561 Y110.618 E2.24834
G1 X101.929 Y110.618 E2.28187
G1 X101.929 Y110.705 E2.28972
G1 X102.102 Y110.705 E2.30543
G1 X102.102 Y110.791 E2.31328
G1 X102.189 Y110.791 E2.32114
G1 X102.189 Y111.050 E2.34470
G1 X102.275 Y111.050 E2.35255
G1 X102.275 Y111.137 E2.36040
G1 X102.361 Y111.137 E2.36826
G1 X102.361 Y111.359 E2.38847
G1 X101.963 Y111.458 F7800.000
G1 X102.845 Y111.260 F7800.000
G1 F1800
G1 X102.873 Y111.433 E2.39409
G1 X102.841 Y111.607 E2.39974
G1 F1800
G1 X102.841 Y111.693 E2.40340
G1 F1800
G1 X102.842 Y111.736 E2.40558
G1 F1800
G1 X102.806 Y111.823 E2.41143
G1 F1800
G1 X102.790 Y111.903 E2.41759
G1 F1800
G1 X102.773 Y111.984 E2.42482
G1 F1800
G1 X102.756 Y112.064 E2.43312
G1 X102.694 Y112.095 E2.44011
G1 F1800
G1 X102.573 Y112.154 E2.45201
G1 F1800
G1 X102.452 Y112.213 E2.46219
G1 F1800
G1 X102.366 Y112.231 E2.46768
G1 F1800
G1 X102.279 Y112.249 E2.47193
G1 F1800
G1 X102.214 Y112.276 E2.47457
G1 F1800
G1 X101.970 Y112.298 E2.48113
G1 X102.756 Y112.064 F7800.000
G1 F1800
G1 X102.819 Y112.082 E2.48778
G1 F1800
G1 X102.884 Y112.082 E2.49370
G1 F1800
G1 X102.946 Y112.094 E2.49871
G1 F1800
G1 X103.018 Y112.128 E2.50414
G1 F1800
G1 X103.100 Y112.183 E2.50964
G1 F1800
G1 X103.141 Y112.210 E2.51168
G1 E0.51168 F2400.00000
G92 E0
G1 X100.704 Y111.133 F7800.000
G1 E2.00000 F2400.00000
G1 F1800
G1 X100.694 Y111.018 E2.00234
G1 F1800
G1 X100.679 Y110.919 E2.00512
G1 E0.00512 F2400.00000
G92 E0
G1 X104.743 Y102.433 F7800.000
G1 E2.00000 F2400.00000
G1 F1800
G1 X104.743 Y101.690 E2.06761
G1 X104.829 Y101.603 E2.07872
G1 X104.829 Y101.431 E2.09442
G1 X104.916 Y101.344 E2.10553
G1 X104.916 Y101.258 E2.11338
G1 X105.002 Y101.172 E2.12449
G1 X105.002 Y100.826 E2.15590
G1 X105.088 Y100.740 E2.16701
G1 X105.088 Y100.481 E2.19057
G1 X105.175 Y100.394 E2.20167
G1 X105.175 Y100.308 E2.20953
G1 X105.261 Y100.222 E2.22063
G1 X105.261 Y100.049 E2.23634
G1 X105.347 Y99.962 E2.24745
G1 X105.347 Y99.604 E2.28003
G1 X105.775 Y99.604 E2.31894
G1 X105.775 Y99.690 E2.32679
G1 X106.121 Y99.690 E2.35821
G1 X106.121 Y99.777 E2.36606
G1 X106.466 Y99.777 E2.39747
G1 X106.466 Y99.863 E2.40533
G1 X106.812 Y99.863 E2.43674
G1 X106.812 Y99.950 E2.44459
G1 X107.244 Y99.950 E2.48386
G1 X107.244 Y100.036 E2.49171
G1 X107.572 Y100.036 E2.52159
G1 X107.144 Y100.464 E2.57661
G1 X107.058 Y100.464 E2.58446
G1 X106.972 Y100.550 E2.59557
G1 X106.885 Y100.550 E2.60342
G1 X106.626 Y100.809 E2.63674
G1 X106.540 Y100.809 E2.64459
G1 X106.453 Y100.896 E2.65570
G1 X106.367 Y100.896 E2.66355
G1 X105.935 Y101.327 E2.71908
G1 X105.849 Y101.327 E2.72694
G1 X104.785 Y102.391 E2.86369
G1 X103.985 Y104.075 F7800.000
G1 F1800
G1 X104.155 Y104.075 E2.87911
G1 X104.155 Y104.596 E2.92652
G1 X104.068 Y104.683 E2.93763
G1 X104.068 Y104.855 E2.95333
G1 X103.982 Y104.942 E2.96444
G1 X103.982 Y105.633 E3.02727
G1 X103.809 Y105.805 E3.04948
G1 X103.809 Y106.064 E3.07304
G1 X103.603 Y106.271 E3.09956
G1 X102.822 Y106.271 E3.17053
G1 X102.822 Y105.836 E3.21008
G1 X102.909 Y105.749 E3.22119
G1 X102.909 Y105.490 E3.24475
G1 X103.082 Y105.317 E3.26696
G1 X103.082 Y105.058 E3.29052
G1 X103.168 Y104.972 E3.30163
G1 X103.168 Y104.627 E3.33304
G1 X103.254 Y104.540 E3.34415
G1 X103.254 Y104.454 E3.35200
G1 X103.341 Y104.367 E3.36311
G1 X103.341 Y104.195 E3.37881
G1 X103.427 Y104.108 E3.38992
G1 X103.427 Y103.849 E3.41348
G1 X103.513 Y103.763 E3.42459
G1 X103.513 Y103.417 E3.45600
G1 X103.686 Y103.245 E3.47821
G1 X103.686 Y102.986 E3.50177
G1 X103.773 Y102.899 E3.51288
G1 X103.773 Y102.640 E3.53644
G1 X103.859 Y102.554 E3.54754
G1 X103.859 Y102.208 E3.57896
G1 X104.032 Y102.035 E3.60117
G1 X104.032 Y101.776 E3.62473
G1 X104.118 Y101.690 E3.63584
G1 X104.118 Y101.431 E3.65940
G1 X104.204 Y101.345 E3.67050
G1 X104.204 Y101.172 E3.68621
G1 X104.291 Y101.085 E3.69731
G1 X104.291 Y100.999 E3.70517
G1 X104.377 Y100.913 E3.71627
G1 X104.377 Y100.567 E3.74769
G1 X104.463 Y100.481 E3.75879
G1 X104.463 Y100.222 E3.78235
G1 X104.550 Y100.135 E3.79346
G1 X104.550 Y100.049 E3.80131
G1 X104.636 Y99.963 E3.81242
G1 X104.636 Y99.790 E3.82813
G1 X104.723 Y99.704 E3.83923
G1 X104.723 Y99.358 E3.87065
G1 X104.809 Y99.272 E3.88175
G1 X104.809 Y99.013 E3.90531
G1 X105.015 Y98.806 E3.93183
G1 X105.623 Y98.806 E3.98709
G1 X105.623 Y98.893 E3.99495
G1 X105.968 Y98.893 E4.02636
G1 X105.968 Y98.979 E4.03421
G1 X106.400 Y98.979 E4.07348
G1 X106.400 Y99.066 E4.08133
G1 X106.746 Y99.066 E4.11275
G1 X106.746 Y99.152 E4.12060
G1 X107.091 Y99.152 E4.15201
G1 X107.091 Y99.238 E4.15987
G1 X107.437 Y99.238 E4.19128
G1 X107.437 Y99.325 E4.19913
G1 X107.868 Y99.325 E4.23840
G1 X107.868 Y99.411 E4.24625
G1 X108.214 Y99.411 E4.27767
G1 X108.214 Y99.497 E4.28552
G1 X108.563 Y99.497 E4.31722
G1 X108.214 Y99.846 E4.36206
G1 X108.214 Y99.932 E4.36991
G1 X108.128 Y100.019 E4.38101
G1 X108.128 Y100.278 E4.40457
G1 X108.041 Y100.364 E4.41568
G1 X108.041 Y100.537 E4.43139
G1 X107.955 Y100.623 E4.44249
G1 X107.955 Y100.710 E4.45035
G1 X107.868 Y100.796 E4.46145
G1 X107.868 Y101.002 E4.48021
G1 X107.489 Y101.002 E4.51467
G1 X107.403 Y101.089 E4.52577
G1 X107.317 Y101.089 E4.53362
G1 X107.230 Y101.175 E4.54473
G1 X107.144 Y101.175 E4.55258
G1 X106.885 Y101.434 E4.58590
G1 X106.799 Y101.434 E4.59376
G1 X106.712 Y101.520 E4.60486
G1 X106.626 Y101.520 E4.61272
G1 X106.194 Y101.952 E4.66825
G1 X106.108 Y101.952 E4.67610
G1 X104.028 Y104.032 E4.94359
G1 X105.494 Y103.450 F7800.000
G1 F1800
G1 X105.926 Y103.450 E4.98286
G1 X105.643 Y103.732 E5.01916
G1 X105.643 Y103.959 E5.03978
G1 X105.416 Y103.959 E5.06041
G1 X105.244 Y104.132 E5.08262
G1 X105.157 Y104.132 E5.09048
G1 X104.866 Y104.423 E5.12795
G1 X104.866 Y104.510 E5.13580
G1 X104.780 Y104.596 E5.14691
G1 X104.780 Y104.855 E5.17047
G1 X104.693 Y104.941 E5.18157
G1 X104.693 Y105.114 E5.19728
G1 X104.607 Y105.200 E5.20838
G1 X104.607 Y105.891 E5.27121
G1 X104.434 Y106.064 E5.29342
G1 X104.434 Y106.323 E5.31698
G1 X104.002 Y106.755 E5.37252
G1 X104.002 Y106.896 E5.38529
G1 X103.484 Y106.896 E5.43241
G1 X103.484 Y107.101 E5.45105
G1 X103.225 Y107.360 E5.48437
G1 X103.225 Y107.446 E5.49222
G1 X102.825 Y107.846 E5.54360
G1 X102.739 Y107.846 E5.55145
G1 X102.361 Y108.223 E5.60003
G1 X102.361 Y108.482 E5.62359
G1 X101.780 Y109.064 E5.69835
G1 X101.843 Y109.064 E5.70410
G1 X101.843 Y110.123 E5.80045
G1 X101.530 Y110.437 E5.84073
G1 X100.902 Y110.437 E5.89781
G1 X100.902 Y110.068 E5.93133
G1 X100.988 Y109.982 E5.94244
G1 X100.988 Y109.636 E5.97385
G1 X101.161 Y109.463 E5.99607
G1 X101.161 Y109.204 E6.01963
G1 X101.248 Y109.118 E6.03073
G1 X101.248 Y108.859 E6.05429
G1 X101.334 Y108.772 E6.06540
G1 X101.334 Y108.513 E6.08896
G1 X101.420 Y108.427 E6.10006
G1 X101.420 Y108.341 E6.10792
G1 X101.507 Y108.254 E6.11902
G1 X101.507 Y107.995 E6.14258
G1 X101.593 Y107.909 E6.15369
G1 X101.593 Y107.650 E6.17725
G1 X101.679 Y107.563 E6.18836
G1 X101.679 Y107.391 E6.20406
G1 X101.766 Y107.304 E6.21517
G1 X101.766 Y107.131 E6.23088
G1 X101.852 Y107.045 E6.24198
G1 X101.852 Y106.786 E6.26554
G1 X101.938 Y106.700 E6.27665
G1 X101.938 Y106.440 E6.30021
G1 X102.111 Y106.268 E6.32242
G1 X102.111 Y105.922 E6.35383
G1 X102.198 Y105.836 E6.36494
G1 X102.198 Y105.577 E6.38850
G1 X102.284 Y105.490 E6.39961
G1 X102.284 Y105.231 E6.42317
G1 X102.457 Y105.059 E6.44538
G1 X102.457 Y104.800 E6.46894
G1 X102.543 Y104.713 E6.48005
G1 X102.543 Y104.368 E6.51146
G1 X102.629 Y104.281 E6.52257
G1 X102.629 Y104.195 E6.53042
G1 X102.716 Y104.109 E6.54152
G1 X102.716 Y103.936 E6.55723
G1 X102.802 Y103.849 E6.56834
G1 X102.802 Y103.590 E6.59190
G1 X102.889 Y103.504 E6.60300
G1 X102.889 Y103.159 E6.63442
G1 X103.061 Y102.986 E6.65663
G1 X103.061 Y102.727 E6.68019
G1 X103.148 Y102.640 E6.69130
G1 X103.148 Y102.381 E6.71486
G1 X103.234 Y102.295 E6.72596
G1 X103.234 Y101.949 E6.75738
G1 X103.407 Y101.777 E6.77959
G1 X103.407 Y101.518 E6.80315
G1 X103.493 Y101.431 E6.81425
G1 X103.493 Y101.172 E6.83781
G1 X103.579 Y101.086 E6.84892
G1 X103.579 Y100.913 E6.86463
G1 X103.666 Y100.827 E6.87573
G1 X103.666 Y100.740 E6.88359
G1 X103.752 Y100.654 E6.89469
G1 X103.752 Y100.308 E6.92611
G1 X103.839 Y100.222 E6.93721
G1 X103.839 Y99.963 E6.96077
G1 X103.925 Y99.877 E6.97188
G1 X103.925 Y99.790 E6.97973
G1 X104.011 Y99.704 E6.99084
G1 X104.011 Y99.531 E7.00655
G1 X104.098 Y99.445 E7.01765
G1 X104.098 Y99.099 E7.04907
G1 X104.184 Y99.013 E7.06017
G1 X104.184 Y98.754 E7.08373
G1 X104.357 Y98.581 E7.10594
G1 X104.357 Y98.322 E7.12950
G1 X104.443 Y98.236 E7.14061
G1 X104.443 Y97.922 E7.16909
G1 X105.125 Y97.922 E7.23109
G1 X105.125 Y98.009 E7.23894
G1 X105.470 Y98.009 E7.27036
G1 X105.470 Y98.095 E7.27821
G1 X105.902 Y98.095 E7.31748
G1 X105.902 Y98.182 E7.32533
G1 X106.248 Y98.182 E7.35674
G1 X106.248 Y98.268 E7.36460
G1 X106.593 Y98.268 E7.39601
G1 X106.593 Y98.354 E7.40386
G1 X107.025 Y98.354 E7.44313
G1 X107.025 Y98.441 E7.45098
G1 X107.371 Y98.441 E7.48240
G1 X107.371 Y98.527 E7.49025
G1 X107.716 Y98.527 E7.52166
G1 X107.716 Y98.613 E7.52952
G1 X108.062 Y98.613 E7.56093
G1 X108.062 Y98.700 E7.56878
G1 X108.493 Y98.700 E7.60805
G1 X108.493 Y98.786 E7.61590
G1 X108.839 Y98.786 E7.64732
G1 X108.839 Y98.872 E7.65517
G1 X109.380 Y98.872 E7.70440
G1 X109.098 Y99.155 E7.74071
G1 X109.098 Y99.414 E7.76427
G1 X109.012 Y99.500 E7.77537
G1 X109.012 Y99.759 E7.79893
G1 X108.925 Y99.846 E7.81004
G1 X108.925 Y100.018 E7.82575
G1 X108.839 Y100.105 E7.83685
G1 X108.839 Y100.191 E7.84471
G1 X108.752 Y100.278 E7.85581
G1 X108.752 Y100.537 E7.87937
G1 X108.666 Y100.623 E7.89048
G1 X108.666 Y100.796 E7.90619
G1 X108.580 Y100.882 E7.91729
G1 X108.580 Y100.969 E7.92515
G1 X108.493 Y101.055 E7.93625
G1 X108.493 Y101.228 E7.95196
G1 X108.407 Y101.314 E7.96306
G1 X108.407 Y101.400 E7.97092
G1 X108.321 Y101.487 E7.98202
G1 X108.321 Y101.627 E7.99479
G1 X107.748 Y101.627 E8.04683
G1 X107.662 Y101.714 E8.05794
G1 X107.576 Y101.714 E8.06579
G1 X107.489 Y101.800 E8.07690
G1 X107.403 Y101.800 E8.08475
G1 X107.144 Y102.059 E8.11807
G1 X107.057 Y102.059 E8.12592
G1 X106.971 Y102.145 E8.13703
G1 X106.885 Y102.145 E8.14488
G1 X106.453 Y102.577 E8.20041
G1 X106.366 Y102.577 E8.20827
G1 X105.536 Y103.407 E8.31504
G1 X105.384 Y103.835 F7800.000
G1 X104.912 Y103.762 F7800.000
G1 F1800
G1 X104.467 Y104.207 E8.33053
G1 X104.510 Y104.423 F7800.000
G1 F1800
G1 X104.510 Y104.294 E8.33102
G1 X104.589 Y103.913 E8.33250
G1 X103.826 Y103.669 F7800.000
G1 F1800
G1 X104.060 Y103.435 E8.33867
G1 X104.430 Y102.871 E8.35126
G1 X104.279 Y102.790 F7800.000
G1 F1800
G1 X104.258 Y102.841 E8.35341
G1 X104.248 Y103.112 E8.36408
G1 X103.999 Y103.367 E8.37811
G1 X104.279 Y102.790 F7800.000
G1 F1800
G1 X104.301 Y102.683 E8.38104
G1 X104.301 Y102.208 E8.39376
G1 E6.39376 F2400.00000
G92 E0
G1 X105.686 Y100.732 F7800.000
G1 E2.00000 F2400.00000
G1 F1800
G1 X105.745 Y100.649 E2.00737
G1 F1800
G1 X105.853 Y100.502 E2.02224
G1 F1800
G1 X105.906 Y100.431 E2.03005
G1 X105.963 Y100.417 E2.03527
G1 F1800
G1 X106.029 Y100.410 E2.04051
G1 F1800
G1 X106.108 Y100.397 E2.04591
G1 F1800
G1 X106.238 Y100.379 E2.05329
G1 F1800
G1 X106.354 Y100.341 E2.05922
G1 X107.446 Y100.690 F7800.000
G1 F1800
G1 X107.642 Y100.494 E2.06111
G1 E0.06111 F2400.00000
G92 E0
G1 X105.656 Y99.248 F7800.000
G1 E2.00000 F2400.00000
G1 F1800
G1 X105.310 Y99.248 E2.00057
G1 X105.267 Y99.227 E2.00064
G1 F1800
G1 X105.224 Y99.205 E2.00133
G1 X105.121 Y99.205 E2.00279
G1 X105.115 Y98.429 F7800.000
G1 F1800
G1 X105.072 Y98.408 E2.00347
G1 X104.835 Y98.415 E2.00684
G1 X105.115 Y98.429 F7800.000
G1 F1800
G1 X105.158 Y98.451 E2.00692
G1 X105.590 Y98.451 E2.00762
G1 E0.00762 F2400.00000
G92 E0
G1 X103.842 Y104.420 F7800.000
G1 E2.00000 F2400.00000
G1 F1800
G1 X103.732 Y104.466 E2.00143
G1 X103.661 Y104.622 E2.00348
G1 X103.661 Y104.686 E2.00425
G1 X103.576 Y104.795 E2.00590
G1 X103.575 Y105.101 E2.00956
G1 F1800
G1 X103.545 Y105.212 E2.01201
G1 F1800
G1 X103.532 Y105.446 E2.01884
G1 X103.359 Y105.676 E2.02721
G1 X103.359 Y105.820 E2.03143
G1 X103.320 Y105.859 E2.03303
G1 F1800
G1 X103.245 Y105.918 E2.03474
G1 F1800
G1 X103.188 Y105.958 E2.03525
G1 X102.615 Y106.975 F7800.000
G1 F1800
G1 X102.555 Y107.074 E2.04669
G1 X102.535 Y107.170 E2.05645
G1 E0.05645 F2400.00000
G92 E0
G1 X101.876 Y111.175 F7800.000
G1 E2.00000 F2400.00000
G1 F1800
G1 X101.730 Y111.163 E2.00145
G1 X101.706 Y111.101 E2.00211
G1 X101.646 Y111.089 E2.00271
G1 X101.560 Y111.119 E2.00362
G1 Z0.350 F7800.000
G1 Z0.450 F7800.000
G1 X105.566 Y99.381 F7800.000
G1 F825.841
G1 X105.998 Y99.381 E2.01545
G1 X105.998 Y99.468 E2.01781
G1 X106.343 Y99.468 E2.02727
G1 X106.343 Y99.554 E2.02963
G1 X106.689 Y99.554 E2.03909
G1 X106.689 Y99.640 E2.04146
G1 X107.034 Y99.640 E2.05092
G1 X107.034 Y99.727 E2.05328
G1 X107.466 Y99.727 E2.06510
G1 X107.466 Y99.813 E2.06747
G1 X107.725 Y99.813 E2.07456
G1 X107.725 Y100.111 E2.08272
G1 X107.639 Y100.198 E2.08607
G1 X107.639 Y100.370 E2.09080
G1 X107.553 Y100.457 E2.09414
G1 X107.553 Y100.600 E2.09807
G1 X107.323 Y100.600 E2.10436
G1 X107.237 Y100.686 E2.10770
G1 X107.150 Y100.686 E2.11006
G1 X107.064 Y100.773 E2.11341
G1 X106.977 Y100.773 E2.11577
G1 X106.718 Y101.032 E2.12581
G1 X106.632 Y101.032 E2.12817
G1 X106.546 Y101.118 E2.13151
G1 X106.459 Y101.118 E2.13388
G1 X106.027 Y101.550 E2.15060
G1 X105.941 Y101.550 E2.15296
G1 X104.261 Y103.230 E2.21801
G1 X104.261 Y102.375 E2.24143
G1 X104.434 Y102.202 E2.24811
G1 X104.434 Y101.943 E2.25521
G1 X104.520 Y101.857 E2.25855
G1 X104.520 Y101.598 E2.26565
G1 X104.607 Y101.511 E2.26899
G1 X104.607 Y101.338 E2.27372
G1 X104.693 Y101.252 E2.27706
G1 X104.693 Y101.166 E2.27943
G1 X104.779 Y101.079 E2.28277
G1 X104.779 Y100.734 E2.29223
G1 X104.866 Y100.647 E2.29557
G1 X104.866 Y100.388 E2.30267
