; generated by Slic3r 1.3.0-dev on 2017-08-18 at 21:36:12

; external perimeters extrusion width = 0.40mm (1.14mm^3/s)
; perimeters extrusion width = 0.68mm (3.95mm^3/s)
; infill extrusion width = 1.20mm (9.43mm^3/s)
; solid infill extrusion width = 0.68mm (1.32mm^3/s)
; top infill extrusion width = 0.68mm (0.99mm^3/s)
; support material extrusion width = 0.40mm (2.27mm^3/s)

M107
M190 S66 ; set bed temperature and wait for it to be reached
M104 S215 ; set temperature
G28 ; home all axes
G1 Z5 F5000 ; lift nozzle

; Filament gcode

M109 S215 ; set temperature and wait for it to be reached
G21 ; set units to millimeters
G90 ; use absolute coordinates
M82 ; use absolute distances for extrusion
G92 E0
G1 Z0.350 F7800.000
G1 E-2.00000 F2400.00000
G92 E0
G1 X62.176 Y122.124 F7800.000
G1 E2.00000 F2400.00000
G1 F1800
G1 X122.329 Y65.601 E9.50554
G1 X124.247 Y64.344 E9.71408
G1 X126.866 Y63.804 E9.95719
G1 X129.286 Y63.804 E10.17724
G1 X131.381 Y64.144 E10.37022
G1 X133.974 Y65.009 E10.61874
G1 X134.401 Y65.168 E10.66021
G1 X140.278 Y67.588 E11.23814
G1 X141.431 Y68.201 E11.35685
G1 X142.768 Y69.105 E11.50361
G1 X144.314 Y70.269 E11.67960
G1 X145.178 Y70.960 E11.78024
G1 X145.724 Y71.449 E11.84685
G1 X146.416 Y72.140 E11.93579
G1 X146.821 Y72.584 E11.99038
G1 X147.685 Y73.621 E12.11313
G1 X148.108 Y74.187 E12.17739
G1 X149.491 Y76.261 E12.40408
G1 X149.904 Y76.973 E12.47894
G1 X150.077 Y77.319 E12.51409
G1 X150.436 Y78.187 E12.59950
G1 X151.061 Y80.095 E12.78202
G1 X151.580 Y81.996 E12.96123
G1 X151.813 Y83.739 E13.12115
G1 X151.813 Y87.715 E13.48265
G1 X151.793 Y88.233 E13.52979
G1 X151.102 Y97.048 E14.33384
G1 X150.898 Y98.735 E14.48831
G1 X150.648 Y100.077 E14.61243
G1 X150.205 Y101.468 E14.74518
G1 X149.475 Y103.109 E14.90853
G1 X142.215 Y118.839 E16.48381
G1 X141.987 Y119.287 E16.52957
G1 X129.369 Y141.931 E18.88667
G1 X128.266 Y143.391 E19.05299
G1 X127.921 Y143.737 E19.09745
G1 X126.043 Y145.053 E19.30599
G1 X124.025 Y145.630 E19.49677
G1 X119.704 Y146.148 E19.89253
G1 X118.915 Y146.196 E19.96443
G1 X117.762 Y146.179 E20.06924
G1 X87.761 Y144.081 E22.80391
G1 X64.426 Y141.488 E24.93883
G1 X62.225 Y140.844 E25.14737
G1 X60.375 Y139.488 E25.35591
G1 X58.730 Y136.510 E25.66522
G1 X58.384 Y135.128 E25.79483
G1 X58.187 Y133.521 E25.94204
G1 X58.187 Y133.348 E25.95776
G1 X58.428 Y131.575 E26.12048
G1 X60.157 Y125.352 E26.70773
G1 X61.856 Y122.441 E27.01422
G1 X62.133 Y122.166 E27.04974
G1 E25.04974 F2400.00000
G92 E0
G1 X121.034 Y136.242 F7800.000
G1 E2.00000 F2400.00000
G1 F1800
G1 X120.184 Y136.242 E2.07726
G1 X122.085 Y134.341 E2.32176
G1 X119.823 Y134.341 E2.52748
G1 X119.823 Y132.785 E2.66894
G1 X119.304 Y132.785 E2.71612
G1 X119.304 Y130.351 E2.93748
G1 X117.042 Y132.612 E3.22830
G1 X116.350 Y132.612 E3.29121
G1 X114.968 Y133.995 E3.46899
G1 X114.722 Y133.995 E3.49138
G1 X114.722 Y134.514 E3.53853
G1 X113.600 Y134.514 E3.64057
G1 X113.600 Y134.341 E3.65628
G1 X111.008 Y134.341 E3.89201
G1 X111.008 Y134.168 E3.90773
G1 X109.279 Y134.168 E4.06494
G1 X109.279 Y133.995 E4.08066
G1 X106.686 Y133.995 E4.31642
G1 X106.686 Y133.822 E4.33214
G1 X104.093 Y133.822 E4.56786
G1 X104.093 Y133.650 E4.58358
G1 X102.192 Y133.650 E4.75647
G1 X102.192 Y133.477 E4.77219
G1 X99.426 Y133.477 E5.02366
G1 X99.426 Y133.304 E5.03938
G1 X97.352 Y133.304 E5.22800
G1 X97.352 Y133.131 E5.24372
G1 X95.277 Y133.131 E5.43237
G1 X95.276 Y130.698 E5.65363
G1 X93.015 Y132.958 E5.94432
G1 X90.423 Y132.958 E6.18003
G1 X90.077 Y133.304 E6.22452
G1 X88.967 Y133.304 E6.32547
G1 X88.967 Y134.586 E6.44209
G1 X88.794 Y134.759 E6.46431
G1 X88.794 Y135.551 E6.53631
G1 X88.018 Y135.551 E6.60690
G1 X88.018 Y135.378 E6.62262
G1 X86.462 Y135.378 E6.76409
G1 X86.462 Y135.205 E6.77981
G1 X85.079 Y135.205 E6.90553
G1 X85.079 Y135.032 E6.92125
G1 X83.524 Y135.032 E7.06269
G1 X83.524 Y134.860 E7.07840
G1 X81.968 Y134.860 E7.21984
G1 X81.968 Y134.687 E7.23556
G1 X80.412 Y134.687 E7.37708
G1 X80.412 Y134.514 E7.39279
G1 X78.682 Y134.514 E7.55004
G1 X78.682 Y134.341 E7.56576
G1 X77.128 Y134.341 E7.70711
G1 X77.128 Y134.168 E7.72283
G1 X75.573 Y134.168 E7.86423
G1 X75.573 Y133.995 E7.87994
G1 X73.844 Y133.995 E8.03715
G1 X73.844 Y133.822 E8.05286
G1 X72.114 Y133.822 E8.21014
G1 X72.114 Y133.650 E8.22585
G1 X70.387 Y133.650 E8.38290
G1 X70.387 Y133.477 E8.39862
G1 X68.485 Y133.477 E8.57154
G1 X68.485 Y133.304 E8.58726
G1 X67.464 Y133.304 E8.68014
G1 X69.004 Y131.764 E8.87822
G1 X69.004 Y130.454 E8.99734
G1 X69.350 Y130.454 E9.02877
G1 X69.350 Y129.762 E9.09164
G1 X69.953 Y129.762 E9.14649
G1 X69.953 Y129.935 E9.16221
G1 X70.645 Y129.935 E9.22508
G1 X70.645 Y130.108 E9.24080
G1 X71.163 Y130.108 E9.28795
G1 X71.163 Y130.281 E9.30367
G1 X71.854 Y130.281 E9.36654
G1 X71.854 Y130.454 E9.38225
G1 X72.892 Y130.454 E9.47656
G1 X72.892 Y130.626 E9.49227
G1 X78.957 Y130.626 E10.04377
G1 X79.130 Y130.454 E10.06600
G1 X79.821 Y130.454 E10.12888
G1 X79.994 Y130.281 E10.15110
G1 X80.685 Y130.281 E10.21399
G1 X80.858 Y130.108 E10.23622
G1 X81.031 Y130.108 E10.25193
G1 X81.204 Y129.935 E10.27415
G1 X81.722 Y129.935 E10.32131
G1 X81.895 Y129.762 E10.34354
G1 X82.241 Y129.762 E10.37498
G1 X82.414 Y129.589 E10.39720
G1 X82.587 Y129.589 E10.41292
G1 X82.760 Y129.416 E10.43514
G1 X82.933 Y129.416 E10.45087
G1 X83.105 Y129.244 E10.47310
G1 X83.278 Y129.244 E10.48882
G1 X83.451 Y129.071 E10.51105
G1 X83.797 Y129.071 E10.54247
G1 X84.488 Y128.379 E10.63139
G1 X84.661 Y128.379 E10.64710
G1 X84.834 Y128.206 E10.66933
G1 X85.352 Y128.206 E10.71648
G1 X85.525 Y128.034 E10.73871
G1 X85.698 Y128.034 E10.75443
G1 X86.389 Y127.342 E10.84334
G1 X86.562 Y127.342 E10.85906
G1 X86.908 Y126.996 E10.90351
G1 X87.772 Y126.996 E10.98208
G1 X88.810 Y125.959 E11.11548
G1 X89.574 Y125.959 E11.18495
G1 X89.574 Y124.922 E11.27925
G1 X90.004 Y124.922 E11.31838
G1 X90.004 Y125.268 E11.34981
G1 X90.177 Y125.268 E11.36553
G1 X90.177 Y125.441 E11.38124
G1 X90.350 Y125.441 E11.39696
G1 X90.350 Y125.787 E11.42840
G1 X91.733 Y125.787 E11.55414
G1 X91.733 Y125.959 E11.56985
G1 X91.905 Y125.959 E11.58557
G1 X91.905 Y126.132 E11.60131
G1 X92.078 Y126.132 E11.61702
G1 X92.078 Y126.305 E11.63273
G1 X92.424 Y126.305 E11.66416
G1 X92.424 Y126.651 E11.69560
G1 X92.943 Y126.651 E11.74275
G1 X92.943 Y126.997 E11.77421
G1 X93.288 Y126.997 E11.80564
G1 X93.288 Y127.170 E11.82136
G1 X93.461 Y127.170 E11.83708
G1 X93.461 Y127.342 E11.85278
G1 X93.634 Y127.342 E11.86849
G1 X93.634 Y127.515 E11.88421
G1 X93.980 Y127.515 E11.91564
G1 X93.980 Y127.688 E11.93136
G1 X94.498 Y127.688 E11.97851
G1 X94.498 Y130.123 E12.19995
G1 X95.377 Y129.244 E12.31301
G1 X95.708 Y129.244 E12.34309
G1 X95.708 Y129.416 E12.35878
G1 X95.881 Y129.416 E12.37450
G1 X95.881 Y129.589 E12.39021
G1 X96.054 Y129.589 E12.40593
G1 X96.054 Y129.935 E12.43737
G1 X97.437 Y129.935 E12.56311
G1 X97.437 Y130.108 E12.57882
G1 X97.955 Y130.108 E12.62598
G1 X97.955 Y130.281 E12.64169
G1 X100.909 Y130.281 E12.91029
G1 X101.082 Y130.108 E12.93251
G1 X101.255 Y130.108 E12.94823
G1 X101.601 Y129.762 E12.99269
G1 X101.773 Y129.762 E13.00840
G1 X101.946 Y129.589 E13.03063
G1 X102.292 Y129.589 E13.06207
G1 X102.638 Y129.244 E13.10652
G1 X103.156 Y129.244 E13.15368
G1 X103.329 Y129.071 E13.17590
G1 X103.502 Y129.071 E13.19162
G1 X103.675 Y128.898 E13.21385
G1 X104.021 Y128.898 E13.24528
G1 X104.366 Y128.552 E13.28974
G1 X105.476 Y128.552 E13.39067
G1 X105.476 Y127.442 E13.49160
G1 X106.440 Y126.478 E13.61560
G1 X107.896 Y126.478 E13.74797
G1 X107.896 Y125.368 E13.84890
G1 X108.069 Y125.195 E13.87113
G1 X108.069 Y124.404 E13.94309
G1 X109.279 Y124.404 E14.05311
G1 X109.279 Y123.985 E14.09116
G1 X109.898 Y123.367 E14.17071
G1 X110.662 Y123.367 E14.24020
G1 X110.662 Y122.602 E14.30970
G1 X111.626 Y121.638 E14.43370
G1 X114.465 Y121.638 E14.69180
G1 X114.465 Y120.528 E14.79272
G1 X114.637 Y120.355 E14.81495
G1 X114.637 Y120.182 E14.83068
G1 X114.910 Y119.909 E14.86577
G1 X115.502 Y119.909 E14.91954
G1 X115.502 Y118.800 E15.02047
G1 X118.283 Y116.019 E15.37809
G1 X116.539 Y116.019 E15.53666
G1 X116.539 Y115.515 E15.58242
G1 X116.712 Y115.342 E15.60464
G1 X116.712 Y115.170 E15.62036
G1 X116.885 Y114.997 E15.64259
G1 X116.885 Y110.833 E16.02120
G1 X116.712 Y110.833 E16.03692
G1 X116.712 Y109.538 E16.15464
G1 X116.985 Y109.538 E16.17945
G1 X117.157 Y109.365 E16.20167
G1 X117.330 Y109.365 E16.21739
G1 X117.676 Y109.020 E16.26185
G1 X118.022 Y109.020 E16.29328
G1 X118.367 Y108.674 E16.33774
G1 X118.886 Y108.674 E16.38489
G1 X119.059 Y108.501 E16.40712
G1 X119.405 Y108.501 E16.43855
G1 X120.514 Y107.391 E16.58129
G1 X120.514 Y107.218 E16.59701
G1 X122.950 Y104.783 E16.91017
G1 X120.514 Y104.783 E17.13162
G1 X120.514 Y104.264 E17.17877
G1 X120.342 Y104.264 E17.19449
G1 X120.342 Y103.919 E17.22592
G1 X120.169 Y103.919 E17.24164
G1 X120.169 Y103.746 E17.25736
G1 X119.996 Y103.746 E17.27307
G1 X119.996 Y103.400 E17.30451
G1 X119.650 Y103.400 E17.33594
G1 X119.650 Y102.882 E17.38310
G1 X119.477 Y102.882 E17.39881
G1 X119.477 Y102.363 E17.44596
G1 X119.305 Y102.363 E17.46169
G1 X119.305 Y102.017 E17.49312
G1 X119.132 Y102.017 E17.50884
G1 X119.132 Y101.845 E17.52455
G1 X118.801 Y101.845 E17.55460
G1 X119.823 Y100.823 E17.68599
G1 X119.823 Y100.650 E17.70171
G1 X120.514 Y99.958 E17.79062
G1 X120.514 Y99.786 E17.80634
G1 X120.687 Y99.613 E17.82857
G1 X120.687 Y99.440 E17.84428
G1 X121.033 Y99.094 E17.88873
G1 X121.033 Y98.921 E17.90446
G1 X121.636 Y98.318 E17.98203
G1 X121.636 Y98.649 E18.01207
G1 X125.354 Y98.649 E18.35015
G1 X125.354 Y97.957 E18.41302
G1 X125.527 Y97.957 E18.42874
G1 X125.527 Y96.329 E18.57682
G1 X125.700 Y96.156 E18.59905
G1 X125.700 Y94.154 E18.78103
G1 X126.564 Y94.154 E18.85963
G1 X126.564 Y93.636 E18.90678
G1 X127.083 Y93.636 E18.95393
G1 X127.083 Y92.771 E19.03252
G1 X128.293 Y92.771 E19.14254
G1 X128.293 Y91.662 E19.24347
G1 X128.639 Y91.316 E19.28793
G1 X128.639 Y90.970 E19.31936
G1 X128.811 Y90.797 E19.34159
G1 X128.811 Y90.452 E19.37303
G1 X128.984 Y90.279 E19.39525
G1 X128.984 Y89.760 E19.44240
G1 X129.157 Y89.587 E19.46463
G1 X129.157 Y89.242 E19.49607
G1 X129.330 Y89.069 E19.51830
G1 X129.330 Y88.723 E19.54973
G1 X129.676 Y88.377 E19.59419
G1 X129.676 Y88.204 E19.60990
G1 X130.121 Y87.759 E19.66722
G1 X130.813 Y87.759 E19.73009
G1 X130.986 Y87.586 E19.75232
G1 X131.331 Y87.586 E19.78375
G1 X131.504 Y87.413 E19.80598
G1 X131.677 Y87.413 E19.82170
G1 X131.850 Y87.240 E19.84392
G1 X132.196 Y87.240 E19.87536
G1 X132.541 Y86.894 E19.91981
G1 X134.170 Y86.894 E20.06790
G1 X134.170 Y86.130 E20.13739
G1 X135.134 Y85.166 E20.26139
G1 X135.898 Y85.166 E20.33089
G1 X135.898 Y84.056 E20.43182
G1 X136.244 Y83.710 E20.47627
G1 X136.244 Y83.365 E20.50771
G1 X136.690 Y82.919 E20.56502
G1 X137.712 Y82.919 E20.65793
G1 X137.712 Y83.626 E20.72219
G1 X138.576 Y82.761 E20.83333
G1 X138.576 Y83.453 E20.89620
G1 X140.147 Y81.882 E21.09821
G1 X140.477 Y81.882 E21.12826
G1 X140.477 Y82.055 E21.14397
G1 X140.650 Y82.055 E21.15969
G1 X140.650 Y84.632 E21.39405
G1 X139.597 Y85.685 E21.52943
G1 X142.033 Y85.685 E21.75090
G1 X142.033 Y86.188 E21.79665
G1 X140.116 Y88.104 E22.04314
G1 X142.552 Y88.104 E22.26459
G1 X142.552 Y88.277 E22.28030
G1 X142.724 Y88.277 E22.29602
G1 X142.724 Y88.450 E22.31174
G1 X143.055 Y88.450 E22.34178
G1 X140.981 Y90.524 E22.60851
G1 X143.070 Y90.524 E22.79851
G1 X143.070 Y91.892 E22.92286
G1 X140.635 Y94.327 E23.23602
G1 X141.153 Y94.327 E23.28316
G1 X140.634 Y94.846 E23.34987
G1 X142.897 Y94.846 E23.55562
G1 X142.897 Y95.868 E23.64853
G1 X142.724 Y96.040 E23.67076
G1 X142.724 Y96.732 E23.73362
G1 X140.289 Y99.167 E24.04680
G1 X141.860 Y99.167 E24.18966
G1 X141.860 Y99.670 E24.23542
G1 X141.687 Y99.843 E24.25766
G1 X141.687 Y100.016 E24.27338
G1 X141.341 Y100.362 E24.31783
G1 X141.341 Y100.707 E24.34926
G1 X140.996 Y101.053 E24.39371
G1 X140.996 Y101.226 E24.40943
G1 X140.650 Y101.572 E24.45388
G1 X140.650 Y101.917 E24.48532
G1 X140.477 Y102.090 E24.50755
G1 X140.477 Y102.263 E24.52326
G1 X139.959 Y102.782 E24.58994
G1 X139.959 Y102.954 E24.60566
G1 X139.786 Y103.127 E24.62789
G1 X139.786 Y103.300 E24.64361
G1 X139.440 Y103.646 E24.68807
G1 X139.440 Y103.819 E24.70379
G1 X139.094 Y104.164 E24.74824
G1 X139.094 Y104.510 E24.77967
G1 X138.922 Y104.683 E24.80190
G1 X138.922 Y104.856 E24.81762
G1 X138.403 Y105.374 E24.88431
G1 X138.403 Y105.547 E24.90002
G1 X138.230 Y105.720 E24.92225
G1 X138.230 Y106.066 E24.95369
G1 X137.884 Y106.412 E24.99814
G1 X137.884 Y106.584 E25.01386
G1 X137.712 Y106.757 E25.03608
G1 X137.712 Y107.030 E25.06090
G1 X137.020 Y107.030 E25.12377
G1 X137.020 Y108.140 E25.22470
G1 X136.674 Y108.486 E25.26915
G1 X136.674 Y108.659 E25.28487
G1 X136.329 Y109.004 E25.32933
G1 X136.329 Y109.177 E25.34504
G1 X135.810 Y109.696 E25.41173
G1 X135.810 Y109.869 E25.42744
G1 X135.465 Y110.214 E25.47190
G1 X135.465 Y110.387 E25.48761
G1 X135.119 Y110.733 E25.53209
G1 X135.119 Y110.906 E25.54780
G1 X134.773 Y111.251 E25.59225
G1 X134.773 Y111.597 E25.62369
G1 X134.600 Y111.770 E25.64591
G1 X134.600 Y111.943 E25.66164
G1 X134.427 Y112.116 E25.68386
G1 X134.427 Y112.289 E25.69958
G1 X134.255 Y112.461 E25.72181
G1 X134.255 Y112.807 E25.75325
G1 X134.082 Y112.980 E25.77547
G1 X134.082 Y113.844 E25.85406
G1 X133.909 Y114.017 E25.87629
G1 X133.909 Y116.610 E26.11205
G1 X131.489 Y119.030 E26.42324
G1 X131.489 Y119.303 E26.44805
G1 X130.452 Y119.303 E26.54235
G1 X130.452 Y120.413 E26.64328
G1 X129.933 Y120.931 E26.70996
G1 X129.933 Y121.204 E26.73477
G1 X128.896 Y121.204 E26.82909
G1 X128.896 Y122.314 E26.93002
G1 X128.723 Y122.487 E26.95225
G1 X128.723 Y122.660 E26.96796
G1 X128.378 Y123.006 E27.01242
G1 X128.378 Y123.178 E27.02814
G1 X128.032 Y123.524 E27.07259
G1 X128.032 Y123.697 E27.08831
G1 X127.686 Y124.043 E27.13277
G1 X127.686 Y124.215 E27.14848
G1 X127.513 Y124.388 E27.17071
G1 X127.513 Y124.561 E27.18643
G1 X127.340 Y124.734 E27.20866
G1 X127.340 Y124.907 E27.22437
G1 X126.822 Y125.425 E27.29106
G1 X126.822 Y125.598 E27.30678
G1 X126.476 Y125.944 E27.35124
G1 X126.476 Y126.117 E27.36695
G1 X126.303 Y126.290 E27.38918
G1 X126.303 Y126.463 E27.40489
G1 X126.130 Y126.635 E27.42712
G1 X126.130 Y126.808 E27.44284
G1 X125.785 Y127.154 E27.48731
G1 X125.785 Y127.500 E27.51874
G1 X125.439 Y127.845 E27.56319
G1 X125.439 Y128.018 E27.57891
G1 X125.266 Y128.191 E27.60113
G1 X125.266 Y128.364 E27.61685
G1 X125.093 Y128.537 E27.63908
G1 X125.093 Y128.883 E27.67051
G1 X124.920 Y129.055 E27.69274
G1 X124.920 Y129.401 E27.72418
G1 X124.748 Y129.574 E27.74641
G1 X124.748 Y129.747 E27.76212
G1 X124.575 Y129.920 E27.78435
G1 X124.575 Y130.092 E27.80007
G1 X124.402 Y130.265 E27.82229
G1 X124.402 Y130.438 E27.83801
G1 X124.229 Y130.611 E27.86024
G1 X124.229 Y130.784 E27.87596
G1 X124.056 Y130.957 E27.89819
G1 X124.056 Y131.302 E27.92960
G1 X123.883 Y131.475 E27.95183
G1 X123.883 Y131.821 E27.98329
G1 X123.710 Y131.994 E28.00551
G1 X123.710 Y132.167 E28.02123
G1 X123.538 Y132.340 E28.04346
G1 X123.538 Y132.512 E28.05918
G1 X123.365 Y132.685 E28.08140
G1 X123.365 Y133.031 E28.11284
G1 X123.192 Y133.204 E28.13507
G1 X123.192 Y133.550 E28.16650
G1 X123.019 Y133.722 E28.18873
G1 X123.019 Y133.895 E28.20445
G1 X122.846 Y134.068 E28.22667
G1 X122.846 Y134.760 E28.28955
G1 X122.673 Y134.933 E28.31179
G1 X122.673 Y135.278 E28.34322
G1 X121.034 Y136.918 E28.55408
G1 X121.034 Y136.302 E28.61005
G1 X120.409 Y136.867 F7800.000
G1 F1800
G1 X119.198 Y136.867 E28.72013
G1 X119.198 Y136.345 E28.76765
G1 X120.577 Y134.966 E28.94495
G1 X119.198 Y134.966 E29.07031
G1 X119.198 Y133.410 E29.21177
G1 X118.679 Y133.410 E29.25894
G1 X118.679 Y131.859 E29.39997
G1 X117.301 Y133.237 E29.57720
G1 X116.609 Y133.237 E29.64009
G1 X115.693 Y134.154 E29.75799
G1 X115.693 Y134.620 E29.80035
G1 X115.347 Y134.620 E29.83178
G1 X115.347 Y135.139 E29.87894
G1 X112.975 Y135.139 E30.09460
G1 X112.975 Y134.966 E30.11032
G1 X110.383 Y134.966 E30.34606
G1 X110.383 Y134.793 E30.36177
G1 X108.654 Y134.793 E30.51897
G1 X108.654 Y134.620 E30.53469
G1 X106.061 Y134.620 E30.77045
G1 X106.061 Y134.447 E30.78617
G1 X103.468 Y134.447 E31.02191
G1 X103.468 Y134.274 E31.03762
G1 X101.567 Y134.274 E31.21051
