; generated by Slic3r 1.3.0-dev on 2017-08-18 at 21:37:02

; external perimeters extrusion width = 0.40mm (1.14mm^3/s)
; perimeters extrusion width = 0.68mm (3.95mm^3/s)
; infill extrusion width = 1.20mm (9.43mm^3/s)
; solid infill extrusion width = 0.68mm (1.32mm^3/s)
; top infill extrusion width = 0.68mm (0.99mm^3/s)
; support material extrusion width = 0.40mm (2.27mm^3/s)

M107
M190 S66 ; set bed temperature and wait for it to be reached
M104 S215 ; set temperature
G28 ; home all axes
G1 Z5 F5000 ; lift nozzle

; Filament gcode

M109 S215 ; set temperature and wait for it to be reached
G21 ; set units to millimeters
G90 ; use absolute coordinates
M82 ; use absolute distances for extrusion
G92 E0
G1 Z0.350 F7800.000
G1 E-2.00000 F2400.00000
G92 E0
G1 X88.031 Y76.756 F7800.000
G1 E2.00000 F2400.00000
G1 F1800
G1 X88.704 Y76.083 E2.08658
G1 X90.582 Y74.766 E2.29512
G1 X93.303 Y74.143 E2.54890
G1 X119.218 Y73.807 E4.90557
G1 X119.472 Y73.806 E4.92869
G1 X120.562 Y73.896 E5.02816
G1 X121.572 Y74.065 E5.12124
G1 X123.735 Y74.828 E5.32978
G1 X125.166 Y75.915 E5.49321
G1 X130.047 Y80.795 E6.12076
G1 X131.363 Y82.673 E6.32930
G1 X131.798 Y83.908 E6.44837
G1 X135.332 Y98.380 E7.80298
G1 X135.521 Y99.952 E7.94691
G1 X135.521 Y100.288 E7.97752
G1 X135.124 Y102.547 E8.18606
G1 X134.087 Y104.405 E8.37954
G1 X126.346 Y114.165 E9.51229
G1 X126.026 Y114.538 E9.55695
G1 X108.189 Y133.891 E11.95015
G1 X107.834 Y134.254 E11.99630
G1 X105.956 Y135.570 E12.20484
G1 X103.149 Y136.194 E12.46627
G1 X102.072 Y136.131 E12.56436
G1 X80.196 Y133.102 E14.57257
G1 X78.012 Y132.399 E14.78111
G1 X76.200 Y130.994 E14.98965
G1 X74.975 Y129.055 E15.19819
G1 X74.479 Y126.540 E15.43127
G1 X74.479 Y125.699 E15.50776
G1 X74.651 Y124.201 E15.64484
G1 X83.906 Y84.318 E19.36775
G1 X84.486 Y82.751 E19.51967
G1 X86.505 Y78.881 E19.91662
G1 X86.867 Y78.271 E19.98107
G1 X87.203 Y77.766 E20.03626
G1 X87.993 Y76.803 E20.14954
G1 E18.14954 F2400.00000
G92 E0
G1 X118.299 Y108.789 F7800.000
G1 E2.00000 F2400.00000
G1 F1800
G1 X119.468 Y108.788 E2.10633
G1 X118.972 Y109.290 E2.17048
G1 X118.810 Y109.290 E2.18526
G1 X118.642 Y109.458 E2.20689
G1 X118.128 Y109.458 E2.25362
G1 X117.962 Y109.627 E2.27513
G1 X116.863 Y109.627 E2.37504
G1 X116.863 Y110.564 E2.46031
G1 X113.256 Y114.170 E2.92406
G1 X113.088 Y114.170 E2.93937
G1 X111.983 Y115.276 E3.08149
G1 X111.983 Y115.444 E3.09679
G1 X111.814 Y115.612 E3.11843
G1 X111.814 Y115.780 E3.13373
G1 X111.237 Y116.358 E3.20798
G1 X111.069 Y116.358 E3.22328
G1 X110.900 Y116.526 E3.24492
G1 X110.396 Y116.526 E3.29081
G1 X110.059 Y116.863 E3.33411
G1 X109.891 Y116.863 E3.34942
G1 X109.554 Y117.199 E3.39269
G1 X108.281 Y117.199 E3.50846
G1 X108.281 Y118.305 E3.60896
G1 X107.776 Y118.810 E3.67389
G1 X107.776 Y119.050 E3.69579
G1 X107.535 Y119.050 E3.71769
G1 X106.431 Y120.154 E3.85966
G1 X106.430 Y120.492 E3.89036
G1 X106.189 Y120.733 E3.92134
G1 X105.852 Y120.733 E3.95203
G1 X104.169 Y122.416 E4.16842
G1 X104.001 Y122.416 E4.18373
G1 X103.833 Y122.584 E4.20537
G1 X103.664 Y122.584 E4.22067
G1 X103.159 Y123.089 E4.28562
G1 X102.991 Y123.089 E4.30092
G1 X102.655 Y123.426 E4.34415
G1 X102.487 Y123.426 E4.35945
G1 X102.318 Y123.594 E4.38111
G1 X102.150 Y123.594 E4.39642
G1 X101.981 Y123.762 E4.41806
G1 X101.645 Y123.762 E4.44866
G1 X101.308 Y124.099 E4.49198
G1 X101.140 Y124.099 E4.50730
G1 X100.035 Y125.204 E4.64940
G1 X100.035 Y126.959 E4.80899
G1 X98.522 Y126.960 E4.94653
G1 X98.522 Y126.791 E4.96182
G1 X97.344 Y126.791 E5.06893
G1 X97.344 Y126.623 E5.08423
G1 X95.998 Y126.623 E5.20663
G1 X95.998 Y126.455 E5.22193
G1 X94.820 Y126.455 E5.32905
G1 X94.820 Y126.287 E5.34435
G1 X93.469 Y126.287 E5.46724
G1 X93.468 Y126.118 E5.48255
G1 X92.131 Y126.118 E5.60417
G1 X92.131 Y125.950 E5.61947
G1 X90.780 Y125.950 E5.74229
G1 X90.780 Y125.782 E5.75759
G1 X89.433 Y125.782 E5.88006
G1 X89.433 Y125.613 E5.89536
G1 X88.085 Y125.613 E6.01791
G1 X88.085 Y125.445 E6.03321
G1 X86.740 Y125.445 E6.15547
G1 X86.740 Y125.277 E6.17077
G1 X85.218 Y125.277 E6.30921
G1 X85.217 Y125.109 E6.32451
G1 X84.555 Y125.109 E6.38466
G1 X84.555 Y124.940 E6.39997
G1 X83.209 Y124.940 E6.52238
G1 X83.209 Y124.510 E6.56149
G1 X83.377 Y124.342 E6.58313
G1 X83.377 Y124.174 E6.59843
G1 X83.545 Y124.005 E6.62006
G1 X83.545 Y123.501 E6.66593
G1 X83.714 Y123.333 E6.68755
G1 X83.714 Y122.827 E6.73351
G1 X83.882 Y122.659 E6.75516
G1 X83.882 Y122.491 E6.77046
G1 X84.050 Y122.323 E6.79210
G1 X84.050 Y121.649 E6.85330
G1 X84.219 Y121.481 E6.87496
G1 X84.219 Y121.144 E6.90560
G1 X84.387 Y120.976 E6.92725
G1 X84.387 Y120.807 E6.94258
G1 X84.555 Y120.638 E6.96424
G1 X84.555 Y119.966 E7.02533
G1 X84.723 Y119.798 E7.04699
G1 X84.723 Y119.462 E7.07757
G1 X84.892 Y119.293 E7.09921
G1 X84.892 Y118.957 E7.12981
G1 X85.060 Y118.789 E7.15145
G1 X85.060 Y118.284 E7.19736
G1 X85.228 Y118.115 E7.21900
G1 X85.228 Y117.779 E7.24960
G1 X85.396 Y117.611 E7.27124
G1 X85.396 Y117.272 E7.30204
G1 X85.565 Y117.103 E7.32371
G1 X85.565 Y116.433 E7.38466
G1 X85.733 Y116.264 E7.40631
G1 X85.733 Y115.928 E7.43691
G1 X85.901 Y115.760 E7.45855
G1 X85.901 Y115.592 E7.47382
G1 X86.070 Y115.423 E7.49545
G1 X86.070 Y114.750 E7.55673
G1 X86.238 Y114.581 E7.57838
G1 X86.238 Y114.077 E7.62424
G1 X86.406 Y113.908 E7.64588
G1 X86.406 Y113.740 E7.66119
G1 X86.574 Y113.572 E7.68283
G1 X86.574 Y113.067 E7.72873
G1 X86.743 Y112.899 E7.75038
G1 X86.743 Y112.393 E7.79634
G1 X86.911 Y112.225 E7.81799
G1 X86.911 Y111.889 E7.84850
G1 X87.079 Y111.721 E7.87014
G1 X87.079 Y111.384 E7.90080
G1 X87.248 Y111.215 E7.92246
G1 X87.248 Y110.711 E7.96834
G1 X87.416 Y110.542 E7.98999
G1 X87.416 Y110.038 E8.03585
G1 X87.584 Y109.870 E8.05749
G1 X87.584 Y109.533 E8.08808
G1 X87.752 Y109.365 E8.10972
G1 X87.752 Y109.029 E8.14029
G1 X87.921 Y108.860 E8.16192
G1 X87.921 Y108.187 E8.22317
G1 X88.089 Y108.019 E8.24481
G1 X88.089 Y107.682 E8.27542
G1 X88.257 Y107.514 E8.29706
G1 X88.257 Y107.345 E8.31236
G1 X88.425 Y107.177 E8.33400
G1 X88.425 Y106.504 E8.39520
G1 X88.594 Y106.336 E8.41684
G1 X88.594 Y105.998 E8.44751
G1 X88.762 Y105.830 E8.46920
G1 X88.762 Y105.494 E8.49970
G1 X89.003 Y105.254 E8.53066
G1 X89.435 Y105.254 E8.56996
G1 X89.435 Y104.580 E8.63117
G1 X89.772 Y104.580 E8.66177
G1 X89.772 Y103.307 E8.77758
G1 X89.940 Y103.139 E8.79921
G1 X89.940 Y102.637 E8.84481
G1 X90.108 Y102.470 E8.86634
G1 X90.108 Y102.295 E8.88232
G1 X90.277 Y102.125 E8.90409
G1 X90.277 Y101.960 E8.91901
G1 X91.191 Y101.046 E9.03655
G1 X91.623 Y101.046 E9.07585
G1 X91.623 Y99.268 E9.23754
G1 X92.464 Y98.425 E9.34584
G1 X92.464 Y95.659 E9.59736
G1 X91.959 Y95.659 E9.64326
G1 X91.959 Y95.323 E9.67386
G1 X91.791 Y95.323 E9.68916
G1 X91.791 Y95.154 E9.70447
G1 X91.623 Y95.154 E9.71977
G1 X91.623 Y94.986 E9.73507
G1 X91.458 Y94.986 E9.75004
G1 X91.455 Y92.967 E9.93367
G1 X91.286 Y92.967 E9.94897
G1 X91.286 Y91.864 E10.04926
G1 X91.959 Y91.190 E10.13586
G1 X91.959 Y90.686 E10.18171
G1 X92.128 Y90.517 E10.20336
G1 X92.128 Y89.171 E10.32577
G1 X94.390 Y86.909 E10.61671
G1 X91.866 Y86.909 E10.84623
G1 X94.390 Y84.384 E11.17083
G1 X93.474 Y84.384 E11.25414
G1 X93.474 Y83.954 E11.29324
G1 X93.810 Y83.618 E11.33652
G1 X93.810 Y83.450 E11.35182
G1 X93.979 Y83.281 E11.37347
G1 X93.979 Y83.113 E11.38877
G1 X94.147 Y82.945 E11.41041
G1 X94.147 Y82.536 E11.44761
G1 X94.986 Y82.536 E11.52390
G1 X94.986 Y82.704 E11.53920
G1 X97.006 Y82.704 E11.72283
G1 X97.006 Y82.872 E11.73814
G1 X99.025 Y82.872 E11.92176
G1 X99.025 Y83.040 E11.93706
G1 X101.718 Y83.041 E12.18189
G1 X101.718 Y83.209 E12.19715
G1 X103.569 Y83.209 E12.36547
G1 X103.569 Y83.377 E12.38081
G1 X106.093 Y83.378 E12.61031
G1 X106.093 Y83.545 E12.62556
G1 X107.944 Y83.545 E12.79388
G1 X107.944 Y85.986 E13.01579
G1 X110.468 Y83.453 E13.34095
G1 X110.468 Y83.882 E13.38000
G1 X112.824 Y83.882 E13.59421
G1 X112.824 Y84.050 E13.60947
G1 X114.675 Y84.050 E13.77779
G1 X114.675 Y86.487 E13.99942
G1 X116.939 Y84.219 E14.29085
G1 X118.377 Y84.219 E14.42165
G1 X118.377 Y86.574 E14.63577
G1 X118.546 Y86.574 E14.65107
G1 X118.546 Y86.911 E14.68172
G1 X118.882 Y86.911 E14.71228
G1 X118.882 Y87.415 E14.75817
G1 X121.743 Y87.416 E15.01834
G1 X121.743 Y89.344 E15.19369
G1 X123.258 Y87.828 E15.38855
G1 X123.257 Y88.687 E15.46666
G1 X121.332 Y90.613 E15.71431
G1 X123.594 Y90.613 E15.92004
G1 X123.594 Y91.623 E16.01185
G1 X123.931 Y91.623 E16.04244
G1 X123.931 Y92.389 E16.11215
G1 X122.005 Y94.315 E16.35980
G1 X124.267 Y94.315 E16.56553
G1 X124.267 Y95.923 E16.71175
G1 X122.846 Y97.344 E16.89448
G1 X124.435 Y97.344 E17.03899
G1 X124.435 Y98.522 E17.14610
G1 X125.277 Y98.522 E17.22262
G1 X125.277 Y98.859 E17.25322
G1 X125.445 Y98.859 E17.26852
G1 X125.445 Y99.530 E17.32953
G1 X124.435 Y99.530 E17.42134
G1 X124.435 Y100.972 E17.55246
G1 X124.267 Y101.140 E17.57410
G1 X124.267 Y101.308 E17.58940
G1 X123.931 Y101.645 E17.63268
G1 X123.931 Y102.381 E17.69961
G1 X123.774 Y102.424 E17.71441
G1 X123.584 Y103.170 E17.78440
G1 X123.090 Y103.664 E17.84793
G1 X123.089 Y104.073 E17.88518
G1 X122.342 Y104.073 E17.95315
G1 X122.006 Y104.410 E17.99643
G1 X121.840 Y104.410 E18.01146
G1 X118.460 Y107.778 E18.44538
G1 X119.311 Y107.778 E18.52276
G1 X118.341 Y108.746 E18.64735
G1 X119.809 Y108.163 F7800.000
G1 F1800
G1 X120.820 Y108.163 E18.73934
G1 X120.348 Y108.635 E18.80003
G1 X120.348 Y108.803 E18.81533
G1 X120.180 Y108.971 E18.83696
G1 X120.180 Y109.578 E18.89216
G1 X119.742 Y109.578 E18.93203
G1 X119.574 Y109.746 E18.95353
G1 X119.401 Y109.745 E18.96928
G1 X119.233 Y109.915 E18.99099
G1 X119.069 Y109.915 E19.00598
G1 X118.900 Y110.083 E19.02762
G1 X118.389 Y110.083 E19.07410
G1 X118.223 Y110.252 E19.09561
G1 X117.488 Y110.252 E19.16247
G1 X117.488 Y111.093 E19.23898
G1 X117.218 Y111.093 E19.26352
G1 X116.478 Y111.832 E19.35858
G1 X116.478 Y112.103 E19.38322
G1 X116.208 Y112.103 E19.40780
G1 X114.090 Y114.221 E19.68017
G1 X114.426 Y114.221 E19.71077
G1 X114.021 Y114.626 E19.76286
G1 X113.850 Y114.625 E19.77838
G1 X113.682 Y114.795 E19.80014
G1 X113.347 Y114.795 E19.83060
G1 X112.608 Y115.534 E19.92566
G1 X112.608 Y115.703 E19.94096
G1 X112.439 Y115.871 E19.96260
G1 X112.439 Y116.039 E19.97790
G1 X112.103 Y116.376 E20.02118
G1 X112.103 Y116.544 E20.03648
G1 X111.832 Y116.814 E20.07124
G1 X111.664 Y116.814 E20.08654
G1 X111.496 Y116.983 E20.10818
G1 X111.328 Y116.983 E20.12349
G1 X111.159 Y117.151 E20.14513
G1 X110.655 Y117.151 E20.19102
G1 X110.318 Y117.488 E20.23431
G1 X110.150 Y117.488 E20.24962
G1 X109.813 Y117.824 E20.29289
G1 X108.906 Y117.824 E20.37539
G1 X108.905 Y118.563 E20.44261
G1 X108.401 Y119.068 E20.50754
G1 X108.401 Y119.236 E20.52282
G1 X107.961 Y119.675 E20.57928
G1 X107.794 Y119.675 E20.59452
G1 X107.055 Y120.414 E20.68949
G1 X107.054 Y120.751 E20.72015
G1 X106.718 Y121.088 E20.76350
G1 X106.718 Y121.358 E20.78802
G1 X106.111 Y121.358 E20.84320
G1 X104.428 Y123.041 E21.05960
G1 X104.260 Y123.041 E21.07490
G1 X104.091 Y123.209 E21.09654
G1 X103.923 Y123.209 E21.11185
G1 X103.418 Y123.714 E21.17678
G1 X103.250 Y123.714 E21.19209
G1 X102.914 Y124.051 E21.23534
G1 X102.745 Y124.050 E21.25063
G1 X102.577 Y124.219 E21.27229
G1 X102.409 Y124.219 E21.28759
G1 X102.240 Y124.387 E21.30923
G1 X101.904 Y124.387 E21.33983
G1 X101.567 Y124.724 E21.38314
G1 X101.399 Y124.724 E21.39845
G1 X100.659 Y125.463 E21.49350
G1 X100.660 Y127.178 E21.64943
G1 X100.828 Y127.178 E21.66469
G1 X100.828 Y127.921 E21.73225
G1 X99.749 Y127.921 E21.83037
G1 X99.749 Y127.753 E21.84567
G1 X99.242 Y127.753 E21.89175
G1 X99.242 Y127.584 E21.90706
G1 X97.898 Y127.584 E22.02927
G1 X97.898 Y127.416 E22.04457
G1 X96.720 Y127.416 E22.15168
G1 X96.720 Y127.248 E22.16698
G1 X95.373 Y127.248 E22.28938
G1 X95.373 Y127.080 E22.30468
G1 X94.195 Y127.080 E22.41180
G1 X94.195 Y126.911 E22.42710
G1 X92.846 Y126.911 E22.54979
G1 X92.845 Y126.743 E22.56510
G1 X91.505 Y126.743 E22.68702
G1 X91.505 Y126.575 E22.70232
G1 X90.156 Y126.575 E22.82500
G1 X90.156 Y126.407 E22.84030
G1 X88.809 Y126.407 E22.96274
G1 X88.809 Y126.238 E22.97804
G1 X87.462 Y126.238 E23.10051
G1 X87.462 Y126.070 E23.11582
G1 X86.116 Y126.070 E23.23813
G1 X86.116 Y125.902 E23.25344
G1 X84.597 Y125.902 E23.39157
G1 X84.596 Y125.733 E23.40687
G1 X83.930 Y125.733 E23.46741
G1 X83.930 Y125.565 E23.48272
G1 X82.415 Y125.565 E23.62046
G1 X82.416 Y124.924 E23.67872
G1 X82.584 Y124.756 E23.70037
G1 X82.584 Y124.251 E23.74626
G1 X82.752 Y124.083 E23.76790
G1 X82.752 Y123.915 E23.78320
G1 X82.920 Y123.747 E23.80483
G1 X82.920 Y123.242 E23.85072
G1 X83.089 Y123.074 E23.87235
G1 X83.089 Y122.569 E23.91829
G1 X83.257 Y122.400 E23.93993
G1 X83.257 Y122.232 E23.95524
G1 X83.425 Y122.064 E23.97687
G1 X83.425 Y121.391 E24.03808
G1 X83.594 Y121.222 E24.05973
G1 X83.594 Y120.886 E24.09035
G1 X83.762 Y120.717 E24.11200
G1 X83.762 Y120.549 E24.12732
G1 X83.930 Y120.380 E24.14898
G1 X83.930 Y119.708 E24.21011
G1 X84.098 Y119.539 E24.23176
G1 X84.098 Y119.203 E24.26234
G1 X84.267 Y119.035 E24.28398
G1 X84.267 Y118.698 E24.31459
G1 X84.435 Y118.530 E24.33623
G1 X84.435 Y118.025 E24.38213
G1 X84.603 Y117.857 E24.40377
G1 X84.603 Y117.520 E24.43437
G1 X84.772 Y117.352 E24.45602
G1 X84.772 Y117.014 E24.48674
G1 X84.940 Y116.845 E24.50841
G1 X84.940 Y116.174 E24.56943
G1 X85.108 Y116.006 E24.59108
G1 X85.108 Y115.669 E24.62168
G1 X85.276 Y115.501 E24.64332
G1 X85.276 Y115.333 E24.65861
G1 X85.445 Y115.164 E24.68024
G1 X85.445 Y114.491 E24.74148
G1 X85.613 Y114.322 E24.76314
G1 X85.613 Y113.818 E24.80901
G1 X85.781 Y113.650 E24.83065
G1 X85.781 Y113.481 E24.84596
G1 X85.950 Y113.313 E24.86760
G1 X85.950 Y112.808 E24.91350
G1 X86.118 Y112.640 E24.93515
G1 X86.118 Y112.135 E24.98107
G1 X86.286 Y111.966 E25.00273
G1 X86.286 Y111.630 E25.03328
G1 X86.454 Y111.462 E25.05491
G1 X86.454 Y111.125 E25.08555
G1 X86.623 Y110.957 E25.10721
G1 X86.623 Y110.452 E25.15309
G1 X86.791 Y110.284 E25.17475
G1 X86.791 Y109.779 E25.22062
G1 X86.959 Y109.611 E25.24226
G1 X86.959 Y109.274 E25.27286
G1 X87.127 Y109.106 E25.29449
G1 X87.127 Y108.770 E25.32508
G1 X87.296 Y108.601 E25.34671
G1 X87.296 Y107.928 E25.40794
G1 X87.464 Y107.760 E25.42959
G1 X87.464 Y107.423 E25.46019
G1 X87.632 Y107.255 E25.48183
G1 X87.632 Y107.087 E25.49713
G1 X87.801 Y106.918 E25.51877
G1 X87.801 Y106.245 E25.57998
G1 X87.969 Y106.077 E25.60161
G1 X87.969 Y105.740 E25.63226
G1 X88.137 Y105.571 E25.65394
G1 X88.137 Y105.235 E25.68447
G1 X88.305 Y105.067 E25.70610
G1 X88.305 Y104.629 E25.74598
G1 X88.810 Y104.629 E25.79189
G1 X88.810 Y103.956 E25.85309
G1 X89.147 Y103.956 E25.88370
G1 X89.147 Y103.048 E25.96622
G1 X89.315 Y102.880 E25.98786
G1 X89.315 Y102.377 E26.03358
G1 X89.483 Y102.210 E26.05510
G1 X89.483 Y102.037 E26.07081
G1 X89.652 Y101.867 E26.09258
G1 X89.652 Y101.702 E26.10765
G1 X90.493 Y100.860 E26.21585
G1 X90.493 Y100.692 E26.23115
G1 X90.764 Y100.422 E26.26592
G1 X90.998 Y100.422 E26.28724
G1 X90.998 Y99.010 E26.41561
G1 X91.839 Y98.167 E26.52391
G1 X91.839 Y96.284 E26.69510
G1 X91.334 Y96.284 E26.74101
G1 X91.334 Y95.948 E26.77161
G1 X91.166 Y95.948 E26.78691
G1 X91.166 Y95.779 E26.80221
G1 X90.998 Y95.779 E26.81751
G1 X90.998 Y95.611 E26.83282
G1 X90.832 Y95.611 E26.84792
G1 X90.830 Y93.592 E27.03154
G1 X90.661 Y93.592 E27.04684
G1 X90.661 Y92.750 E27.12335
G1 X90.493 Y92.750 E27.13865
G1 X90.494 Y91.773 E27.22749
G1 X91.334 Y90.931 E27.33569
G1 X91.334 Y90.427 E27.38157
G1 X91.503 Y90.258 E27.40321
G1 X91.503 Y88.912 E27.52562
G1 X92.882 Y87.534 E27.70292
G1 X91.335 Y87.534 E27.84358
G1 X91.335 Y86.556 E27.93244
G1 X92.881 Y85.009 E28.13137
G1 X92.208 Y85.009 E28.19258
G1 X92.512 Y84.705 E28.23168
G1 X92.512 Y84.435 E28.25627
G1 X92.849 Y84.435 E28.28687
G1 X92.849 Y83.696 E28.35410
G1 X93.186 Y83.359 E28.39738
G1 X93.186 Y83.191 E28.41268
G1 X93.354 Y83.022 E28.43433
G1 X93.354 Y82.854 E28.44963
G1 X93.522 Y82.686 E28.47127
G1 X93.522 Y82.181 E28.51716
G1 X93.793 Y81.911 E28.55194
G1 X95.611 Y81.911 E28.71728
G1 X95.611 Y82.079 E28.73258
G1 X97.630 Y82.079 E28.91621
G1 X97.630 Y82.247 E28.93152
G1 X99.650 Y82.247 E29.11514
G1 X99.650 Y82.416 E29.13044
G1 X102.342 Y82.416 E29.37527
G1 X102.342 Y82.584 E29.39054
G1 X104.193 Y82.584 E29.55886
