; generated by Slic3r 1.3.0-dev on 2017-08-18 at 21:37:58

; external perimeters extrusion width = 0.40mm (1.14mm^3/s)
; perimeters extrusion width = 0.68mm (3.95mm^3/s)
; infill extrusion width = 1.20mm (9.43mm^3/s)
; solid infill extrusion width = 0.68mm (1.32mm^3/s)
; top infill extrusion width = 0.68mm (0.99mm^3/s)
; support material extrusion width = 0.40mm (2.27mm^3/s)

M107
M190 S66 ; set bed temperature and wait for it to be reached
M104 S215 ; set temperature
G28 ; home all axes
G1 Z5 F5000 ; lift nozzle

; Filament gcode

M109 S215 ; set temperature and wait for it to be reached
G21 ; set units to millimeters
G90 ; use absolute coordinates
M82 ; use absolute distances for extrusion
G92 E0
G1 Z0.350 F7800.000
G1 E-2.00000 F2400.00000
G92 E0
G1 X102.944 Y72.159 F7800.000
G1 E2.00000 F2400.00000
G1 F1800
G1 X103.314 Y71.789 E2.04753
G1 X105.192 Y70.473 E2.25607
G1 X107.585 Y69.862 E2.48066
G1 X116.719 Y69.304 E3.31282
G1 X118.536 Y69.304 E3.47804
G1 X120.143 Y69.501 E3.62524
G1 X120.870 Y69.683 E3.69336
G1 X122.226 Y70.185 E3.82487
G1 X122.590 Y70.367 E3.86181
G1 X124.432 Y71.732 E4.07035
G1 X125.699 Y73.644 E4.27889
G1 X126.251 Y76.281 E4.52390
G1 X126.251 Y82.288 E5.07009
G1 X126.223 Y82.904 E5.12614
G1 X124.951 Y96.531 E6.37065
G1 X124.558 Y98.241 E6.53024
G1 X123.468 Y101.148 E6.81253
G1 X123.273 Y101.612 E6.85822
G1 X120.828 Y106.873 E7.38575
G1 X114.287 Y119.955 E8.71571
G1 X106.350 Y134.363 E10.21144
G1 X105.233 Y135.849 E10.38049
G1 X105.051 Y136.030 E10.40386
G1 X104.342 Y136.646 E10.48927
G1 X102.888 Y137.736 E10.65448
G1 X100.707 Y138.814 E10.87569
G1 X94.893 Y140.449 E11.42491
G1 X93.099 Y140.696 E11.58955
G1 X92.076 Y140.663 E11.68258
G1 X90.259 Y140.482 E11.84862
G1 X87.956 Y139.815 E12.06668
G1 X87.592 Y139.633 E12.10363
G1 X85.871 Y138.392 E12.29662
G1 X85.689 Y138.211 E12.31998
G1 X84.372 Y136.333 E12.52852
G1 X83.749 Y133.526 E12.78994
G1 X83.749 Y132.981 E12.83951
G1 X84.037 Y131.046 E13.01739
G1 X100.572 Y76.901 E18.16527
G1 X101.409 Y74.573 E18.39019
G1 X102.912 Y72.209 E18.64490
G1 E16.64490 F2400.00000
G92 E0
G1 X90.703 Y133.232 F7800.000
G1 E2.00000 F2400.00000
G1 F1800
G1 X90.871 Y133.343 E2.01814
G1 X90.919 Y133.345 E2.02245
G1 X90.919 Y133.345 F7800.000
G1 F1800
G1 X91.131 Y133.376 E2.04382
G1 X91.251 Y133.495 E2.06060
G1 X91.464 Y133.526 E2.08197
G1 X91.645 Y133.526 E2.10003
G1 X91.746 Y133.506 E2.11021
G1 F1800
G1 X91.946 Y133.464 E2.13213
G1 F1800
G1 X92.015 Y133.436 E2.14084
G1 X92.190 Y133.435 E2.16137
G1 F1800
G1 X92.346 Y133.422 E2.18095
G1 X92.363 Y133.370 E2.18776
G1 F1800
G1 X92.372 Y133.345 E2.19085
G1 X92.346 Y133.422 F7800.000
G1 F1800
G1 X92.459 Y133.465 E2.20522
G1 F1800
G1 X92.572 Y133.508 E2.21807
G1 E0.21807 F2400.00000
G92 E0
G1 X99.210 Y130.141 F7800.000
G1 E2.00000 F2400.00000
G1 F1800
G1 X99.210 Y130.579 E2.03985
G1 X98.328 Y131.461 E2.15333
G1 X96.724 Y131.461 E2.29912
G1 X97.163 Y131.023 E2.35549
G1 X97.163 Y130.115 E2.43809
G1 X97.863 Y129.414 E2.52821
G1 X98.302 Y129.414 E2.56806
G1 X98.302 Y129.777 E2.60111
G1 X98.483 Y129.777 E2.61763
G1 X98.483 Y129.959 E2.63415
G1 X98.847 Y129.959 E2.66719
G1 X98.847 Y130.141 E2.68371
G1 X99.150 Y130.141 E2.71130
G1 X99.808 Y130.864 F7800.000
G1 F1800
G1 X98.927 Y131.746 E2.82471
G1 X98.927 Y131.928 E2.84123
G1 X98.768 Y132.086 E2.86158
G1 X97.860 Y132.086 E2.94420
G1 X97.678 Y132.268 E2.96757
G1 X97.083 Y132.268 E3.02169
G1 X97.083 Y132.086 E3.03821
G1 X96.356 Y132.086 E3.10429
G1 X96.356 Y131.904 E3.12082
G1 X96.174 Y131.904 E3.13734
G1 X96.174 Y131.723 E3.15387
G1 X95.761 Y131.723 E3.19145
G1 X96.174 Y131.309 E3.24463
G1 X96.174 Y131.127 E3.26114
G1 X96.538 Y130.764 E3.30787
G1 X96.538 Y129.856 E3.39047
G1 X97.628 Y128.766 E3.53066
G1 X97.628 Y128.607 E3.54506
G1 X98.745 Y128.607 E3.64663
G1 X98.745 Y128.789 E3.66315
G1 X98.927 Y128.789 E3.67967
G1 X98.927 Y129.152 E3.71271
G1 X99.108 Y129.152 E3.72923
G1 X99.108 Y129.334 E3.74576
G1 X99.472 Y129.334 E3.77880
G1 X99.472 Y129.516 E3.79532
G1 X99.835 Y129.516 E3.82836
G1 X99.835 Y129.697 E3.84489
G1 X100.198 Y129.697 E3.87793
G1 X100.198 Y129.879 E3.89444
G1 X100.380 Y129.879 E3.91096
G1 X100.380 Y130.656 E3.98161
G1 X100.198 Y130.838 E4.00498
G1 X100.198 Y130.996 E4.01938
G1 X99.808 Y130.996 E4.05484
G1 X99.808 Y130.924 E4.06136
G1 X99.486 Y130.628 F7800.000
G1 X100.003 Y131.346 F7800.000
G1 F1800
G1 X99.587 Y131.763 E4.07695
G1 X99.532 Y131.891 E4.08065
G1 X98.226 Y130.623 F7800.000
G1 F1800
G1 X98.131 Y130.658 E4.09065
G1 F1800
G1 X98.051 Y130.683 E4.09985
G1 F1800
G1 X98.010 Y130.695 E4.10493
G1 X97.943 Y130.681 E4.11324
G1 X97.902 Y130.579 E4.12650
G1 F1800
G1 X97.861 Y130.478 E4.13891
G1 F1800
G1 X97.839 Y130.421 E4.14503
G1 X97.825 Y129.010 F7800.000
G1 F1800
G1 X98.432 Y129.010 E4.15446
G1 E2.15446 F2400.00000
G92 E0
G1 X105.082 Y115.109 F7800.000
G1 E2.00000 F2400.00000
G1 F1800
G1 X105.676 Y114.515 E2.07638
G1 X106.660 Y114.515 E2.16580
G1 X106.660 Y115.109 E2.21981
G1 X105.142 Y115.109 E2.35778
G1 X105.391 Y115.733 F7800.000
G1 F1800
G1 X104.714 Y115.733 E2.41931
G1 X104.714 Y114.412 E2.53951
G1 X104.872 Y114.253 E2.55988
G1 X105.054 Y114.253 E2.57640
G1 X105.418 Y113.890 E2.62313
G1 X105.804 Y113.890 E2.65830
G1 X105.804 Y113.503 E2.69346
G1 X106.349 Y112.958 E2.76356
G1 X106.349 Y112.776 E2.78008
G1 X106.531 Y112.594 E2.80345
G1 X106.531 Y112.413 E2.81998
G1 X106.689 Y112.254 E2.84033
G1 X106.871 Y112.254 E2.85685
G1 X107.053 Y112.073 E2.88022
G1 X107.234 Y112.073 E2.89674
G1 X107.648 Y111.659 E2.94992
G1 X107.648 Y112.618 E3.03708
G1 X107.830 Y112.618 E3.05360
G1 X107.830 Y113.190 E3.10560
G1 X107.466 Y113.190 E3.13864
G1 X107.466 Y113.576 E3.17380
G1 X107.285 Y113.758 E3.19717
G1 X107.285 Y114.435 E3.25870
G1 X107.466 Y114.435 E3.27522
G1 X107.466 Y114.617 E3.29174
G1 X107.648 Y114.617 E3.30826
G1 X107.648 Y115.030 E3.34586
G1 X107.153 Y115.525 E3.40951
G1 X107.830 Y115.525 E3.47104
G1 X107.830 Y116.433 E3.55364
G1 X108.011 Y116.433 E3.57017
G1 X108.011 Y116.847 E3.60777
G1 X107.853 Y117.005 E3.62814
G1 X107.440 Y117.005 E3.66574
G1 X107.440 Y116.824 E3.68226
G1 X106.713 Y116.824 E3.74835
G1 X106.713 Y116.642 E3.76487
G1 X106.036 Y116.642 E3.82640
G1 X105.854 Y116.824 E3.84976
G1 X105.673 Y116.824 E3.86628
G1 X105.077 Y117.419 E3.94282
G1 X105.077 Y116.824 E3.99694
G1 X104.664 Y116.824 E4.03454
G1 X105.391 Y116.097 E4.12800
G1 X105.027 Y116.097 E4.16104
G1 X105.348 Y115.776 E4.20232
G1 X105.391 Y115.333 F7800.000
G1 E2.20232 F2400.00000
G92 E0
G1 X108.089 Y114.448 F7800.000
G1 E2.00000 F2400.00000
G1 F1800
G1 X108.089 Y115.084 E2.00986
G1 E0.00986 F2400.00000
G92 E0
G1 X104.273 Y114.993 F7800.000
G1 E2.00000 F2400.00000
G1 F1800
G1 X104.273 Y114.176 E2.01268
G1 X106.243 Y114.202 F7800.000
G1 F1800
G1 X106.415 Y113.940 E2.04145
G1 F1800
G1 X106.759 Y113.416 E2.09271
G1 F1800
G1 X106.853 Y113.322 E2.10236
G1 X106.887 Y113.189 E2.11238
G1 F1800
G1 X106.908 Y113.087 E2.11869
G1 X106.908 Y112.567 E2.15027
G1 E0.15027 F2400.00000
G92 E0
G1 X107.063 Y114.747 F7800.000
G1 E2.00000 F2400.00000
G1 F1800
G1 X107.079 Y115.006 E2.00359
G1 X107.263 Y114.973 E2.00618
G1 X107.025 Y116.083 F7800.000
G1 F1800
G1 X106.399 Y116.083 E2.04419
G1 X106.249 Y116.061 E2.05339
G1 X106.252 Y115.961 E2.05946
G1 F1800
G1 X106.255 Y115.894 E2.06262
G1 F1800
G1 X106.292 Y115.697 E2.06947
G1 F1800
G1 X106.298 Y115.635 E2.07231
G1 X106.224 Y115.611 E2.07588
G1 X105.846 Y115.720 E2.09379
G1 X106.490 Y115.837 F7800.000
G1 F1800
G1 X105.512 Y116.480 E2.09863
G1 X105.390 Y116.602 E2.09935
G1 X107.051 Y116.511 F7800.000
G1 F1800
G1 X107.194 Y116.344 E2.11008
G1 F1800
G1 X107.266 Y116.260 E2.11692
G1 X107.248 Y116.193 E2.12126
G1 F1800
G1 X107.229 Y116.126 E2.12636
G1 X107.025 Y116.083 E2.14154
G1 E0.14154 F2400.00000
G92 E0
G1 X110.919 Y106.830 F7800.000
G1 E2.00000 F2400.00000
G1 F1800
G1 X110.919 Y107.194 E2.03304
G1 X109.751 Y107.194 E2.13916
G1 X110.142 Y106.804 E2.18934
G1 X110.323 Y106.804 E2.20586
G1 X110.919 Y106.208 E2.28240
G1 X110.919 Y106.390 E2.29892
G1 X111.050 Y106.258 E2.31584
G1 X111.232 Y106.258 E2.33236
G1 X111.800 Y105.690 E2.40547
G1 X111.800 Y105.508 E2.42199
G1 X112.164 Y105.145 E2.46871
G1 X112.164 Y104.963 E2.48524
G1 X112.527 Y104.600 E2.53196
G1 X112.527 Y104.442 E2.54636
G1 X112.685 Y104.442 E2.56076
G1 X113.230 Y103.896 E2.63086
G1 X114.421 Y103.896 E2.73910
G1 X113.849 Y104.468 E2.81264
G1 X113.667 Y104.468 E2.82916
G1 X113.486 Y104.650 E2.85253
G1 X113.304 Y104.650 E2.86905
G1 X112.917 Y105.037 E2.91878
G1 X112.917 Y105.218 E2.93530
G1 X111.305 Y106.830 E3.14259
G1 X110.979 Y106.830 E3.17230
G1 X110.564 Y106.912 F7800.000
G1 E1.17230 F2400.00000
G92 E0
G1 X112.476 Y105.155 F7800.000
G1 E2.00000 F2400.00000
G1 F1800
G1 X112.605 Y105.026 E2.00035
G1 X113.294 Y104.338 F7800.000
G1 F1800
G1 X113.422 Y104.209 E2.00070
G1 E0.00070 F2400.00000
G92 E0
G1 X110.737 Y103.015 F7800.000
G1 E2.00000 F2400.00000
G1 F1800
G1 X110.737 Y103.401 E2.03516
G1 X110.347 Y103.792 E2.08533
G1 X110.347 Y102.288 E2.22206
G1 X110.165 Y102.288 E2.23858
G1 X110.165 Y102.106 E2.25510
G1 X109.751 Y102.106 E2.29270
G1 X110.142 Y101.716 E2.34288
G1 X110.505 Y101.716 E2.37592
G1 X110.687 Y101.534 E2.39928
G1 X111.282 Y101.534 E2.45341
G1 X111.282 Y101.716 E2.46991
G1 X111.695 Y101.716 E2.50746
G1 X111.282 Y102.130 E2.56060
G1 X111.282 Y102.675 E2.61015
G1 X111.100 Y102.856 E2.63352
G1 X111.100 Y103.015 E2.64792
G1 X110.797 Y103.015 E2.67551
G1 X110.354 Y103.068 F7800.000
G1 X111.269 Y101.094 F7800.000
G1 F1800
G1 X110.814 Y101.093 E2.68256
G1 X110.906 Y101.847 F7800.000
G1 F1800
G1 X110.828 Y102.034 E2.68782
G1 F1800
G1 X110.814 Y102.068 E2.68907
G1 X110.814 Y102.700 E2.71072
G1 E0.71072 F2400.00000
G92 E0
G1 X111.632 Y97.551 F7800.000
G1 E2.00000 F2400.00000
G1 F1800
G1 X111.632 Y97.641 E2.01038
G1 X111.782 Y97.701 E2.02888
G1 E0.02888 F2400.00000
G92 E0
G1 X113.799 Y101.380 F7800.000
G1 E2.00000 F2400.00000
G1 F1800
G1 X113.204 Y101.379 E2.05411
G1 X114.139 Y100.444 E2.17438
G1 X114.734 Y100.444 E2.22850
G1 X114.734 Y101.561 E2.33006
G1 X114.576 Y101.561 E2.34446
G1 X114.394 Y101.743 E2.36783
G1 X113.799 Y101.743 E2.42195
G1 X113.799 Y101.440 E2.44953
G1 X113.665 Y101.003 F7800.000
G1 X114.267 Y102.184 F7800.000
G1 F1800
G1 X113.812 Y102.184 E2.45657
G1 X112.995 Y101.003 F7800.000
G1 F1800
G1 X112.995 Y100.367 E2.46643
G1 E0.46643 F2400.00000
G92 E0
G1 X115.151 Y98.649 F7800.000
G1 E2.00000 F2400.00000
G1 F1800
G1 X115.151 Y97.666 E2.08941
G1 X114.969 Y97.666 E2.10594
G1 X114.969 Y97.484 E2.12246
G1 X114.787 Y97.484 E2.13898
G1 X114.787 Y96.864 E2.19535
G1 X114.943 Y96.708 E2.21538
G1 X116.910 Y96.708 E2.39421
G1 X116.471 Y97.147 E2.45056
G1 X116.471 Y97.328 E2.46708
G1 X115.193 Y98.607 E2.63147
G1 X116.420 Y98.264 F7800.000
G1 F1800
G1 X116.915 Y98.264 E2.67647
G1 X116.915 Y98.654 E2.71195
G1 X116.756 Y98.654 E2.72635
G1 X116.369 Y99.041 E2.77608
G1 X116.369 Y99.199 E2.79049
G1 X115.666 Y99.199 E2.85445
G1 X115.484 Y99.381 E2.87782
G1 X115.121 Y99.381 E2.91086
G1 X113.849 Y100.653 E3.07442
G1 X113.435 Y100.653 E3.11201
G1 X113.435 Y100.239 E3.14961
G1 X113.617 Y100.057 E3.17298
G1 X113.617 Y99.694 E3.20602
G1 X113.776 Y99.536 E3.22639
G1 X114.139 Y99.536 E3.25943
G1 X114.526 Y99.149 E3.30917
G1 X114.526 Y98.291 E3.38721
G1 X114.344 Y98.291 E3.40373
G1 X114.344 Y98.109 E3.42026
G1 X114.162 Y98.109 E3.43678
G1 X114.162 Y97.746 E3.46982
G1 X113.981 Y97.746 E3.48634
G1 X113.981 Y97.564 E3.50287
G1 X113.799 Y97.564 E3.51939
G1 X113.799 Y97.200 E3.55244
G1 X113.617 Y97.200 E3.56896
G1 X113.617 Y96.787 E3.60655
G1 X113.776 Y96.629 E3.62692
G1 X113.957 Y96.629 E3.64344
G1 X114.321 Y96.265 E3.69016
G1 X114.502 Y96.265 E3.70669
G1 X114.684 Y96.083 E3.73005
G1 X115.411 Y96.083 E3.79614
G1 X115.774 Y95.720 E3.84287
G1 X115.956 Y95.720 E3.85939
G1 X116.138 Y95.538 E3.88276
G1 X116.683 Y95.538 E3.93232
G1 X116.864 Y95.357 E3.95569
G1 X117.641 Y95.357 E4.02633
G1 X117.641 Y95.770 E4.06393
G1 X117.328 Y96.083 E4.10422
G1 X117.873 Y96.083 E4.15378
G1 X117.278 Y96.679 E4.23032
G1 X117.278 Y97.224 E4.27989
G1 X117.096 Y97.405 E4.30326
G1 X117.096 Y97.587 E4.31978
G1 X116.462 Y98.221 E4.40134
G1 X116.331 Y98.654 F7800.000
G1 X116.237 Y98.731 F7800.000
G1 F1800
G1 X115.510 Y98.731 E4.42622
G1 X115.894 Y98.576 F7800.000
G1 F1800
G1 X115.491 Y98.841 E4.43151
G1 X115.264 Y99.068 E4.43504
G1 X115.531 Y97.826 F7800.000
G1 F1800
G1 X115.711 Y97.280 E4.46922
G1 X115.587 Y97.233 E4.47709
G1 F1800
G1 X115.463 Y97.187 E4.48385
G1 F1800
G1 X115.394 Y97.153 E4.48673
G1 F1800
G1 X115.319 Y97.115 E4.48904
G1 F1800
G1 X115.281 Y97.096 E4.48974
G1 X115.100 Y97.096 E4.49273
G1 X114.541 Y96.578 F7800.000
G1 F1800
G1 X114.429 Y96.689 E4.49396
G1 X114.111 Y97.173 E4.49846
G1 X115.722 Y96.214 F7800.000
G1 F1800
G1 X116.085 Y96.214 E4.51371
G1 F1800
G1 X116.930 Y96.039 E4.55773
G1 X117.147 Y95.669 F7800.000
G1 F1800
G1 X116.889 Y95.927 E4.56527
G1 X116.176 Y96.396 E4.58287
G1 E2.58287 F2400.00000
G92 E0
G1 X114.138 Y101.002 F7800.000
G1 E2.00000 F2400.00000
G1 F1800
G1 X114.017 Y101.008 E2.00267
G1 X114.138 Y101.002 F7800.000
G1 F1800
G1 X114.259 Y100.997 E2.00680
G1 X114.267 Y101.429 E2.02157
G1 E0.02157 F2400.00000
G92 E0
G1 X115.483 Y85.593 F7800.000
G1 E2.00000 F2400.00000
G1 F1800
G1 X115.483 Y85.957 E2.03316
G1 X115.049 Y85.957 E2.07266
G1 X115.049 Y85.776 E2.08918
G1 X114.322 Y85.776 E2.15527
G1 X114.322 Y85.594 E2.17179
G1 X113.958 Y85.594 E2.20482
G1 X113.958 Y85.412 E2.22135
G1 X112.141 Y85.412 E2.38663
G1 X112.141 Y85.231 E2.40315
G1 X111.778 Y85.231 E2.43616
G1 X111.778 Y85.049 E2.45269
G1 X111.596 Y85.049 E2.46915
G1 X111.596 Y83.232 E2.63437
G1 X111.415 Y83.232 E2.65088
G1 X111.415 Y82.869 E2.68392
G1 X111.233 Y82.869 E2.70045
G1 X111.233 Y82.323 E2.75001
G1 X111.051 Y82.323 E2.76653
G1 X111.051 Y81.778 E2.81610
G1 X110.870 Y81.778 E2.83262
G1 X110.870 Y81.233 E2.88218
G1 X110.688 Y81.233 E2.89871
G1 X110.688 Y80.870 E2.93176
G1 X110.506 Y80.870 E2.94828
G1 X110.506 Y80.325 E2.99783
G1 X110.225 Y80.325 E3.02342
G1 X111.568 Y78.982 E3.19610
G1 X111.849 Y78.982 E3.22168
G1 X111.849 Y81.244 E3.42739
G1 X114.293 Y78.800 E3.74169
G1 X114.475 Y78.800 E3.75821
G1 X115.202 Y78.073 E3.85167
G1 X115.383 Y78.073 E3.86819
G1 X115.665 Y77.792 E3.90437
G1 X115.665 Y79.082 E4.02164
G1 X115.038 Y79.709 E4.10225
G1 X115.583 Y79.709 E4.15183
G1 X115.038 Y80.254 E4.22195
G1 X117.118 Y80.254 E4.41111
G1 X117.118 Y82.071 E4.57631
G1 X117.300 Y82.071 E4.59284
G1 X117.300 Y82.252 E4.60936
G1 X117.581 Y82.252 E4.63494
G1 X115.401 Y84.433 E4.91532
G1 X116.937 Y84.433 E5.05496
G1 X116.937 Y84.714 E5.08054
G1 X116.755 Y84.896 E5.10391
G1 X116.755 Y85.078 E5.12043
G1 X116.392 Y85.441 E5.16716
G1 X116.392 Y85.593 E5.18102
G1 X115.543 Y85.593 E5.25817
G1 X116.108 Y86.218 F7800.000
G1 F1800
G1 X116.108 Y87.153 E5.34322
G1 X115.926 Y87.335 E5.36658
G1 X115.926 Y87.517 E5.38310
G1 X115.745 Y87.698 E5.40647
G1 X115.745 Y88.062 E5.43951
G1 X115.332 Y88.474 E5.49252
G1 X115.332 Y86.946 E5.63150
G1 X115.151 Y86.946 E5.64803
G1 X115.151 Y86.582 E5.68107
G1 X114.424 Y86.582 E5.74716
G1 X114.424 Y86.401 E5.76368
G1 X113.697 Y86.401 E5.82977
G1 X113.697 Y86.219 E5.84629
G1 X113.334 Y86.219 E5.87933
G1 X113.334 Y86.037 E5.89585
G1 X111.516 Y86.037 E6.06110
G1 X111.516 Y85.855 E6.07762
G1 X111.153 Y85.855 E6.11065
G1 X111.153 Y85.674 E6.12717
G1 X110.972 Y85.674 E6.14365
G1 X110.971 Y83.857 E6.30887
G1 X110.790 Y83.857 E6.32539
G1 X110.790 Y83.493 E6.35843
G1 X110.608 Y83.493 E6.37495
G1 X110.608 Y82.948 E6.42452
G1 X110.426 Y82.948 E6.44104
G1 X110.426 Y82.403 E6.49060
G1 X110.245 Y82.403 E6.50712
G1 X110.245 Y81.858 E6.55669
G1 X110.063 Y81.858 E6.57321
G1 X110.063 Y81.495 E6.60626
G1 X109.881 Y81.495 E6.62278
G1 X109.881 Y80.950 E6.67234
G1 X109.700 Y80.950 E6.68886
G1 X109.700 Y80.768 E6.70538
G1 X109.518 Y80.768 E6.72190
G1 X109.518 Y80.586 E6.73843
G1 X109.336 Y80.586 E6.75495
G1 X109.336 Y80.405 E6.77147
G1 X109.155 Y80.405 E6.78799
G1 X109.155 Y80.223 E6.80451
G1 X108.791 Y80.223 E6.83756
G1 X108.791 Y79.859 E6.87060
G1 X108.609 Y79.859 E6.88712
G1 X108.609 Y79.678 E6.90364
G1 X108.246 Y79.678 E6.93669
G1 X108.246 Y79.314 E6.96972
