; generated by Slic3r 1.3.0-dev on 2017-08-18 at 21:38:50

; external perimeters extrusion width = 0.40mm (1.14mm^3/s)
; perimeters extrusion width = 0.68mm (3.95mm^3/s)
; infill extrusion width = 1.20mm (9.43mm^3/s)
; solid infill extrusion width = 0.68mm (1.32mm^3/s)
; top infill extrusion width = 0.68mm (0.99mm^3/s)
; support material extrusion width = 0.40mm (2.27mm^3/s)

M107
M190 S66 ; set bed temperature and wait for it to be reached
M104 S215 ; set temperature
G28 ; home all axes
G1 Z5 F5000 ; lift nozzle

; Filament gcode

M109 S215 ; set temperature and wait for it to be reached
G21 ; set units to millimeters
G90 ; use absolute coordinates
M82 ; use absolute distances for extrusion
G92 E0
G1 Z0.350 F7800.000
G1 E-2.00000 F2400.00000
G92 E0
G1 X81.219 Y84.560 F7800.000
G1 E2.00000 F2400.00000
G1 F1800
G1 X83.097 Y83.243 E2.20854
G1 X85.245 Y82.652 E2.41107
G1 X86.697 Y82.507 E2.54379
G1 X87.130 Y82.478 E2.58323
G1 X121.111 Y81.316 E5.67491
G1 X122.208 Y81.312 E5.77471
G1 X124.467 Y81.709 E5.98325
G1 X126.890 Y83.250 E6.24437
G1 X127.036 Y83.395 E6.26306
G1 X127.986 Y84.595 E6.40227
G1 X130.033 Y87.914 E6.75683
G1 X135.841 Y98.370 E7.84443
G1 X137.137 Y100.948 E8.10680
G1 X137.747 Y102.822 E8.28595
G1 X137.941 Y104.051 E8.39908
G1 X138.087 Y105.358 E8.51866
G1 X138.127 Y106.245 E8.59941
G1 X137.929 Y107.841 E8.74567
G1 X137.639 Y109.003 E8.85456
G1 X136.792 Y110.967 E9.04909
G1 X127.498 Y125.489 E10.61683
G1 X126.602 Y126.602 E10.74675
G1 X126.457 Y126.748 E10.76542
G1 X124.579 Y128.064 E10.97396
G1 X121.773 Y128.688 E11.23539
G1 X119.304 Y128.688 E11.45986
G1 X78.791 Y127.815 E15.14460
G1 X76.541 Y127.370 E15.35314
G1 X74.578 Y126.184 E15.56168
G1 X73.137 Y124.399 E15.77022
G1 X72.318 Y121.540 E16.04067
G1 X71.873 Y112.914 E16.82604
G1 X71.873 Y112.624 E16.85245
G1 X72.118 Y110.838 E17.01640
G1 X78.217 Y89.055 E19.07327
G1 X79.297 Y86.866 E19.29518
G1 X79.943 Y86.019 E19.39205
G1 X80.669 Y85.148 E19.49519
G1 X81.177 Y84.602 E19.56297
G1 E17.56297 F2400.00000
G92 E0
G1 X121.916 Y112.186 F7800.000
G1 E2.00000 F2400.00000
G1 F1800
G1 X121.916 Y113.414 E2.11162
G1 X121.770 Y113.559 E2.13030
G1 X121.770 Y113.994 E2.16991
G1 X121.627 Y114.138 E2.18839
G1 X121.626 Y114.575 E2.22811
G1 X121.193 Y115.009 E2.28386
G1 X121.192 Y115.155 E2.29715
G1 X121.044 Y115.304 E2.31621
G1 X121.044 Y115.737 E2.35557
G1 X120.899 Y115.882 E2.37423
G1 X120.899 Y116.463 E2.42707
G1 X120.754 Y116.608 E2.44575
G1 X120.754 Y118.866 E2.65107
G1 X120.463 Y118.866 E2.67748
G1 X120.463 Y120.318 E2.80948
G1 X117.854 Y120.318 E3.04672
G1 X117.854 Y120.173 E3.05992
G1 X114.513 Y120.173 E3.36371
G1 X114.513 Y120.028 E3.37692
G1 X110.594 Y120.028 E3.73330
G1 X110.594 Y119.883 E3.74650
G1 X107.108 Y119.883 E4.06348
G1 X107.108 Y119.737 E4.07669
G1 X100.282 Y119.737 E4.69734
G1 X100.282 Y119.592 E4.71055
G1 X88.374 Y119.592 E5.79335
G1 X88.374 Y119.447 E5.80656
G1 X81.550 Y119.447 E6.42711
G1 X81.550 Y117.934 E6.56470
G1 X81.695 Y117.788 E6.58338
G1 X81.695 Y117.643 E6.59659
G1 X84.103 Y115.236 E6.90620
G1 X82.505 Y115.236 E7.05145
G1 X83.667 Y114.074 E7.20084
G1 X82.069 Y114.074 E7.34609
G1 X83.376 Y112.767 E7.51416
G1 X80.969 Y112.767 E7.73309
G1 X80.969 Y112.270 E7.77826
G1 X81.259 Y111.980 E7.81561
G1 X81.259 Y111.689 E7.84202
G1 X83.667 Y109.282 E8.15162
G1 X82.276 Y109.282 E8.27811
G1 X82.276 Y108.494 E8.34968
G1 X82.566 Y108.204 E8.38703
G1 X82.566 Y107.544 E8.44707
G1 X83.147 Y107.544 E8.49989
G1 X83.147 Y106.237 E8.61873
G1 X83.728 Y106.237 E8.67155
G1 X83.728 Y105.946 E8.69796
G1 X84.309 Y105.946 E8.75078
G1 X84.309 Y104.204 E8.90923
G1 X84.744 Y104.204 E8.94885
G1 X84.744 Y102.105 E9.13970
G1 X87.007 Y99.842 E9.43062
G1 X85.906 Y99.842 E9.53070
G1 X85.906 Y98.831 E9.62271
G1 X86.342 Y98.831 E9.66232
G1 X86.342 Y97.378 E9.79437
G1 X86.632 Y97.378 E9.82078
G1 X86.632 Y93.537 E10.17008
G1 X89.471 Y90.698 E10.53510
G1 X91.275 Y90.698 E10.69911
G1 X91.275 Y90.844 E10.71231
G1 X93.681 Y90.844 E10.93110
G1 X93.826 Y90.698 E10.94980
G1 X97.083 Y90.698 E11.24592
G1 X97.083 Y90.844 E11.25913
G1 X99.407 Y90.844 E11.47043
G1 X99.407 Y90.989 E11.48363
G1 X105.070 Y90.989 E11.99860
G1 X105.070 Y91.134 E12.01180
G1 X106.668 Y91.134 E12.15707
G1 X106.668 Y91.279 E12.17027
G1 X110.298 Y91.279 E12.50039
G1 X110.298 Y91.425 E12.51359
G1 X112.186 Y91.425 E12.68524
G1 X112.186 Y91.570 E12.69845
G1 X113.493 Y91.570 E12.81730
G1 X113.493 Y91.715 E12.83050
G1 X116.397 Y91.715 E13.09460
G1 X116.397 Y91.860 E13.10780
G1 X119.966 Y91.860 E13.43229
G1 X120.257 Y91.570 E13.46967
G1 X120.609 Y91.570 E13.50166
G1 X120.609 Y92.005 E13.54128
G1 X120.899 Y92.005 E13.56769
G1 X120.899 Y92.151 E13.58089
G1 X121.044 Y92.151 E13.59410
G1 X121.044 Y92.296 E13.60730
G1 X121.480 Y92.296 E13.64691
G1 X121.480 Y92.441 E13.66012
G1 X122.351 Y92.441 E13.73935
G1 X122.351 Y92.586 E13.75255
G1 X122.496 Y92.586 E13.76576
G1 X122.496 Y92.732 E13.77896
G1 X122.642 Y92.732 E13.79217
G1 X122.642 Y93.228 E13.83733
G1 X120.815 Y95.055 E14.07225
G1 X123.284 Y95.055 E14.29674
G1 X121.541 Y96.798 E14.52083
G1 X122.412 Y96.798 E14.60005
G1 X120.089 Y99.121 E14.89886
G1 X122.496 Y99.121 E15.11781
G1 X122.496 Y99.557 E15.15741
G1 X122.642 Y99.557 E15.17062
G1 X122.642 Y100.573 E15.26305
G1 X122.787 Y100.573 E15.27625
G1 X122.787 Y101.009 E15.31586
G1 X123.077 Y101.009 E15.34227
G1 X123.077 Y101.154 E15.35548
G1 X124.094 Y101.154 E15.44792
G1 X124.094 Y101.299 E15.46112
G1 X124.239 Y101.299 E15.47432
G1 X124.239 Y101.445 E15.48753
G1 X125.691 Y101.445 E15.61957
G1 X125.691 Y101.590 E15.63278
G1 X126.127 Y101.590 E15.67239
G1 X126.127 Y101.868 E15.69766
G1 X126.271 Y101.869 E15.71081
G1 X126.271 Y102.025 E15.72505
G1 X126.417 Y102.025 E15.73831
G1 X126.417 Y102.171 E15.75152
G1 X126.708 Y102.171 E15.77794
G1 X126.708 Y102.461 E15.80435
G1 X127.724 Y102.461 E15.89677
G1 X127.724 Y102.752 E15.92317
G1 X127.869 Y102.752 E15.93638
G1 X127.869 Y102.897 E15.94958
G1 X128.160 Y102.897 E15.97599
G1 X128.160 Y103.042 E15.98920
G1 X128.305 Y103.042 E16.00240
G1 X128.305 Y103.187 E16.01560
G1 X128.450 Y103.187 E16.02880
G1 X128.450 Y104.203 E16.12114
G1 X128.596 Y104.203 E16.13435
G1 X128.596 Y104.930 E16.20046
G1 X128.741 Y104.930 E16.21367
G1 X128.741 Y105.075 E16.22687
G1 X128.886 Y105.075 E16.24008
G1 X128.886 Y105.220 E16.25328
G1 X129.176 Y105.220 E16.27969
G1 X129.176 Y105.365 E16.29290
G1 X129.322 Y105.365 E16.30610
G1 X129.322 Y105.511 E16.31931
G1 X129.612 Y105.511 E16.34572
G1 X129.612 Y106.153 E16.40408
G1 X128.952 Y106.813 E16.48900
G1 X128.661 Y106.813 E16.51540
G1 X127.579 Y107.895 E16.65458
G1 X127.579 Y108.041 E16.66779
G1 X127.289 Y108.331 E16.70514
G1 X127.289 Y108.991 E16.76517
G1 X127.064 Y108.991 E16.78559
G1 X126.628 Y109.427 E16.84165
G1 X126.483 Y109.427 E16.85486
G1 X125.401 Y110.509 E16.99400
G1 X125.401 Y111.090 E17.04684
G1 X125.255 Y111.236 E17.06552
G1 X125.256 Y111.460 E17.08592
G1 X124.596 Y111.460 E17.14586
G1 X124.451 Y111.605 E17.16455
G1 X124.015 Y111.605 E17.20422
G1 X123.869 Y111.750 E17.22290
G1 X123.579 Y111.750 E17.24931
G1 X123.288 Y112.041 E17.28668
G1 X123.143 Y112.041 E17.29988
G1 X122.998 Y112.186 E17.31854
G1 X121.976 Y112.186 E17.41151
G1 X122.540 Y112.811 F7800.000
G1 F1800
G1 X122.540 Y113.672 E17.48984
G1 X122.395 Y113.818 E17.50852
G1 X122.395 Y114.253 E17.54813
G1 X122.251 Y114.398 E17.56669
G1 X122.250 Y114.834 E17.60635
G1 X121.816 Y115.269 E17.66219
G1 X121.816 Y115.414 E17.67545
G1 X121.669 Y115.562 E17.69434
G1 X121.669 Y115.996 E17.73380
G1 X121.524 Y116.141 E17.75246
G1 X121.524 Y116.722 E17.80530
G1 X121.379 Y116.867 E17.82397
G1 X121.379 Y118.972 E18.01537
G1 X121.524 Y118.972 E18.02857
G1 X121.524 Y119.491 E18.07577
G1 X121.088 Y119.491 E18.11538
G1 X121.088 Y120.643 E18.22011
G1 X120.798 Y120.933 E18.25746
G1 X120.798 Y121.088 E18.27156
G1 X120.276 Y121.088 E18.31904
G1 X120.275 Y120.943 E18.33225
G1 X117.229 Y120.943 E18.60920
G1 X117.229 Y120.798 E18.62240
G1 X113.889 Y120.798 E18.92616
G1 X113.889 Y120.653 E18.93936
G1 X109.969 Y120.653 E19.29580
G1 X109.969 Y120.507 E19.30900
G1 X106.483 Y120.507 E19.62596
G1 X106.483 Y120.362 E19.63917
G1 X99.658 Y120.362 E20.25980
G1 X99.658 Y120.217 E20.27301
G1 X87.750 Y120.217 E21.35580
G1 X87.750 Y120.072 E21.36901
G1 X80.489 Y120.072 E22.02919
G1 X80.489 Y118.827 E22.14240
G1 X80.925 Y118.827 E22.18200
G1 X80.925 Y117.675 E22.28674
G1 X81.070 Y117.530 E22.30542
G1 X81.070 Y117.384 E22.31863
G1 X82.594 Y115.860 E22.51459
G1 X80.997 Y115.860 E22.65984
G1 X82.158 Y114.699 E22.80924
G1 X80.561 Y114.699 E22.95449
G1 X81.868 Y113.392 E23.12255
G1 X80.344 Y113.392 E23.26113
G1 X80.344 Y112.956 E23.30074
G1 X80.199 Y112.956 E23.31394
G1 X80.199 Y112.302 E23.37344
G1 X80.344 Y112.157 E23.39211
G1 X80.344 Y112.011 E23.40532
G1 X80.634 Y111.721 E23.44267
G1 X80.634 Y111.430 E23.46908
G1 X82.158 Y109.906 E23.66504
G1 X81.651 Y109.906 E23.71117
G1 X81.651 Y108.236 E23.86311
G1 X81.941 Y107.945 E23.90045
G1 X81.941 Y106.919 E23.99378
G1 X82.522 Y106.919 E24.04660
G1 X82.522 Y105.612 E24.16544
G1 X83.103 Y105.612 E24.21826
G1 X83.103 Y105.321 E24.24466
G1 X83.684 Y105.321 E24.29748
G1 X83.684 Y103.579 E24.45594
G1 X84.120 Y103.579 E24.49555
G1 X84.120 Y101.846 E24.65312
G1 X85.498 Y100.467 E24.83041
G1 X84.700 Y100.467 E24.90295
G1 X84.700 Y99.658 E24.97655
G1 X85.281 Y99.658 E25.02937
G1 X85.281 Y98.206 E25.16141
G1 X85.717 Y98.206 E25.20102
G1 X85.717 Y96.754 E25.33307
G1 X86.007 Y96.754 E25.35948
G1 X86.007 Y94.659 E25.54998
G1 X85.862 Y94.659 E25.56318
G1 X85.862 Y94.149 E25.60948
G1 X86.007 Y94.004 E25.62815
G1 X86.007 Y93.278 E25.69417
G1 X87.677 Y91.609 E25.90882
G1 X86.370 Y91.609 E26.02766
G1 X87.905 Y90.074 E26.22511
G1 X91.899 Y90.074 E26.58832
G1 X91.899 Y90.219 E26.60152
G1 X93.422 Y90.219 E26.74001
G1 X93.568 Y90.074 E26.75871
G1 X97.708 Y90.074 E27.13514
G1 X97.708 Y90.219 E27.14834
G1 X100.032 Y90.219 E27.35964
G1 X100.032 Y90.364 E27.37285
G1 X105.695 Y90.364 E27.88781
G1 X105.695 Y90.509 E27.90102
G1 X107.292 Y90.509 E28.04628
G1 X107.292 Y90.654 E28.05948
G1 X110.923 Y90.654 E28.38960
G1 X110.923 Y90.800 E28.40281
G1 X112.811 Y90.800 E28.57446
G1 X112.811 Y90.945 E28.58766
G1 X114.118 Y90.945 E28.70651
G1 X114.118 Y91.090 E28.71971
G1 X117.022 Y91.090 E28.98381
G1 X117.022 Y91.235 E28.99701
G1 X119.707 Y91.235 E29.24117
G1 X120.289 Y90.654 E29.31592
G1 X120.943 Y90.654 E29.37540
G1 X120.943 Y90.945 E29.40181
G1 X121.233 Y90.945 E29.42822
G1 X121.233 Y91.381 E29.46783
G1 X121.524 Y91.381 E29.49424
G1 X121.524 Y91.526 E29.50745
G1 X121.669 Y91.526 E29.52065
G1 X121.669 Y91.671 E29.53386
G1 X122.105 Y91.671 E29.57347
G1 X122.105 Y91.816 E29.58667
G1 X122.976 Y91.816 E29.66590
G1 X122.976 Y91.961 E29.67911
G1 X123.121 Y91.961 E29.69231
G1 X123.121 Y92.107 E29.70552
G1 X123.266 Y92.107 E29.71872
G1 X123.266 Y92.977 E29.79791
G1 X123.412 Y92.978 E29.81111
G1 X123.412 Y93.342 E29.84423
G1 X122.323 Y94.430 E29.98418
G1 X123.993 Y94.430 E30.13596
G1 X123.993 Y94.721 E30.16237
G1 X124.138 Y94.721 E30.17558
G1 X124.138 Y95.084 E30.20867
G1 X123.050 Y96.173 E30.34861
G1 X123.557 Y96.173 E30.39474
G1 X123.557 Y96.537 E30.42783
G1 X121.597 Y98.496 E30.67984
G1 X123.121 Y98.496 E30.81841
G1 X123.121 Y98.932 E30.85802
G1 X123.266 Y98.932 E30.87123
G1 X123.266 Y99.948 E30.96366
G1 X123.412 Y99.948 E30.97686
G1 X123.412 Y100.384 E31.01647
G1 X123.702 Y100.384 E31.04288
G1 X123.702 Y100.529 E31.05609
G1 X124.719 Y100.529 E31.14853
G1 X124.719 Y100.674 E31.16173
G1 X124.864 Y100.674 E31.17493
G1 X124.864 Y100.820 E31.18814
G1 X126.316 Y100.820 E31.32018
G1 X126.316 Y100.965 E31.33339
G1 X126.752 Y100.965 E31.37300
G1 X126.752 Y101.248 E31.39872
G1 X126.896 Y101.249 E31.41186
G1 X126.896 Y101.401 E31.42566
G1 X127.042 Y101.401 E31.43892
G1 X127.042 Y101.546 E31.45213
G1 X127.333 Y101.546 E31.47855
G1 X127.333 Y101.836 E31.50496
G1 X128.349 Y101.836 E31.59738
G1 X128.349 Y102.127 E31.62379
G1 X128.494 Y102.127 E31.63699
G1 X128.494 Y102.272 E31.65020
G1 X128.785 Y102.272 E31.67661
G1 X128.785 Y102.417 E31.68981
G1 X128.930 Y102.417 E31.70301
G1 X128.930 Y102.562 E31.71621
G1 X129.075 Y102.562 E31.72942
G1 X129.075 Y103.578 E31.82179
G1 X129.220 Y103.578 E31.83499
G1 X129.220 Y104.305 E31.90108
G1 X129.366 Y104.305 E31.91428
G1 X129.366 Y104.450 E31.92748
G1 X129.511 Y104.450 E31.94069
G1 X129.511 Y104.595 E31.95389
G1 X129.801 Y104.595 E31.98030
G1 X129.801 Y104.741 E31.99351
G1 X129.947 Y104.741 E32.00671
G1 X129.947 Y104.886 E32.01992
G1 X130.237 Y104.886 E32.04633
G1 X130.237 Y106.411 E32.18505
G1 X129.210 Y107.438 E32.31704
G1 X128.920 Y107.438 E32.34344
G1 X128.204 Y108.154 E32.43555
G1 X128.204 Y108.299 E32.44876
G1 X127.913 Y108.590 E32.48611
G1 X127.913 Y109.316 E32.55212
G1 X127.757 Y109.472 E32.57223
G1 X127.611 Y109.473 E32.58551
G1 X127.468 Y109.616 E32.60391
G1 X127.323 Y109.616 E32.61711
G1 X126.887 Y110.052 E32.67315
G1 X126.742 Y110.052 E32.68636
G1 X126.026 Y110.768 E32.77844
G1 X126.026 Y111.349 E32.83127
G1 X125.880 Y111.494 E32.84996
G1 X125.880 Y111.639 E32.86315
G1 X125.435 Y112.085 E32.92044
G1 X124.855 Y112.085 E32.97318
G1 X124.709 Y112.230 E32.99188
G1 X124.273 Y112.230 E33.03151
G1 X124.128 Y112.375 E33.05019
G1 X123.838 Y112.375 E33.07660
G1 X123.547 Y112.666 E33.11396
G1 X123.402 Y112.666 E33.12716
G1 X123.257 Y112.811 E33.14583
G1 X122.600 Y112.811 E33.20551
G1 X123.165 Y113.436 F7800.000
G1 F1800
G1 X123.165 Y113.931 E33.25056
G1 X123.020 Y114.076 E33.26923
G1 X123.020 Y114.512 E33.30885
G1 X122.875 Y114.657 E33.32748
G1 X122.874 Y115.093 E33.36708
G1 X122.440 Y115.528 E33.42302
G1 X122.439 Y115.674 E33.43624
G1 X122.294 Y115.820 E33.45496
G1 X122.294 Y116.255 E33.49452
G1 X122.149 Y116.400 E33.51319
G1 X122.149 Y116.981 E33.56602
G1 X122.004 Y117.126 E33.58469
G1 X122.004 Y118.347 E33.69573
G1 X122.149 Y118.347 E33.70893
G1 X122.149 Y118.492 E33.72214
G1 X122.294 Y118.492 E33.73534
G1 X122.294 Y118.928 E33.77496
G1 X122.439 Y118.928 E33.78816
G1 X122.439 Y119.073 E33.80137
G1 X122.584 Y119.073 E33.81457
G1 X122.584 Y119.218 E33.82777
G1 X122.961 Y119.218 E33.86199
G1 X122.585 Y119.594 E33.91033
G1 X122.584 Y119.825 E33.93134
G1 X122.354 Y119.825 E33.95229
G1 X122.063 Y120.116 E33.98964
G1 X121.713 Y120.116 E34.02149
G1 X121.713 Y120.902 E34.09294
G1 X121.423 Y121.192 E34.13029
G1 X121.423 Y121.713 E34.17767
G1 X119.653 Y121.713 E34.33860
G1 X119.652 Y121.568 E34.35181
G1 X116.604 Y121.568 E34.62896
G1 X116.604 Y121.423 E34.64216
G1 X113.264 Y121.423 E34.94588
G1 X113.264 Y121.278 E34.95909
G1 X109.344 Y121.277 E35.31558
G1 X109.344 Y121.132 E35.32878
G1 X105.858 Y121.132 E35.64572
G1 X105.858 Y120.987 E35.65892
G1 X99.033 Y120.987 E36.27955
G1 X99.033 Y120.842 E36.29275
G1 X87.125 Y120.842 E37.37553
G1 X87.125 Y120.697 E37.38874
G1 X86.341 Y120.697 E37.46002
G1 X80.966 Y120.697 E37.94872
G1 X80.821 Y120.842 E37.96738
G1 X79.429 Y120.842 E38.09403
G1 X79.429 Y120.466 E38.12825
G1 X79.574 Y120.320 E38.14692
G1 X79.574 Y120.175 E38.16013
G1 X79.864 Y119.884 E38.19749
G1 X79.864 Y118.202 E38.35049
G1 X80.300 Y118.202 E38.39008
G1 X80.300 Y117.416 E38.46154
G1 X80.445 Y117.271 E38.48022
G1 X80.445 Y117.126 E38.49342
G1 X81.085 Y116.485 E38.57575
G1 X80.445 Y116.485 E38.63395
G1 X80.445 Y115.904 E38.68677
G1 X80.069 Y115.904 E38.72100
G1 X80.650 Y115.324 E38.79570
G1 X80.009 Y115.324 E38.85391
G1 X80.009 Y114.743 E38.90673
G1 X79.633 Y114.743 E38.94095
G1 X80.359 Y114.017 E39.03432
G1 X79.719 Y114.017 E39.09253
G1 X79.719 Y113.581 E39.13215
G1 X79.574 Y113.581 E39.14535
G1 X79.574 Y113.436 E39.15855
G1 X79.429 Y113.436 E39.17176
G1 X79.429 Y113.291 E39.18496
G1 X79.283 Y113.291 E39.19817
G1 X79.283 Y113.000 E39.22458
G1 X78.993 Y113.000 E39.25099
G1 X78.993 Y112.393 E39.30618
G1 X79.574 Y112.393 E39.35899
G1 X79.574 Y112.043 E39.39084
G1 X79.719 Y111.898 E39.40951
G1 X79.719 Y111.752 E39.42272
G1 X80.009 Y111.462 E39.46007
G1 X80.009 Y111.172 E39.48648
G1 X80.650 Y110.531 E39.56880
G1 X80.359 Y110.531 E39.59521
G1 X81.026 Y109.865 E39.68095
G1 X81.026 Y109.079 E39.75236
G1 X80.881 Y109.079 E39.76557
G1 X80.881 Y108.934 E39.77877
G1 X80.736 Y108.934 E39.79198
