; generated by Slic3r 1.3.0-dev on 2017-08-18 at 21:42:49

; external perimeters extrusion width = 0.40mm (1.14mm^3/s)
; perimeters extrusion width = 0.68mm (3.95mm^3/s)
; infill extrusion width = 1.20mm (9.43mm^3/s)
; solid infill extrusion width = 0.68mm (1.32mm^3/s)
; top infill extrusion width = 0.68mm (0.99mm^3/s)
; support material extrusion width = 0.40mm (2.27mm^3/s)

M107
M190 S66 ; set bed temperature and wait for it to be reached
M104 S215 ; set temperature
G28 ; home all axes
G1 Z5 F5000 ; lift nozzle

; Filament gcode

M109 S215 ; set temperature and wait for it to be reached
G21 ; set units to millimeters
G90 ; use absolute coordinates
M82 ; use absolute distances for extrusion
G92 E0
G1 Z0.350 F7800.000
G1 E-2.00000 F2400.00000
G92 E0
G1 X102.425 Y71.222 F7800.000
G1 E2.00000 F2400.00000
G1 F1800
G1 X103.005 Y70.559 E2.08010
G1 X103.174 Y70.390 E2.10183
G1 X104.449 Y69.395 E2.24893
G1 X105.290 Y68.891 E2.33806
G1 X107.431 Y68.069 E2.54660
G1 X108.698 Y67.947 E2.66237
G1 X110.043 Y67.947 E2.78467
G1 X111.604 Y68.133 E2.92760
G1 X117.152 Y69.478 E3.44666
G1 X118.554 Y69.991 E3.58239
G1 X118.890 Y70.159 E3.61657
G1 X120.733 Y71.524 E3.82512
G1 X121.500 Y72.502 E3.93813
G1 X124.526 Y77.209 E4.44697
G1 X125.371 Y79.148 E4.63929
G1 X128.902 Y92.933 E5.93323
G1 X129.109 Y94.577 E6.08386
G1 X129.109 Y95.418 E6.16029
G1 X129.077 Y96.065 E6.21928
G1 X126.050 Y126.841 E9.03123
G1 X125.848 Y128.296 E9.16475
G1 X125.476 Y129.728 E9.29932
G1 X122.450 Y137.630 E10.06867
G1 X120.946 Y139.947 E10.31984
G1 X120.778 Y140.115 E10.34147
G1 X118.900 Y141.431 E10.55001
G1 X116.095 Y142.053 E10.81121
G1 X114.146 Y142.039 E10.98846
G1 X96.326 Y140.862 E12.61236
G1 X92.604 Y140.510 E12.95230
G1 X90.393 Y139.901 E13.16084
G1 X88.549 Y138.602 E13.36594
G1 X88.381 Y138.434 E13.38757
G1 X87.064 Y136.556 E13.59611
G1 X86.605 Y135.222 E13.72438
G1 X81.730 Y113.872 E15.71573
G1 X81.049 Y110.808 E16.00111
G1 X80.891 Y109.371 E16.13257
G1 X80.891 Y107.354 E16.31601
G1 X81.020 Y106.054 E16.43473
G1 X81.293 Y104.770 E16.55413
G1 X81.797 Y102.921 E16.72842
G1 X82.263 Y101.701 E16.84714
G1 X82.936 Y100.356 E16.98387
G1 X83.180 Y99.910 E17.03010
G1 X92.763 Y83.940 E18.72365
G1 X93.179 Y83.327 E18.79103
G1 X102.389 Y71.270 E20.17059
G1 E18.17059 F2400.00000
G92 E0
G1 X119.539 Y102.901 F7800.000
G1 E2.00000 F2400.00000
G1 F1800
G1 X119.875 Y102.901 E2.03058
G1 X119.875 Y103.329 E2.06944
G1 X119.707 Y103.497 E2.09106
G1 X119.707 Y105.010 E2.22866
G1 X119.539 Y105.178 E2.25029
G1 X119.539 Y106.859 E2.40314
G1 X119.371 Y107.027 E2.42477
G1 X119.371 Y108.709 E2.57764
G1 X119.203 Y108.877 E2.59928
G1 X119.203 Y110.390 E2.73680
G1 X119.035 Y110.558 E2.75842
G1 X119.035 Y112.239 E2.91127
G1 X118.867 Y112.407 E2.93289
G1 X118.867 Y114.760 E3.14690
G1 X118.698 Y114.928 E3.16852
G1 X118.698 Y116.610 E3.32138
G1 X118.530 Y116.778 E3.34300
G1 X118.530 Y118.459 E3.49587
G1 X118.362 Y118.627 E3.51749
G1 X118.362 Y119.467 E3.59390
G1 X118.194 Y119.635 E3.61552
G1 X118.194 Y121.317 E3.76842
G1 X118.026 Y121.485 E3.79005
G1 X118.026 Y123.838 E4.00402
G1 X117.858 Y124.007 E4.02564
G1 X117.858 Y125.520 E4.16322
G1 X117.690 Y125.688 E4.18484
G1 X117.690 Y126.696 E4.27655
G1 X117.185 Y127.201 E4.34141
G1 X117.185 Y127.369 E4.35670
G1 X116.849 Y127.705 E4.39993
G1 X116.849 Y128.209 E4.44579
G1 X116.681 Y128.377 E4.46741
G1 X116.681 Y128.714 E4.49798
G1 X116.513 Y128.882 E4.51960
G1 X116.513 Y129.050 E4.53489
G1 X116.345 Y129.218 E4.55650
G1 X116.345 Y129.386 E4.57179
G1 X116.177 Y129.554 E4.59341
G1 X116.177 Y130.059 E4.63927
G1 X115.504 Y130.731 E4.72577
G1 X115.504 Y130.899 E4.74105
G1 X115.168 Y131.235 E4.78427
G1 X115.168 Y131.404 E4.79956
G1 X114.832 Y131.740 E4.84279
G1 X114.832 Y131.908 E4.85808
G1 X114.664 Y132.076 E4.87970
G1 X114.664 Y132.917 E4.95613
G1 X114.088 Y133.492 E5.03018
G1 X112.145 Y133.492 E5.20683
G1 X112.145 Y133.324 E5.22211
G1 X110.129 Y133.324 E5.40542
G1 X110.129 Y133.156 E5.42071
G1 X107.945 Y133.156 E5.61931
G1 X107.945 Y132.988 E5.63460
G1 X105.759 Y132.988 E5.83333
G1 X105.759 Y132.820 E5.84862
G1 X102.058 Y132.820 E6.18514
G1 X102.058 Y132.652 E6.20043
G1 X98.362 Y132.652 E6.53652
G1 X98.362 Y132.484 E6.55180
G1 X97.015 Y132.484 E6.67422
G1 X97.015 Y132.059 E6.71287
G1 X97.257 Y131.817 E6.74400
G1 X98.530 Y131.817 E6.85978
G1 X98.530 Y130.880 E6.94499
G1 X99.035 Y130.375 E7.00985
G1 X99.035 Y129.535 E7.08628
G1 X99.203 Y129.367 E7.10790
G1 X99.203 Y125.927 E7.42063
G1 X99.035 Y125.927 E7.43591
G1 X99.035 Y124.919 E7.52763
G1 X98.867 Y124.919 E7.54292
G1 X98.867 Y124.751 E7.55821
G1 X98.531 Y124.751 E7.58875
G1 X98.531 Y124.582 E7.60403
G1 X98.362 Y124.582 E7.61935
G1 X98.362 Y124.414 E7.63464
G1 X98.194 Y124.414 E7.64993
G1 X98.194 Y124.246 E7.66521
G1 X98.026 Y124.246 E7.68050
G1 X98.026 Y123.574 E7.74166
G1 X97.858 Y123.574 E7.75694
G1 X97.858 Y122.397 E7.86391
G1 X97.522 Y122.397 E7.89449
G1 X97.522 Y122.229 E7.90980
G1 X97.354 Y122.229 E7.92508
G1 X97.354 Y122.061 E7.94037
G1 X97.185 Y122.061 E7.95566
G1 X97.185 Y121.893 E7.97094
G1 X97.017 Y121.893 E7.98623
G1 X97.017 Y121.724 E8.00151
G1 X96.513 Y121.724 E8.04736
G1 X96.513 Y119.294 E8.26841
G1 X94.923 Y120.884 E8.47292
G1 X94.494 Y120.884 E8.51194
G1 X94.494 Y120.716 E8.52723
G1 X93.487 Y120.716 E8.61878
G1 X93.487 Y120.548 E8.63406
G1 X93.318 Y120.548 E8.64941
G1 X93.318 Y120.379 E8.66472
G1 X92.051 Y120.380 E8.77993
G1 X92.983 Y119.448 E8.89974
G1 X92.983 Y119.280 E8.91503
G1 X93.319 Y118.944 E8.95826
G1 X93.319 Y115.168 E9.30156
G1 X93.151 Y115.168 E9.31685
G1 X93.151 Y114.741 E9.35571
G1 X94.573 Y113.319 E9.53855
G1 X92.142 Y113.319 E9.75956
G1 X92.142 Y112.142 E9.86657
G1 X91.974 Y112.142 E9.88186
G1 X91.974 Y111.974 E9.89714
G1 X91.638 Y111.974 E9.92770
G1 X91.638 Y111.806 E9.94298
G1 X91.134 Y111.806 E9.98884
G1 X91.134 Y111.638 E10.00413
G1 X90.461 Y111.638 E10.06529
G1 X90.461 Y111.470 E10.08058
G1 X90.125 Y111.470 E10.11115
G1 X90.125 Y108.857 E10.34874
G1 X91.546 Y107.435 E10.53158
G1 X89.025 Y107.435 E10.76087
G1 X89.452 Y107.008 E10.81583
G1 X89.452 Y106.839 E10.83112
G1 X89.788 Y106.503 E10.87435
G1 X89.788 Y106.335 E10.88964
G1 X89.957 Y106.167 E10.91126
G1 X89.957 Y105.759 E10.94834
G1 X90.461 Y105.759 E10.99420
G1 X90.461 Y104.486 E11.10998
G1 X92.045 Y102.901 E11.31375
G1 X92.983 Y102.901 E11.39896
G1 X92.983 Y102.055 E11.47588
G1 X92.723 Y102.055 E11.49946
G1 X93.222 Y101.556 E11.56363
G1 X93.390 Y101.556 E11.57891
G1 X93.727 Y101.220 E11.62215
G1 X93.895 Y101.220 E11.63743
G1 X94.231 Y100.884 E11.68067
G1 X94.399 Y100.884 E11.69596
G1 X96.177 Y99.106 E11.92458
G1 X96.177 Y98.937 E11.93993
G1 X96.345 Y98.769 E11.96155
G1 X96.345 Y98.266 E12.00731
G1 X96.513 Y98.098 E12.02893
G1 X96.513 Y97.929 E12.04422
G1 X96.681 Y97.761 E12.06584
G1 X96.681 Y97.017 E12.13348
G1 X97.348 Y97.017 E12.19414
G1 X97.348 Y98.943 E12.36929
G1 X99.947 Y96.345 E12.70346
G1 X100.115 Y96.345 E12.71874
G1 X100.283 Y96.177 E12.74036
G1 X100.451 Y96.177 E12.75565
G1 X100.619 Y96.009 E12.77727
G1 X101.724 Y96.009 E12.87777
G1 X101.724 Y92.305 E13.21456
G1 X101.556 Y92.305 E13.22985
G1 X101.556 Y92.137 E13.24513
G1 X101.220 Y92.137 E13.27570
G1 X101.220 Y90.119 E13.45914
G1 X101.052 Y90.119 E13.47443
G1 X101.052 Y89.951 E13.48971
G1 X100.884 Y89.951 E13.50500
G1 X100.884 Y89.615 E13.53557
G1 X100.716 Y89.615 E13.55086
G1 X100.716 Y89.279 E13.58143
G1 X100.548 Y89.279 E13.59672
G1 X100.548 Y88.179 E13.69672
G1 X102.300 Y86.426 E13.92211
G1 X103.742 Y86.426 E14.05318
G1 X103.742 Y85.754 E14.11433
G1 X103.981 Y85.754 E14.13611
G1 X104.486 Y85.249 E14.20097
G1 X104.654 Y85.249 E14.21626
G1 X104.990 Y84.913 E14.25949
G1 X105.158 Y84.913 E14.27478
G1 X106.335 Y83.736 E14.42610
G1 X107.607 Y83.736 E14.54175
G1 X107.608 Y82.295 E14.67278
G1 X110.375 Y79.528 E15.02864
G1 X108.617 Y79.528 E15.18852
G1 X108.617 Y78.693 E15.26446
G1 X109.116 Y78.693 E15.30983
G1 X109.116 Y78.861 E15.32512
G1 X109.452 Y78.861 E15.35569
G1 X109.452 Y79.029 E15.37098
G1 X110.874 Y79.029 E15.50029
G1 X110.965 Y78.938 E15.51198
G1 X110.965 Y81.124 E15.71068
G1 X113.655 Y78.434 E16.05658
G1 X113.655 Y80.375 E16.23307
G1 X113.823 Y80.375 E16.24835
G1 X113.823 Y81.210 E16.32428
G1 X113.991 Y81.210 E16.33958
G1 X113.991 Y81.383 E16.35527
G1 X114.159 Y81.383 E16.37056
G1 X114.159 Y81.551 E16.38584
G1 X115.000 Y81.551 E16.46227
G1 X115.000 Y81.719 E16.47756
G1 X115.168 Y81.719 E16.49284
G1 X115.168 Y81.887 E16.50813
G1 X115.672 Y81.887 E16.55399
G1 X115.672 Y82.055 E16.56928
G1 X116.345 Y82.055 E16.63042
G1 X116.345 Y84.577 E16.85973
G1 X116.772 Y84.577 E16.89859
G1 X114.419 Y86.931 E17.20124
G1 X116.436 Y86.931 E17.38468
G1 X114.755 Y88.612 E17.60087
G1 X117.185 Y88.612 E17.82189
G1 X117.185 Y93.060 E18.22633
G1 X117.690 Y92.555 E18.29119
G1 X117.690 Y93.564 E18.38290
G1 X118.026 Y93.228 E18.42614
G1 X118.026 Y93.564 E18.45670
G1 X119.203 Y92.387 E18.60802
G1 X119.203 Y93.410 E18.70104
G1 X117.613 Y95.000 E18.90552
G1 X120.043 Y95.000 E19.12655
G1 X120.043 Y95.504 E19.17240
G1 X120.212 Y95.504 E19.18769
G1 X120.212 Y96.003 E19.23307
G1 X120.043 Y96.003 E19.24836
G1 X120.043 Y97.613 E19.39471
G1 X119.203 Y98.453 E19.50280
G1 X119.203 Y100.884 E19.72381
G1 X119.371 Y100.884 E19.73909
G1 X119.371 Y101.052 E19.75438
G1 X119.539 Y101.052 E19.76967
G1 X119.539 Y102.841 E19.93236
G1 E17.93236 F2400.00000
G92 E0
G1 X119.828 Y100.259 F7800.000
G1 E2.00000 F2400.00000
G1 F1800
G1 X119.996 Y100.259 E2.01529
G1 X119.996 Y100.427 E2.03057
G1 X120.164 Y100.427 E2.04586
G1 X120.164 Y102.276 E2.21401
G1 X120.500 Y102.276 E2.24458
G1 X120.500 Y103.587 E2.36380
G1 X120.332 Y103.756 E2.38542
G1 X120.332 Y105.269 E2.52301
G1 X120.164 Y105.437 E2.54463
G1 X120.164 Y107.118 E2.69749
G1 X119.996 Y107.286 E2.71912
G1 X119.996 Y108.967 E2.87198
G1 X119.828 Y109.136 E2.89362
G1 X119.828 Y110.648 E3.03116
G1 X119.660 Y110.816 E3.05278
G1 X119.660 Y112.497 E3.20563
G1 X119.492 Y112.666 E3.22725
G1 X119.492 Y115.019 E3.44126
G1 X119.323 Y115.187 E3.46288
G1 X119.323 Y116.868 E3.61574
G1 X119.155 Y117.037 E3.63736
G1 X119.155 Y118.718 E3.79023
G1 X118.987 Y118.886 E3.81185
G1 X118.987 Y119.726 E3.88827
G1 X118.819 Y119.894 E3.90988
G1 X118.819 Y121.576 E4.06277
G1 X118.651 Y121.744 E4.08440
G1 X118.651 Y124.097 E4.29838
G1 X118.483 Y124.265 E4.32000
G1 X118.483 Y125.778 E4.45758
G1 X118.315 Y125.947 E4.47920
G1 X118.315 Y126.955 E4.57091
G1 X117.810 Y127.460 E4.63577
G1 X117.810 Y127.628 E4.65106
G1 X117.474 Y127.964 E4.69429
G1 X117.474 Y128.468 E4.74015
G1 X117.306 Y128.636 E4.76177
G1 X117.306 Y128.973 E4.79234
G1 X117.138 Y129.141 E4.81396
G1 X117.138 Y129.309 E4.82925
G1 X116.970 Y129.477 E4.85087
G1 X116.970 Y129.645 E4.86615
G1 X116.802 Y129.813 E4.88777
G1 X116.802 Y130.317 E4.93363
G1 X116.129 Y130.990 E5.02012
G1 X116.129 Y131.158 E5.03540
G1 X115.793 Y131.494 E5.07863
G1 X115.793 Y131.662 E5.09392
G1 X115.457 Y131.999 E5.13715
G1 X115.457 Y132.167 E5.15244
G1 X115.289 Y132.335 E5.17406
G1 X115.289 Y133.175 E5.25049
G1 X114.179 Y134.285 E5.39324
G1 X113.539 Y134.285 E5.45140
G1 X113.539 Y134.117 E5.46669
G1 X111.521 Y134.117 E5.65013
G1 X111.521 Y133.949 E5.66542
G1 X109.505 Y133.949 E5.84877
G1 X109.505 Y133.781 E5.86406
G1 X107.320 Y133.781 E6.06271
G1 X107.320 Y133.613 E6.07800
G1 X105.134 Y133.613 E6.27673
G1 X105.134 Y133.445 E6.29201
G1 X101.434 Y133.445 E6.62845
G1 X101.434 Y133.277 E6.64373
G1 X97.737 Y133.277 E6.97989
G1 X97.737 Y133.109 E6.99518
G1 X96.391 Y133.109 E7.11754
G1 X96.391 Y132.941 E7.13283
G1 X95.586 Y132.941 E7.20608
G1 X96.056 Y132.470 E7.26659
G1 X96.056 Y131.798 E7.32773
G1 X96.326 Y131.528 E7.36239
G1 X96.494 Y131.528 E7.37767
G1 X96.662 Y131.360 E7.39929
G1 X96.830 Y131.360 E7.41458
G1 X96.998 Y131.192 E7.43620
G1 X97.905 Y131.192 E7.51870
G1 X97.905 Y130.621 E7.57063
G1 X98.410 Y130.116 E7.63548
G1 X98.410 Y129.276 E7.71191
G1 X98.578 Y129.108 E7.73353
G1 X98.578 Y126.552 E7.96590
G1 X98.410 Y126.552 E7.98119
G1 X98.410 Y125.544 E8.07291
G1 X98.242 Y125.544 E8.08819
G1 X98.242 Y125.375 E8.10348
G1 X97.906 Y125.375 E8.13404
G1 X97.906 Y125.207 E8.14932
G1 X97.737 Y125.207 E8.16463
G1 X97.737 Y125.039 E8.17992
G1 X97.569 Y125.039 E8.19520
G1 X97.569 Y124.871 E8.21049
G1 X97.401 Y124.871 E8.22578
G1 X97.401 Y124.198 E8.28694
G1 X97.233 Y124.198 E8.30222
G1 X97.233 Y123.022 E8.40919
G1 X96.897 Y123.022 E8.43977
G1 X96.897 Y122.854 E8.45507
G1 X96.729 Y122.854 E8.47036
G1 X96.729 Y122.686 E8.48564
G1 X96.561 Y122.686 E8.50093
G1 X96.561 Y122.517 E8.51622
G1 X96.392 Y122.517 E8.53150
G1 X96.392 Y122.349 E8.54679
G1 X95.888 Y122.349 E8.59264
G1 X95.888 Y120.802 E8.73332
G1 X94.879 Y121.811 E8.86306
G1 X94.879 Y121.509 E8.89056
G1 X93.870 Y121.509 E8.98237
G1 X93.870 Y121.341 E8.99766
G1 X92.862 Y121.341 E9.08927
G1 X92.862 Y121.173 E9.10456
G1 X92.694 Y121.173 E9.11988
G1 X92.693 Y121.004 E9.13518
G1 X91.685 Y121.004 E9.22685
G1 X91.685 Y120.500 E9.27271
G1 X91.517 Y120.500 E9.28800
G1 X91.517 Y120.030 E9.33078
G1 X92.358 Y119.189 E9.43887
G1 X92.358 Y119.021 E9.45416
G1 X92.694 Y118.685 E9.49739
G1 X92.694 Y115.793 E9.76034
G1 X92.526 Y115.793 E9.77563
G1 X92.526 Y115.457 E9.80620
G1 X92.358 Y115.457 E9.82149
G1 X92.358 Y115.289 E9.83677
G1 X92.190 Y115.289 E9.85206
G1 X92.190 Y115.121 E9.86734
G1 X91.887 Y115.121 E9.89484
G1 X93.064 Y113.944 E10.04617
G1 X91.517 Y113.944 E10.18682
G1 X91.517 Y112.767 E10.29383
G1 X91.349 Y112.767 E10.30912
G1 X91.349 Y112.599 E10.32440
G1 X91.013 Y112.599 E10.35496
G1 X91.013 Y112.431 E10.37025
G1 X90.509 Y112.431 E10.41611
G1 X90.509 Y112.263 E10.43140
G1 X89.836 Y112.263 E10.49256
G1 X89.836 Y112.094 E10.50784
G1 X89.500 Y112.094 E10.53842
G1 X89.500 Y109.573 E10.76771
G1 X89.164 Y109.573 E10.79828
G1 X89.164 Y109.405 E10.81357
G1 X88.995 Y109.405 E10.82886
G1 X88.995 Y109.102 E10.85636
G1 X90.038 Y108.060 E10.99041
G1 X88.491 Y108.060 E11.13106
G1 X88.491 Y107.757 E11.15856
G1 X88.659 Y107.589 E11.18018
G1 X88.659 Y106.917 E11.24132
G1 X88.827 Y106.749 E11.26294
G1 X88.827 Y106.581 E11.27823
G1 X89.164 Y106.244 E11.32146
G1 X89.164 Y106.076 E11.33675
G1 X89.332 Y105.908 E11.35837
G1 X89.332 Y105.134 E11.42873
G1 X89.836 Y105.134 E11.47459
G1 X89.836 Y104.227 E11.55709
G1 X91.383 Y102.680 E11.75600
G1 X91.215 Y102.680 E11.77128
G1 X91.619 Y102.276 E11.82322
G1 X92.358 Y102.276 E11.89043
G1 X92.358 Y101.537 E11.95764
G1 X92.526 Y101.369 E11.97926
G1 X92.526 Y101.100 E12.00377
G1 X92.795 Y101.100 E12.02827
G1 X92.963 Y100.931 E12.04989
G1 X93.132 Y100.931 E12.06518
G1 X93.468 Y100.595 E12.10841
G1 X93.636 Y100.595 E12.12370
G1 X93.972 Y100.259 E12.16693
G1 X94.140 Y100.259 E12.18222
G1 X95.552 Y98.847 E12.36377
G1 X95.552 Y98.679 E12.37908
G1 X95.720 Y98.511 E12.40070
G1 X95.720 Y98.007 E12.44650
G1 X95.888 Y97.839 E12.46812
G1 X95.888 Y97.671 E12.48341
G1 X96.056 Y97.502 E12.50503
G1 X96.056 Y96.392 E12.60596
G1 X97.973 Y96.392 E12.78025
G1 X97.973 Y97.435 E12.87505
G1 X99.688 Y95.720 E13.09558
G1 X99.856 Y95.720 E13.11086
G1 X100.024 Y95.552 E13.13248
G1 X100.192 Y95.552 E13.14777
G1 X100.360 Y95.384 E13.16939
G1 X101.100 Y95.384 E13.23660
G1 X101.100 Y92.930 E13.45975
G1 X100.931 Y92.930 E13.47504
G1 X100.931 Y92.761 E13.49033
G1 X100.595 Y92.761 E13.52090
G1 X100.595 Y90.744 E13.70433
G1 X100.427 Y90.744 E13.71962
G1 X100.427 Y90.576 E13.73491
G1 X100.259 Y90.576 E13.75019
G1 X100.259 Y90.240 E13.78077
G1 X100.091 Y90.240 E13.79605
G1 X100.091 Y89.904 E13.82663
G1 X99.923 Y89.904 E13.84191
G1 X99.923 Y89.063 E13.91834
G1 X99.755 Y89.063 E13.93363
G1 X99.755 Y88.727 E13.96420
G1 X99.587 Y88.727 E13.97949
G1 X99.587 Y88.391 E14.01006
G1 X99.284 Y88.391 E14.03756
G1 X100.159 Y87.516 E14.15000
G1 X100.159 Y87.684 E14.16529
G1 X102.042 Y85.801 E14.40744
G1 X103.117 Y85.801 E14.50523
G1 X103.117 Y85.129 E14.56637
G1 X103.723 Y85.129 E14.62144
G1 X104.227 Y84.624 E14.68630
G1 X104.395 Y84.624 E14.70159
G1 X104.731 Y84.288 E14.74482
G1 X104.899 Y84.288 E14.76011
G1 X106.076 Y83.112 E14.91143
G1 X106.983 Y83.111 E14.99385
G1 X106.984 Y82.036 E15.09161
G1 X108.867 Y80.153 E15.33380
G1 X107.824 Y80.153 E15.42861
G1 X107.824 Y79.851 E15.45611
