; generated by Slic3r 1.3.0-dev on 2017-08-18 at 21:43:29

; external perimeters extrusion width = 0.40mm (1.14mm^3/s)
; perimeters extrusion width = 0.68mm (3.95mm^3/s)
; infill extrusion width = 1.20mm (9.43mm^3/s)
; solid infill extrusion width = 0.68mm (1.32mm^3/s)
; top infill extrusion width = 0.68mm (0.99mm^3/s)
; support material extrusion width = 0.40mm (2.27mm^3/s)

M107
M190 S66 ; set bed temperature and wait for it to be reached
M104 S215 ; set temperature
G28 ; home all axes
G1 Z5 F5000 ; lift nozzle

; Filament gcode

M109 S215 ; set temperature and wait for it to be reached
G21 ; set units to millimeters
G90 ; use absolute coordinates
M82 ; use absolute distances for extrusion
G92 E0
G1 Z0.350 F7800.000
G1 E-2.00000 F2400.00000
G92 E0
G1 X86.911 Y77.768 F7800.000
G1 E2.00000 F2400.00000
G1 F1800
G1 X87.077 Y77.602 E2.02138
G1 X88.955 Y76.285 E2.22992
G1 X90.154 Y75.860 E2.34560
G1 X91.147 Y75.612 E2.43866
G1 X92.754 Y75.414 E2.58586
G1 X93.601 Y75.449 E2.66296
G1 X100.800 Y76.194 E3.32103
G1 X101.850 Y76.389 E3.41816
G1 X105.822 Y77.465 E3.79231
G1 X106.337 Y77.627 E3.84148
G1 X111.385 Y79.447 E4.32937
G1 X113.276 Y80.506 E4.52644
G1 X114.103 Y81.168 E4.62279
G1 X114.921 Y81.945 E4.72536
G1 X123.361 Y91.461 E5.88190
G1 X124.563 Y93.414 E6.09045
G1 X124.901 Y94.558 E6.19887
G1 X125.066 Y95.385 E6.27560
G1 X125.195 Y96.684 E6.39430
G1 X125.141 Y97.693 E6.48618
G1 X121.169 Y128.639 E9.32317
G1 X120.524 Y130.759 E9.52462
G1 X120.441 Y130.924 E9.54144
G1 X119.076 Y132.767 E9.74999
G1 X117.164 Y134.034 E9.95853
G1 X114.515 Y134.586 E10.20454
G1 X113.605 Y134.586 E10.28731
G1 X112.866 Y134.545 E10.35463
G1 X97.393 Y132.807 E11.77043
G1 X96.705 Y132.693 E11.83382
G1 X91.079 Y131.452 E12.35774
G1 X88.958 Y130.578 E12.56628
G1 X87.263 Y129.033 E12.77482
G1 X86.196 Y127.003 E12.98337
G1 X85.883 Y125.154 E13.15386
G1 X84.805 Y83.445 E16.94768
G1 X84.912 Y82.178 E17.06337
G1 X85.078 Y81.267 E17.14749
G1 X85.872 Y79.116 E17.35603
G1 X86.874 Y77.815 E17.50533
G1 E15.50533 F2400.00000
G92 E0
G1 X106.517 Y90.837 F7800.000
G1 E2.00000 F2400.00000
G1 F1800
G1 X108.861 Y90.837 E2.21313
G1 X108.861 Y90.920 E2.22066
G1 X109.027 Y90.920 E2.23570
G1 X109.027 Y91.003 E2.24323
G1 X109.110 Y91.003 E2.25075
G1 X109.110 Y91.085 E2.25827
G1 X109.854 Y91.085 E2.32599
G1 X109.854 Y91.168 E2.33352
G1 X110.102 Y91.168 E2.35609
G1 X110.102 Y91.334 E2.37113
G1 X110.185 Y91.334 E2.37866
G1 X110.185 Y91.405 E2.38514
G1 X110.270 Y91.406 E2.39283
G1 X110.270 Y91.665 E2.41638
G1 X110.351 Y91.665 E2.42371
G1 X110.351 Y92.244 E2.47638
G1 X110.433 Y92.244 E2.48390
G1 X110.433 Y92.740 E2.52900
G1 X110.516 Y92.740 E2.53653
G1 X110.516 Y92.821 E2.54395
G1 X110.599 Y92.822 E2.55147
G1 X110.599 Y92.988 E2.56666
G1 X110.682 Y92.988 E2.57418
G1 X110.682 Y93.073 E2.58182
G1 X111.178 Y93.072 E2.62697
G1 X111.178 Y93.236 E2.64188
G1 X111.426 Y93.236 E2.66445
G1 X111.426 Y93.320 E2.67202
G1 X111.509 Y93.320 E2.67954
G1 X111.509 Y95.959 E2.91958
G1 X111.592 Y95.960 E2.92710
G1 X111.592 Y96.050 E2.93532
G1 X111.675 Y96.050 E2.94286
G1 X111.675 Y96.210 E2.95741
G1 X111.757 Y96.211 E2.96491
G1 X111.757 Y96.298 E2.97288
G1 X112.419 Y96.298 E3.03310
G1 X112.419 Y96.381 E3.04063
G1 X112.750 Y96.381 E3.07071
G1 X112.750 Y96.464 E3.07824
G1 X114.488 Y96.464 E3.23624
G1 X114.488 Y96.540 E3.24313
G1 X114.570 Y96.540 E3.25065
G1 X114.570 Y96.627 E3.25855
G1 X114.736 Y96.627 E3.27358
G1 X114.736 Y96.712 E3.28130
G1 X114.902 Y96.712 E3.29637
G1 X114.902 Y96.795 E3.30390
G1 X114.984 Y96.795 E3.31142
G1 X114.984 Y96.877 E3.31895
G1 X115.067 Y96.877 E3.32647
G1 X115.067 Y96.960 E3.33399
G1 X115.150 Y96.960 E3.34152
G1 X115.150 Y97.043 E3.34904
G1 X115.315 Y97.043 E3.36409
G1 X115.315 Y97.126 E3.37161
G1 X115.398 Y97.126 E3.37914
G1 X115.398 Y97.208 E3.38666
G1 X115.894 Y97.208 E3.43180
G1 X115.894 Y97.291 E3.43933
G1 X116.060 Y97.291 E3.45437
G1 X116.060 Y97.374 E3.46190
G1 X116.363 Y97.374 E3.48942
G1 X115.812 Y97.924 E3.56018
G1 X115.811 Y100.435 E3.78852
G1 X115.977 Y100.435 E3.80366
G1 X115.977 Y100.518 E3.81119
G1 X116.060 Y100.518 E3.81871
G1 X116.060 Y101.235 E3.88390
G1 X115.977 Y101.318 E3.89455
G1 X115.977 Y102.476 E3.99981
G1 X115.894 Y102.558 E4.01045
G1 X115.894 Y103.138 E4.06314
G1 X115.812 Y103.221 E4.07378
G1 X115.812 Y103.800 E4.12643
G1 X115.729 Y103.882 E4.13707
G1 X115.729 Y104.461 E4.18974
G1 X115.646 Y104.544 E4.20038
G1 X115.646 Y105.123 E4.25304
G1 X115.563 Y105.206 E4.26368
G1 X115.563 Y105.785 E4.31635
G1 X115.481 Y105.868 E4.32699
G1 X115.481 Y106.530 E4.38718
G1 X115.398 Y106.613 E4.39782
G1 X115.398 Y107.192 E4.45049
G1 X115.315 Y107.275 E4.46113
G1 X115.315 Y107.854 E4.51380
G1 X115.233 Y107.937 E4.52444
G1 X115.233 Y108.516 E4.57710
G1 X115.150 Y108.599 E4.58774
G1 X115.150 Y109.757 E4.69308
G1 X115.067 Y109.840 E4.70372
G1 X115.067 Y110.419 E4.75638
G1 X114.984 Y110.502 E4.76702
G1 X114.984 Y111.081 E4.81969
G1 X114.902 Y111.164 E4.83033
G1 X114.902 Y111.743 E4.88299
G1 X114.819 Y111.826 E4.89363
G1 X114.819 Y112.405 E4.94630
G1 X114.736 Y112.488 E4.95694
G1 X114.736 Y113.067 E5.00961
G1 X114.653 Y113.149 E5.02025
G1 X114.653 Y113.729 E5.07291
G1 X114.571 Y113.811 E5.08355
G1 X114.571 Y114.391 E5.13622
G1 X114.488 Y114.473 E5.14686
G1 X114.488 Y115.053 E5.19953
G1 X114.405 Y115.135 E5.21017
G1 X114.405 Y115.715 E5.26284
G1 X114.322 Y115.797 E5.27348
G1 X114.322 Y116.376 E5.32614
G1 X114.240 Y116.459 E5.33678
G1 X114.240 Y117.121 E5.39698
G1 X114.157 Y117.204 E5.40762
G1 X114.157 Y117.783 E5.46029
G1 X114.074 Y117.866 E5.47093
G1 X114.074 Y118.445 E5.52359
G1 X113.991 Y118.528 E5.53423
G1 X113.991 Y119.107 E5.58689
G1 X113.909 Y119.190 E5.59753
G1 X113.909 Y119.769 E5.65021
G1 X113.826 Y119.852 E5.66085
G1 X113.826 Y120.431 E5.71350
G1 X113.743 Y120.514 E5.72414
G1 X113.743 Y121.093 E5.77683
G1 X113.660 Y121.176 E5.78747
G1 X113.660 Y121.755 E5.84014
G1 X113.578 Y121.838 E5.85078
G1 X113.578 Y122.417 E5.90344
G1 X113.495 Y122.500 E5.91408
G1 X113.495 Y123.079 E5.96674
G1 X113.412 Y123.161 E5.97738
G1 X113.412 Y123.741 E6.03006
G1 X113.329 Y123.824 E6.04070
G1 X113.329 Y124.403 E6.09336
G1 X113.247 Y124.485 E6.10400
G1 X113.247 Y125.147 E6.16418
G1 X113.164 Y125.230 E6.17482
G1 X113.164 Y125.809 E6.22749
G1 X113.081 Y125.892 E6.23813
G1 X113.081 Y126.031 E6.25073
G1 X112.475 Y126.031 E6.30587
G1 X112.475 Y125.948 E6.31339
G1 X111.813 Y125.948 E6.37354
G1 X111.813 Y125.865 E6.38106
G1 X111.068 Y125.865 E6.44882
G1 X111.068 Y125.782 E6.45635
G1 X110.406 Y125.782 E6.51653
G1 X110.406 Y125.700 E6.52405
G1 X109.661 Y125.700 E6.59183
G1 X109.661 Y125.617 E6.59936
G1 X108.917 Y125.617 E6.66700
G1 X108.917 Y125.534 E6.67452
G1 X108.172 Y125.534 E6.74227
G1 X108.172 Y125.451 E6.74979
G1 X107.427 Y125.451 E6.81757
G1 X107.427 Y125.369 E6.82509
G1 X106.765 Y125.369 E6.88524
G1 X106.765 Y125.286 E6.89277
G1 X106.021 Y125.286 E6.96047
G1 X106.021 Y125.203 E6.96799
G1 X105.275 Y125.203 E7.03577
G1 X105.275 Y125.120 E7.04330
G1 X104.445 Y125.120 E7.11878
G1 X104.445 Y125.038 E7.12630
G1 X103.704 Y125.038 E7.19369
G1 X103.704 Y124.955 E7.20121
G1 X102.875 Y124.955 E7.27659
G1 X102.875 Y124.872 E7.28412
G1 X102.131 Y124.872 E7.35174
G1 X102.131 Y124.789 E7.35926
G1 X101.386 Y124.789 E7.42698
G1 X101.386 Y124.707 E7.43451
G1 X100.560 Y124.707 E7.50962
G1 X100.560 Y124.624 E7.51714
G1 X99.732 Y124.624 E7.59244
G1 X99.732 Y124.541 E7.59997
G1 X99.649 Y124.541 E7.60748
G1 X99.649 Y124.458 E7.61501
G1 X99.566 Y124.458 E7.62255
G1 X99.566 Y124.376 E7.63007
G1 X99.319 Y124.376 E7.65259
G1 X99.319 Y124.293 E7.66012
G1 X99.236 Y124.293 E7.66767
G1 X99.236 Y124.127 E7.68272
G1 X99.070 Y124.127 E7.69776
G1 X99.070 Y124.045 E7.70529
G1 X98.987 Y124.045 E7.71282
G1 X98.987 Y123.962 E7.72034
G1 X98.822 Y123.962 E7.73539
G1 X98.822 Y123.879 E7.74291
G1 X98.656 Y123.879 E7.75798
G1 X98.656 Y123.714 E7.77303
G1 X98.491 Y123.714 E7.78805
G1 X98.491 Y123.631 E7.79558
G1 X98.325 Y123.631 E7.81066
G1 X98.325 Y123.548 E7.81823
G1 X98.151 Y123.548 E7.83403
G1 X98.150 Y123.383 E7.84903
G1 X97.912 Y123.383 E7.87072
G1 X97.912 Y123.300 E7.87824
G1 X97.747 Y123.300 E7.89327
G1 X97.747 Y123.217 E7.90079
G1 X97.581 Y123.217 E7.91587
G1 X97.581 Y123.052 E7.93091
G1 X97.167 Y123.052 E7.96851
G1 X97.167 Y122.969 E7.97603
G1 X96.919 Y122.969 E7.99864
G1 X96.919 Y122.803 E8.01370
G1 X96.671 Y122.803 E8.03625
G1 X96.671 Y122.721 E8.04376
G1 X96.091 Y122.721 E8.09643
G1 X96.091 Y122.638 E8.10396
G1 X94.602 Y122.638 E8.23939
G1 X94.602 Y120.789 E8.40749
G1 X94.519 Y120.872 E8.41813
G1 X94.519 Y120.184 E8.48069
G1 X94.602 Y120.101 E8.49134
G1 X94.602 Y119.274 E8.56657
G1 X94.685 Y119.191 E8.57721
G1 X94.685 Y118.364 E8.65245
G1 X94.767 Y118.281 E8.66309
G1 X94.767 Y118.198 E8.67061
G1 X94.850 Y118.116 E8.68125
G1 X94.850 Y117.371 E8.74897
G1 X94.933 Y117.288 E8.75961
G1 X94.933 Y116.461 E8.83485
G1 X95.016 Y116.378 E8.84549
G1 X95.016 Y115.550 E8.92072
G1 X95.098 Y115.468 E8.93137
G1 X95.098 Y114.723 E8.99908
G1 X95.181 Y114.640 E9.00972
G1 X95.181 Y113.813 E9.08496
G1 X95.264 Y113.730 E9.09560
G1 X95.264 Y112.158 E9.23854
G1 X95.347 Y112.075 E9.24918
G1 X95.347 Y111.331 E9.31691
G1 X95.429 Y111.248 E9.32755
G1 X95.429 Y110.420 E9.40278
G1 X95.512 Y110.338 E9.41342
G1 X95.512 Y109.510 E9.48866
G1 X95.595 Y109.427 E9.49930
G1 X95.595 Y108.600 E9.57454
G1 X95.678 Y108.517 E9.58518
G1 X95.678 Y107.773 E9.65290
G1 X95.760 Y107.690 E9.66354
G1 X95.760 Y106.862 E9.73877
G1 X95.843 Y106.780 E9.74942
G1 X95.843 Y105.952 E9.82465
G1 X95.926 Y105.870 E9.83529
G1 X95.926 Y105.125 E9.90301
G1 X96.009 Y105.042 E9.91365
G1 X96.009 Y104.215 E9.98889
G1 X96.091 Y104.132 E9.99953
G1 X96.091 Y103.304 E10.07477
G1 X96.174 Y103.222 E10.08541
G1 X96.174 Y102.477 E10.15312
G1 X96.257 Y102.394 E10.16376
G1 X96.257 Y101.567 E10.23900
G1 X96.340 Y101.484 E10.24964
G1 X96.340 Y100.657 E10.32488
G1 X96.422 Y100.574 E10.33552
G1 X96.422 Y96.520 E10.70418
G1 X97.002 Y95.940 E10.77866
G1 X97.002 Y94.368 E10.92162
G1 X97.084 Y94.285 E10.93226
G1 X97.084 Y94.203 E10.93978
G1 X97.250 Y94.037 E10.96106
G1 X97.250 Y93.954 E10.96859
G1 X97.333 Y93.872 E10.97923
G1 X97.333 Y93.210 E11.03942
G1 X99.512 Y91.030 E11.31972
G1 X97.167 Y91.030 E11.53297
G1 X97.167 Y90.562 E11.57554
G1 X98.519 Y89.210 E11.74942
G1 X97.940 Y89.210 E11.80209
G1 X98.519 Y88.631 E11.87657
G1 X96.091 Y88.631 E12.09733
G1 X96.091 Y88.548 E12.10485
G1 X95.926 Y88.548 E12.11989
G1 X95.926 Y88.465 E12.12741
G1 X95.843 Y88.465 E12.13495
G1 X95.843 Y88.382 E12.14247
G1 X95.760 Y88.382 E12.15000
G1 X95.760 Y88.300 E12.15752
G1 X95.678 Y88.300 E12.16505
G1 X95.678 Y87.886 E12.20266
G1 X95.595 Y87.886 E12.21019
G1 X95.595 Y87.720 E12.22524
G1 X95.512 Y87.720 E12.23276
G1 X95.512 Y87.389 E12.26286
G1 X95.429 Y87.389 E12.27038
G1 X95.429 Y87.307 E12.27790
G1 X95.347 Y87.307 E12.28543
G1 X95.347 Y87.224 E12.29295
G1 X95.264 Y87.224 E12.30047
G1 X95.264 Y87.141 E12.30800
G1 X95.181 Y87.141 E12.31552
G1 X95.181 Y86.976 E12.33057
G1 X95.016 Y86.976 E12.34561
G1 X95.016 Y86.893 E12.35314
G1 X94.933 Y86.893 E12.36067
G1 X94.933 Y86.121 E12.43087
G1 X96.478 Y86.121 E12.57138
G1 X96.644 Y85.955 E12.59266
G1 X98.050 Y85.955 E12.72056
G1 X98.133 Y85.873 E12.73120
G1 X98.298 Y85.873 E12.74625
G1 X98.547 Y85.624 E12.77817
G1 X98.629 Y85.624 E12.78570
G1 X98.932 Y85.322 E12.82461
G1 X98.932 Y85.707 E12.85965
G1 X99.015 Y85.707 E12.86718
G1 X99.015 Y85.873 E12.88222
G1 X99.180 Y85.873 E12.89727
G1 X99.180 Y85.955 E12.90479
G1 X99.263 Y85.955 E12.91232
G1 X99.263 Y86.038 E12.91984
G1 X99.346 Y86.038 E12.92736
G1 X99.346 Y86.121 E12.93489
G1 X99.677 Y86.121 E12.96498
G1 X99.677 Y86.204 E12.97251
G1 X99.925 Y86.204 E12.99508
G1 X99.925 Y86.286 E13.00260
G1 X100.008 Y86.286 E13.01013
G1 X100.008 Y86.369 E13.01765
G1 X100.173 Y86.369 E13.03270
G1 X100.173 Y86.535 E13.04775
G1 X100.256 Y86.535 E13.05527
G1 X100.256 Y86.617 E13.06281
G1 X100.339 Y86.617 E13.07033
G1 X100.339 Y86.783 E13.08537
G1 X100.421 Y86.783 E13.09289
G1 X100.421 Y86.865 E13.10041
G1 X100.504 Y86.865 E13.10794
G1 X100.504 Y86.948 E13.11546
G1 X103.235 Y86.948 E13.36375
G1 X103.235 Y87.776 E13.43899
G1 X103.648 Y87.776 E13.47661
G1 X103.648 Y88.603 E13.55181
G1 X103.731 Y88.603 E13.55934
G1 X103.731 Y88.769 E13.57442
G1 X104.310 Y88.769 E13.62708
G1 X104.310 Y89.416 E13.68598
G1 X104.393 Y89.417 E13.69348
G1 X104.393 Y89.513 E13.70223
G1 X104.889 Y89.513 E13.74732
G1 X104.889 Y91.611 E13.93804
G1 X107.235 Y89.265 E14.23970
G1 X107.317 Y89.265 E14.24722
G1 X108.365 Y88.218 E14.38189
G1 X108.365 Y88.989 E14.45201
G1 X106.560 Y90.795 E14.68418
G1 X105.514 Y90.102 F7800.000
G1 F1800
G1 X106.976 Y88.640 E14.87220
G1 X107.059 Y88.640 E14.87973
G1 X107.795 Y87.904 E14.97444
G1 X107.795 Y87.151 E15.04292
G1 X108.576 Y87.151 E15.11391
G1 X108.576 Y87.234 E15.12139
G1 X108.824 Y87.234 E15.14396
G1 X108.824 Y87.316 E15.15149
G1 X108.990 Y87.316 E15.16653
G1 X108.990 Y89.248 E15.34215
G1 X108.026 Y90.212 E15.46617
G1 X109.486 Y90.212 E15.59899
G1 X109.486 Y90.295 E15.60651
G1 X109.652 Y90.295 E15.62156
G1 X109.652 Y90.378 E15.62908
G1 X109.734 Y90.378 E15.63661
G1 X109.734 Y90.461 E15.64413
G1 X110.479 Y90.461 E15.71185
G1 X110.479 Y90.543 E15.71938
G1 X110.727 Y90.543 E15.74195
G1 X110.727 Y90.709 E15.75699
G1 X110.810 Y90.709 E15.76451
G1 X110.810 Y90.785 E15.77141
G1 X110.894 Y90.785 E15.77902
G1 X110.894 Y91.040 E15.80217
G1 X110.976 Y91.040 E15.80957
G1 X110.976 Y91.619 E15.86224
G1 X111.058 Y91.619 E15.86976
G1 X111.058 Y92.115 E15.91488
G1 X111.141 Y92.115 E15.92240
G1 X111.141 Y92.197 E15.92986
G1 X111.224 Y92.197 E15.93739
G1 X111.224 Y92.364 E15.95251
G1 X111.307 Y92.364 E15.96004
G1 X111.307 Y92.447 E15.96765
G1 X111.803 Y92.447 E16.01279
G1 X111.803 Y92.611 E16.02775
G1 X112.051 Y92.612 E16.05032
G1 X112.051 Y92.695 E16.05787
G1 X112.134 Y92.695 E16.06540
G1 X112.134 Y92.858 E16.08030
G1 X112.217 Y92.859 E16.08783
G1 X112.217 Y93.191 E16.11805
G1 X112.382 Y93.191 E16.13310
G1 X112.382 Y93.468 E16.15824
G1 X112.217 Y93.634 E16.17955
G1 X112.217 Y93.715 E16.18700
G1 X112.134 Y93.798 E16.19765
G1 X112.134 Y95.338 E16.33762
G1 X112.217 Y95.338 E16.34514
G1 X112.217 Y95.425 E16.35308
G1 X112.299 Y95.425 E16.36061
G1 X112.299 Y95.587 E16.37536
G1 X112.382 Y95.588 E16.38286
G1 X112.382 Y95.673 E16.39064
G1 X113.044 Y95.673 E16.45086
G1 X113.044 Y95.756 E16.45839
G1 X113.375 Y95.756 E16.48847
G1 X113.375 Y95.839 E16.49599
G1 X115.113 Y95.839 E16.65400
G1 X115.113 Y95.917 E16.66113
G1 X115.195 Y95.918 E16.66865
G1 X115.195 Y96.003 E16.67639
G1 X115.361 Y96.003 E16.69142
G1 X115.361 Y96.087 E16.69906
G1 X115.526 Y96.087 E16.71413
G1 X115.526 Y96.170 E16.72166
G1 X115.609 Y96.170 E16.72918
G1 X115.609 Y96.253 E16.73671
G1 X115.692 Y96.253 E16.74423
G1 X115.692 Y96.335 E16.75175
G1 X115.775 Y96.335 E16.75928
G1 X115.775 Y96.418 E16.76680
G1 X115.940 Y96.418 E16.78185
G1 X115.940 Y96.501 E16.78937
G1 X116.023 Y96.501 E16.79690
G1 X116.023 Y96.584 E16.80442
G1 X116.519 Y96.584 E16.84956
G1 X116.519 Y96.666 E16.85709
G1 X116.685 Y96.666 E16.87213
G1 X116.685 Y96.749 E16.87966
G1 X116.768 Y96.749 E16.88718
G1 X116.768 Y97.853 E16.98753
G1 X116.437 Y98.183 E17.03004
G1 X116.436 Y99.811 E17.17801
G1 X116.602 Y99.811 E17.19312
G1 X116.602 Y99.893 E17.20064
G1 X116.685 Y99.893 E17.20817
G1 X116.685 Y99.976 E17.21569
G1 X116.768 Y99.976 E17.22321
G1 X116.768 Y100.831 E17.30099
G1 X116.685 Y100.914 E17.31163
G1 X116.685 Y101.494 E17.36433
G1 X116.602 Y101.577 E17.37498
G1 X116.602 Y102.734 E17.48027
G1 X116.519 Y102.817 E17.49091
G1 X116.519 Y103.397 E17.54359
G1 X116.437 Y103.479 E17.55423
G1 X116.437 Y104.058 E17.60688
G1 X116.354 Y104.141 E17.61752
G1 X116.354 Y104.720 E17.67019
G1 X116.271 Y104.803 E17.68083
G1 X116.271 Y105.382 E17.73350
G1 X116.188 Y105.465 E17.74414
G1 X116.188 Y106.044 E17.79680
G1 X116.106 Y106.127 E17.80744
G1 X116.106 Y106.789 E17.86763
G1 X116.023 Y106.872 E17.87827
G1 X116.023 Y107.451 E17.93094
G1 X115.940 Y107.534 E17.94158
G1 X115.940 Y108.113 E17.99425
G1 X115.857 Y108.196 E18.00489
G1 X115.857 Y108.775 E18.05756
G1 X115.775 Y108.857 E18.06820
G1 X115.775 Y110.016 E18.17353
