; generated by Slic3r 1.3.0-dev on 2017-08-18 at 21:44:14

; external perimeters extrusion width = 0.40mm (1.14mm^3/s)
; perimeters extrusion width = 0.68mm (3.95mm^3/s)
; infill extrusion width = 1.20mm (9.43mm^3/s)
; solid infill extrusion width = 0.68mm (1.32mm^3/s)
; top infill extrusion width = 0.68mm (0.99mm^3/s)
; support material extrusion width = 0.40mm (2.27mm^3/s)

M107
M190 S66 ; set bed temperature and wait for it to be reached
M104 S215 ; set temperature
G28 ; home all axes
G1 Z5 F5000 ; lift nozzle

; Filament gcode

M109 S215 ; set temperature and wait for it to be reached
G21 ; set units to millimeters
G90 ; use absolute coordinates
M82 ; use absolute distances for extrusion
G92 E0
G1 Z0.350 F7800.000
G1 E-2.00000 F2400.00000
G92 E0
G1 X68.023 Y84.800 F7800.000
G1 E2.00000 F2400.00000
G1 F1800
G1 X69.901 Y83.484 E2.20854
G1 X72.107 Y82.887 E2.41639
G1 X73.927 Y82.724 E2.58253
G1 X81.545 Y82.276 E3.27641
G1 X94.373 Y81.679 E4.44416
G1 X98.489 Y81.527 E4.81867
G1 X103.389 Y81.378 E5.26438
G1 X109.974 Y81.227 E5.86331
G1 X137.441 Y81.227 E8.36089
G1 X139.700 Y81.624 E8.56943
G1 X141.688 Y82.767 E8.77797
G1 X143.167 Y84.520 E8.98651
G1 X143.960 Y86.672 E9.19506
G1 X144.066 Y87.838 E9.30155
G1 X144.066 Y92.804 E9.75306
G1 X143.917 Y111.511 E11.45420
G1 X143.552 Y113.630 E11.64972
G1 X141.028 Y120.905 E12.34992
G1 X140.069 Y122.709 E12.53566
G1 X139.623 Y123.303 E12.60316
G1 X139.008 Y124.012 E12.68855
G1 X138.711 Y124.309 E12.72674
G1 X136.215 Y125.878 E12.99479
G1 X133.246 Y126.917 E13.28087
G1 X131.245 Y127.286 E13.46584
G1 X78.983 Y128.771 E18.21994
G1 X74.637 Y128.774 E18.61508
G1 X72.378 Y128.377 E18.82362
G1 X70.390 Y127.233 E19.03216
G1 X68.911 Y125.480 E19.24070
G1 X68.141 Y123.448 E19.43835
G1 X67.993 Y122.706 E19.50719
G1 X67.877 Y121.825 E19.58791
G1 X66.539 Y100.712 E21.51157
G1 X65.945 Y90.616 E22.43119
G1 X65.934 Y89.633 E22.52056
G1 X66.331 Y87.374 E22.72910
G1 X67.874 Y84.949 E22.99053
G1 X67.980 Y84.842 E23.00420
G1 E21.00420 F2400.00000
G92 E0
G1 X129.422 Y118.107 F7800.000
G1 E2.00000 F2400.00000
G1 F1800
G1 X129.903 Y118.107 E2.04373
G1 X129.903 Y118.767 E2.10379
G1 X129.606 Y118.767 E2.13079
G1 X129.606 Y119.064 E2.15779
G1 X113.320 Y119.064 E3.63863
G1 X113.172 Y119.213 E3.65773
G1 X105.896 Y119.213 E4.31930
G1 X105.748 Y119.361 E4.33839
G1 X100.551 Y119.361 E4.81091
G1 X100.403 Y119.510 E4.82999
G1 X96.246 Y119.510 E5.20794
G1 X96.097 Y119.658 E5.22704
G1 X92.534 Y119.658 E5.55108
G1 X92.385 Y119.807 E5.57017
G1 X89.267 Y119.807 E5.85373
G1 X89.119 Y119.955 E5.87282
G1 X86.149 Y119.955 E6.14281
G1 X86.001 Y120.103 E6.16190
G1 X83.328 Y120.103 E6.40491
G1 X83.180 Y120.252 E6.42400
G1 X80.656 Y120.252 E6.65351
G1 X80.507 Y120.400 E6.67260
G1 X78.281 Y120.400 E6.87509
G1 X78.132 Y120.549 E6.89418
G1 X76.718 Y120.549 E7.02277
G1 X78.500 Y118.767 E7.25189
G1 X76.089 Y118.767 E7.47111
G1 X76.089 Y116.540 E7.67362
G1 X75.940 Y116.540 E7.68711
G1 X75.940 Y114.313 E7.88962
G1 X75.792 Y114.313 E7.90312
G1 X75.792 Y112.086 E8.10563
G1 X75.643 Y112.086 E8.11913
G1 X75.643 Y109.859 E8.32164
G1 X75.495 Y109.859 E8.33514
G1 X75.495 Y107.632 E8.53765
G1 X75.346 Y107.632 E8.55115
G1 X75.346 Y105.405 E8.75366
G1 X75.198 Y105.405 E8.76716
G1 X75.198 Y103.178 E8.96967
G1 X75.049 Y103.178 E8.98317
G1 X75.049 Y100.950 E9.18568
G1 X74.901 Y100.950 E9.19918
G1 X74.901 Y98.723 E9.40169
G1 X74.752 Y98.723 E9.41519
G1 X74.752 Y95.309 E9.72570
G1 X74.604 Y95.309 E9.73920
G1 X74.604 Y93.081 E9.94171
G1 X74.455 Y93.081 E9.95521
G1 X74.455 Y91.084 E10.13679
G1 X74.854 Y91.084 E10.17306
G1 X75.003 Y90.936 E10.19215
G1 X77.230 Y90.936 E10.39463
G1 X77.378 Y90.787 E10.41374
G1 X79.754 Y90.787 E10.62974
G1 X79.902 Y90.639 E10.64884
G1 X82.426 Y90.639 E10.87836
G1 X82.575 Y90.491 E10.89745
G1 X87.029 Y90.491 E11.30244
G1 X87.177 Y90.342 E11.32155
G1 X90.147 Y90.342 E11.59154
G1 X90.295 Y90.194 E11.61064
G1 X93.710 Y90.194 E11.92113
G1 X93.858 Y90.045 E11.94022
G1 X97.126 Y90.045 E12.23733
G1 X97.274 Y89.897 E12.25641
G1 X99.204 Y89.897 E12.43184
G1 X99.352 Y89.748 E12.45095
G1 X104.103 Y89.748 E12.88289
G1 X104.251 Y89.600 E12.90200
G1 X110.488 Y89.600 E13.46908
G1 X110.636 Y89.451 E13.48818
G1 X133.968 Y89.451 E15.60975
G1 X133.705 Y89.744 E15.64557
G1 X135.693 Y89.746 E15.82636
G1 X135.693 Y101.889 E16.93049
G1 X135.545 Y102.038 E16.94962
G1 X135.545 Y109.859 E17.66076
G1 X135.099 Y109.859 E17.70124
G1 X135.099 Y110.007 E17.71474
G1 X134.208 Y110.007 E17.79576
G1 X134.208 Y110.453 E17.83627
G1 X133.614 Y110.453 E17.89027
G1 X133.614 Y111.687 E18.00249
G1 X132.918 Y112.383 E18.09199
G1 X132.576 Y112.383 E18.12316
G1 X132.575 Y113.468 E18.22186
G1 X132.176 Y113.868 E18.27322
G1 X131.239 Y113.868 E18.35842
G1 X131.239 Y116.289 E18.57862
G1 X129.464 Y118.064 E18.80684
G1 X130.527 Y119.095 F7800.000
G1 F1800
G1 X130.527 Y119.392 E18.83384
G1 X130.231 Y119.392 E18.86084
G1 X130.231 Y119.689 E18.88784
G1 X113.579 Y119.689 E20.40197
G1 X113.430 Y119.838 E20.42107
G1 X106.155 Y119.838 E21.08262
G1 X106.006 Y119.986 E21.10171
G1 X100.810 Y119.986 E21.57423
G1 X100.662 Y120.134 E21.59332
G1 X96.505 Y120.134 E21.97129
G1 X96.356 Y120.283 E21.99039
G1 X92.793 Y120.283 E22.31442
G1 X92.644 Y120.431 E22.33351
G1 X89.526 Y120.431 E22.61705
G1 X89.378 Y120.580 E22.63614
G1 X86.408 Y120.580 E22.90614
G1 X86.260 Y120.728 E22.92523
G1 X83.587 Y120.728 E23.16824
G1 X83.439 Y120.877 E23.18733
G1 X80.915 Y120.877 E23.41684
G1 X80.766 Y121.025 E23.43593
G1 X78.539 Y121.025 E23.63843
G1 X78.391 Y121.174 E23.65752
G1 X75.612 Y121.174 E23.91018
G1 X75.612 Y120.771 E23.94682
G1 X76.991 Y119.392 E24.12412
G1 X75.464 Y119.392 E24.26299
G1 X75.464 Y117.165 E24.46549
G1 X75.315 Y117.165 E24.47899
G1 X75.315 Y114.938 E24.68150
G1 X75.167 Y114.938 E24.69500
G1 X75.167 Y112.711 E24.89751
G1 X75.018 Y112.711 E24.91101
G1 X75.018 Y110.484 E25.11352
G1 X74.870 Y110.484 E25.12702
G1 X74.870 Y108.257 E25.32953
G1 X74.721 Y108.257 E25.34303
G1 X74.721 Y106.030 E25.54553
G1 X74.573 Y106.030 E25.55903
G1 X74.573 Y103.802 E25.76154
G1 X74.424 Y103.802 E25.77504
G1 X74.424 Y101.575 E25.97755
G1 X74.276 Y101.575 E25.99106
G1 X74.276 Y99.348 E26.19356
G1 X74.127 Y99.348 E26.20706
G1 X74.127 Y95.933 E26.51757
G1 X73.979 Y95.933 E26.53108
G1 X73.979 Y93.706 E26.73359
G1 X73.831 Y93.706 E26.74709
G1 X73.831 Y91.479 E26.94959
G1 X73.682 Y91.479 E26.96309
G1 X73.682 Y90.460 E27.05581
G1 X74.595 Y90.460 E27.13887
G1 X74.744 Y90.311 E27.15797
G1 X76.971 Y90.311 E27.36046
G1 X77.120 Y90.163 E27.37956
G1 X79.495 Y90.163 E27.59556
G1 X79.644 Y90.014 E27.61466
G1 X82.168 Y90.014 E27.84417
G1 X82.316 Y89.866 E27.86327
G1 X86.770 Y89.866 E28.26826
G1 X86.919 Y89.717 E28.28737
G1 X89.888 Y89.717 E28.55736
G1 X90.037 Y89.569 E28.57647
G1 X93.451 Y89.569 E28.88695
G1 X93.600 Y89.420 E28.90606
G1 X96.867 Y89.420 E29.20312
G1 X97.015 Y89.272 E29.22220
G1 X98.945 Y89.272 E29.39766
G1 X99.094 Y89.123 E29.41677
G1 X103.844 Y89.123 E29.84873
G1 X103.993 Y88.975 E29.86784
G1 X110.229 Y88.975 E30.43490
G1 X110.378 Y88.826 E30.45400
G1 X135.371 Y88.826 E32.72666
G1 X135.106 Y89.121 E32.76268
G1 X136.318 Y89.122 E32.87286
G1 X136.318 Y91.796 E33.11595
G1 X136.466 Y91.796 E33.12945
G1 X136.466 Y92.347 E33.17962
G1 X136.318 Y92.496 E33.19871
G1 X136.318 Y102.147 E34.07630
G1 X136.169 Y102.296 E34.09543
G1 X136.169 Y110.484 E34.83992
G1 X135.724 Y110.484 E34.88041
G1 X135.724 Y110.632 E34.89391
G1 X134.833 Y110.632 E34.97492
G1 X134.833 Y111.078 E35.01543
G1 X134.239 Y111.078 E35.06943
G1 X134.239 Y111.946 E35.14836
G1 X133.645 Y112.540 E35.22472
G1 X133.645 Y112.836 E35.25172
G1 X133.474 Y113.008 E35.27375
G1 X133.200 Y113.008 E35.29865
G1 X133.200 Y113.727 E35.36407
G1 X132.435 Y114.493 E35.46249
G1 X131.864 Y114.493 E35.51441
G1 X131.864 Y116.548 E35.70133
G1 X130.930 Y117.482 E35.82136
G1 X132.458 Y117.482 E35.96023
G1 X132.458 Y118.204 E36.02594
G1 X132.286 Y118.204 E36.04151
G1 X131.841 Y118.650 E36.09879
G1 X130.973 Y118.650 E36.17772
G1 X130.973 Y119.095 E36.21822
G1 X130.587 Y119.095 E36.25327
G1 X131.152 Y119.720 F7800.000
G1 F1800
G1 X131.152 Y120.017 E36.28027
G1 X130.855 Y120.017 E36.30727
G1 X130.855 Y120.314 E36.33427
G1 X113.838 Y120.314 E37.88169
G1 X113.689 Y120.462 E37.90079
G1 X106.414 Y120.462 E38.56233
G1 X106.265 Y120.611 E38.58141
G1 X101.069 Y120.611 E39.05394
G1 X100.920 Y120.759 E39.07302
G1 X96.763 Y120.759 E39.45102
G1 X96.615 Y120.908 E39.47012
G1 X93.051 Y120.908 E39.79414
G1 X92.903 Y121.056 E39.81323
G1 X89.785 Y121.056 E40.09676
G1 X89.636 Y121.205 E40.11584
G1 X86.667 Y121.205 E40.38585
G1 X86.519 Y121.353 E40.40494
G1 X83.846 Y121.353 E40.64795
G1 X83.698 Y121.502 E40.66704
G1 X81.174 Y121.502 E40.89655
G1 X81.025 Y121.650 E40.91564
G1 X78.798 Y121.650 E41.11814
G1 X78.650 Y121.799 E41.13723
G1 X74.987 Y121.799 E41.47025
G1 X74.987 Y121.056 E41.53776
G1 X74.839 Y121.056 E41.55126
G1 X74.839 Y120.660 E41.58725
G1 X75.482 Y120.017 E41.66999
G1 X74.839 Y120.017 E41.72850
G1 X74.839 Y117.790 E41.93101
G1 X74.690 Y117.790 E41.94450
G1 X74.690 Y115.563 E42.14701
G1 X74.542 Y115.563 E42.16051
G1 X74.542 Y113.336 E42.36302
G1 X74.393 Y113.336 E42.37653
G1 X74.393 Y111.109 E42.57903
G1 X74.245 Y111.109 E42.59253
G1 X74.245 Y108.881 E42.79505
G1 X74.096 Y108.881 E42.80855
G1 X74.096 Y106.654 E43.01105
G1 X73.948 Y106.654 E43.02455
G1 X73.948 Y104.427 E43.22706
G1 X73.800 Y104.427 E43.24056
G1 X73.800 Y102.200 E43.44307
G1 X73.651 Y102.200 E43.45657
G1 X73.651 Y99.973 E43.65908
G1 X73.503 Y99.973 E43.67258
G1 X73.503 Y96.558 E43.98309
G1 X73.354 Y96.558 E43.99659
G1 X73.354 Y94.331 E44.19910
G1 X73.206 Y94.331 E44.21260
G1 X73.206 Y92.104 E44.41511
G1 X73.057 Y92.104 E44.42861
G1 X73.057 Y89.835 E44.63497
G1 X74.337 Y89.835 E44.75132
G1 X74.485 Y89.686 E44.77042
G1 X76.712 Y89.686 E44.97292
G1 X76.861 Y89.538 E44.99202
G1 X79.236 Y89.538 E45.20802
G1 X79.385 Y89.389 E45.22712
G1 X81.909 Y89.389 E45.45662
G1 X82.057 Y89.241 E45.47572
G1 X86.511 Y89.241 E45.88072
G1 X86.660 Y89.092 E45.89983
G1 X89.629 Y89.092 E46.16983
G1 X89.778 Y88.944 E46.18893
G1 X93.193 Y88.944 E46.49941
G1 X93.341 Y88.795 E46.51852
G1 X94.677 Y88.795 E46.64000
G1 X94.826 Y88.647 E46.65912
G1 X95.222 Y88.647 E46.69511
G1 X95.222 Y88.795 E46.70862
G1 X96.608 Y88.795 E46.83465
G1 X96.756 Y88.647 E46.85373
G1 X98.686 Y88.647 E47.02921
G1 X98.835 Y88.498 E47.04832
G1 X103.586 Y88.498 E47.48029
G1 X103.734 Y88.350 E47.49941
G1 X109.970 Y88.350 E48.06644
G1 X110.119 Y88.201 E48.08554
G1 X136.774 Y88.201 E50.50931
G1 X136.508 Y88.498 E50.54552
G1 X136.943 Y88.498 E50.58508
G1 X136.943 Y91.171 E50.82812
G1 X137.091 Y91.171 E50.84162
G1 X137.091 Y92.606 E50.97212
G1 X136.943 Y92.755 E50.99122
G1 X136.943 Y102.405 E51.86875
G1 X136.794 Y102.554 E51.88788
G1 X136.794 Y111.109 E52.66572
G1 X136.349 Y111.109 E52.70622
G1 X136.349 Y111.257 E52.71971
G1 X135.458 Y111.257 E52.80072
G1 X135.458 Y111.703 E52.84122
G1 X134.864 Y111.703 E52.89523
G1 X134.864 Y112.445 E52.96273
G1 X134.624 Y112.445 E52.98459
G1 X134.270 Y112.798 E53.03004
G1 X134.270 Y113.095 E53.05705
G1 X134.122 Y113.244 E53.07614
G1 X134.122 Y113.633 E53.11149
G1 X133.825 Y113.633 E53.13848
G1 X133.825 Y113.986 E53.17063
G1 X133.083 Y114.728 E53.26608
G1 X133.083 Y114.877 E53.27959
G1 X132.842 Y115.117 E53.31051
G1 X132.489 Y115.117 E53.34265
G1 X132.489 Y116.263 E53.44680
G1 X133.033 Y116.263 E53.49629
G1 X132.439 Y116.857 E53.57267
G1 X133.083 Y116.857 E53.63118
G1 X133.083 Y117.302 E53.67169
G1 X133.676 Y117.302 E53.72569
G1 X133.676 Y118.045 E53.79320
G1 X134.270 Y118.044 E53.84720
G1 X134.270 Y118.440 E53.88319
G1 X133.881 Y118.829 E53.93320
G1 X132.545 Y118.829 E54.05470
G1 X132.100 Y119.275 E54.11198
G1 X131.598 Y119.275 E54.15763
G1 X131.598 Y119.720 E54.19813
G1 X131.212 Y119.720 E54.23317
G1 X130.866 Y119.797 F7800.000
G1 E52.23317 F2400.00000
G92 E0
G1 X137.367 Y88.817 F7800.000
G1 E2.00000 F2400.00000
G1 F1800
G1 X137.367 Y88.148 E2.00713
G1 E0.00713 F2400.00000
G92 E0
G1 X137.219 Y106.708 F7800.000
G1 E2.00000 F2400.00000
G1 F1800
G1 X137.219 Y107.227 E2.00554
G1 E0.00554 F2400.00000
G92 E0
G1 X137.219 Y111.013 F7800.000
G1 E2.00000 F2400.00000
G1 F1800
G1 X137.219 Y111.428 E2.00443
G1 X137.144 Y111.607 E2.00650
G1 X137.293 Y111.459 F7800.000
G1 F1800
G1 X137.114 Y111.533 E2.00857
G1 X136.847 Y111.533 E2.01141
G1 E0.01141 F2400.00000
G92 E0
G1 X134.398 Y117.620 F7800.000
G1 E2.00000 F2400.00000
G1 F1800
G1 X134.682 Y117.633 E2.00508
G1 X134.719 Y117.744 E2.00718
G1 F1800
G1 X134.769 Y117.843 E2.01005
G1 X134.769 Y117.930 E2.01231
G1 X134.682 Y118.140 E2.01820
G1 X134.695 Y118.288 F7800.000
G1 F1800
G1 X134.682 Y118.647 E2.02203
G1 F1800
G1 X134.664 Y118.690 E2.02296
G1 X134.472 Y118.882 E2.02829
G1 X134.101 Y119.322 F7800.000
G1 F1800
G1 X134.025 Y119.364 E2.03199
G1 X133.952 Y119.346 E2.03524
G1 F1800
G1 X133.729 Y119.328 E2.04244
G1 F1800
G1 X133.606 Y119.353 E2.04742
G1 E0.04742 F2400.00000
G92 E0
G1 X72.633 Y90.227 F7800.000
G1 E2.00000 F2400.00000
G1 F1800
G1 X72.633 Y89.559 E2.00713
G1 X74.069 Y90.772 F7800.000
G1 F1800
G1 X74.069 Y91.167 E2.01135
G1 X74.837 Y91.952 F7800.000
G1 F1800
G1 X75.324 Y91.466 E2.07410
G1 X75.356 Y91.466 E2.07706
G1 X75.505 Y91.318 E2.09623
G1 X76.359 Y91.318 E2.17427
G1 X74.978 Y92.700 E2.35267
G1 X74.986 Y93.579 E2.43293
G1 X77.247 Y91.318 E2.72482
G1 X77.731 Y91.318 E2.76906
G1 X77.880 Y91.169 E2.78825
G1 X78.282 Y91.169 E2.82499
G1 X74.986 Y94.466 E3.25061
G1 X74.986 Y94.927 E3.29268
G1 X75.134 Y94.927 E3.30623
G1 X75.134 Y95.205 E3.33161
G1 X79.170 Y91.169 E3.85262
G1 X80.057 Y91.169 E3.93362
G1 X75.134 Y96.092 E4.56919
G1 X75.134 Y96.979 E4.65019
G1 X81.093 Y91.021 E5.41948
G1 X81.980 Y91.021 E5.50048
G1 X75.134 Y97.867 E6.38433
G1 X75.134 Y98.342 E6.42769
G1 X75.283 Y98.342 E6.44125
G1 X75.283 Y98.605 E6.46533
G1 X82.867 Y91.021 E7.44456
G1 X82.928 Y91.021 E7.45013
G1 X83.077 Y90.872 E7.46930
G1 X83.903 Y90.872 E7.54473
G1 X75.283 Y99.493 E8.65769
G1 X75.283 Y100.380 E8.73869
G1 X84.790 Y90.872 E9.96620
G1 X85.677 Y90.872 E10.04721
G1 X75.431 Y101.119 E11.37010
G1 X75.431 Y102.006 E11.45111
G1 X86.565 Y90.872 E12.88856
G1 X87.452 Y90.872 E12.96956
G1 X75.529 Y102.796 E14.50899
G1 X75.580 Y102.796 E14.51364
G1 X75.580 Y103.632 E14.58999
G1 X88.488 Y90.724 E16.25656
G1 X89.375 Y90.724 E16.33756
G1 X75.580 Y104.519 E18.11869
G1 X75.580 Y105.023 E18.16466
G1 X75.728 Y105.023 E18.17821
G1 X75.728 Y105.258 E18.19969
G1 X90.262 Y90.724 E20.07621
G1 X90.648 Y90.724 E20.11144
G1 X90.797 Y90.575 E20.13062
G1 X91.298 Y90.575 E20.17637
G1 X75.728 Y106.145 E22.18661
G1 X75.728 Y107.033 E22.26761
G1 X92.185 Y90.575 E24.39240
G1 X93.073 Y90.575 E24.47341
G1 X75.877 Y107.771 E26.69358
G1 X75.877 Y108.659 E26.77459
G1 X93.960 Y90.575 E29.10932
G1 X94.212 Y90.575 E29.13231
G1 X94.360 Y90.427 E29.15147
G1 X94.996 Y90.427 E29.20948
G1 X75.946 Y109.477 E31.66903
G1 X76.025 Y109.477 E31.67628
G1 X76.025 Y110.285 E31.75003
G1 X95.883 Y90.427 E34.31387
G1 X96.770 Y90.427 E34.39488
G1 X76.025 Y111.172 E37.07329
G1 X76.025 Y111.704 E37.12186
G1 X76.174 Y111.704 E37.13541
G1 X76.174 Y111.911 E37.15429
G1 X97.806 Y90.279 E39.94725
G1 X98.693 Y90.279 E40.02825
G1 X76.174 Y112.798 E42.93577
G1 X76.174 Y113.685 E43.01677
G1 X99.580 Y90.279 E46.03884
G1 X99.705 Y90.279 E46.05023
G1 X99.854 Y90.130 E46.06942
G1 X100.616 Y90.130 E46.13901
G1 X76.322 Y114.424 E49.27564
G1 X76.322 Y115.312 E49.35665
G1 X101.503 Y90.130 E52.60783
G1 X102.391 Y90.130 E52.68883
G1 X76.362 Y116.158 E56.04935
G1 X76.470 Y116.158 E56.05921
G1 X76.470 Y116.938 E56.13035
G1 X103.278 Y90.130 E59.59148
G1 X104.165 Y90.130 E59.67248
G1 X76.470 Y117.825 E63.24816
G1 X76.470 Y118.385 E63.29933
G1 X76.797 Y118.385 E63.32917
G1 X105.201 Y89.982 E66.99639
G1 X106.088 Y89.982 E67.07739
G1 X77.685 Y118.385 E70.74461
G1 X78.572 Y118.385 E70.82561
G1 X106.976 Y89.982 E74.49283
G1 X107.863 Y89.982 E74.57383
G1 X79.459 Y118.385 E78.24105
G1 X79.765 Y118.385 E78.26899
G1 X78.444 Y119.706 E78.43951
G1 X78.459 Y119.706 E78.44083
G1 X78.459 Y120.019 E78.46935
G1 X78.713 Y120.019 E78.49258
G1 X108.750 Y89.982 E82.37066
