; generated by Slic3r 1.3.0-dev on 2017-08-18 at 21:45:16

; external perimeters extrusion width = 0.40mm (1.14mm^3/s)
; perimeters extrusion width = 0.68mm (3.95mm^3/s)
; infill extrusion width = 1.20mm (9.43mm^3/s)
; solid infill extrusion width = 0.68mm (1.32mm^3/s)
; top infill extrusion width = 0.68mm (0.99mm^3/s)
; support material extrusion width = 0.40mm (2.27mm^3/s)

M107
M190 S66 ; set bed temperature and wait for it to be reached
M104 S215 ; set temperature
G28 ; home all axes
G1 Z5 F5000 ; lift nozzle

; Filament gcode

M109 S215 ; set temperature and wait for it to be reached
G21 ; set units to millimeters
G90 ; use absolute coordinates
M82 ; use absolute distances for extrusion
G92 E0
G1 Z0.350 F7800.000
G1 E-2.00000 F2400.00000
G92 E0
G1 X68.271 Y83.901 F7800.000
G1 E2.00000 F2400.00000
G1 F1800
G1 X70.160 Y82.601 E2.20854
G1 X72.916 Y82.000 E2.46505
G1 X74.398 Y82.000 E2.59984
G1 X74.906 Y82.019 E2.64607
G1 X86.465 Y82.908 E3.70023
G1 X124.936 Y88.137 E7.23053
G1 X127.159 Y88.855 E7.44297
G1 X131.605 Y91.226 E7.90113
G1 X132.996 Y92.217 E8.05640
G1 X135.071 Y94.143 E8.31385
G1 X135.604 Y94.699 E8.38389
G1 X139.902 Y99.739 E8.98615
G1 X141.431 Y101.573 E9.20325
G1 X142.090 Y102.438 E9.30215
G1 X142.892 Y103.606 E9.43098
G1 X143.815 Y105.705 E9.63953
G1 X143.770 Y109.030 E9.94183
G1 X142.654 Y111.305 E10.17224
G1 X135.692 Y120.491 E11.22033
G1 X134.973 Y121.296 E11.31847
G1 X132.011 Y124.106 E11.68969
G1 X130.100 Y125.373 E11.89823
G1 X128.448 Y125.850 E12.05459
G1 X114.814 Y127.925 E13.30856
G1 X113.817 Y128.000 E13.39944
G1 X111.199 Y128.000 E13.63755
G1 X110.317 Y127.941 E13.71791
G1 X107.612 Y126.970 E13.97923
G1 X82.271 Y110.966 E16.70453
G1 X81.285 Y110.204 E16.81789
G1 X72.097 Y101.615 E17.96154
G1 X71.643 Y101.166 E18.01960
G1 X70.573 Y99.766 E18.17983
G1 X69.980 Y98.728 E18.28846
G1 X66.780 Y92.559 E18.92039
G1 X66.062 Y90.064 E19.15649
G1 X66.018 Y89.537 E19.20462
G1 X66.006 Y88.605 E19.28930
G1 X66.509 Y86.368 E19.49784
G1 X67.939 Y84.233 E19.73149
G1 X68.228 Y83.944 E19.76870
G1 E17.76870 F2400.00000
G92 E0
G1 X127.124 Y115.932 F7800.000
G1 E2.00000 F2400.00000
G1 F1800
G1 X125.763 Y115.924 E2.12378
G1 X125.401 Y113.753 E2.32390
G1 X123.579 Y115.575 E2.55818
G1 X123.523 Y115.477 E2.56844
G1 X122.825 Y115.868 E2.64120
G1 X122.824 Y115.466 E2.67775
G1 X120.013 Y115.486 E2.93340
G1 X118.686 Y116.324 E3.07615
G1 X118.669 Y116.515 E3.09356
G1 X116.564 Y116.515 E3.28498
G1 X116.413 Y116.666 E3.30443
G1 X115.663 Y116.670 E3.37258
G1 X114.616 Y117.717 E3.50723
G1 X114.607 Y118.027 E3.53542
G1 X114.441 Y118.193 E3.55685
G1 X114.441 Y118.456 E3.58071
G1 X113.675 Y119.078 E3.67043
G1 X112.768 Y117.717 E3.81914
G1 X112.897 Y117.457 E3.84554
G1 X111.349 Y115.049 E4.10585
G1 X110.477 Y115.691 E4.20436
G1 X110.230 Y115.512 E4.23206
G1 X110.230 Y115.136 E4.26629
G1 X109.913 Y115.003 E4.29760
G1 X109.903 Y114.547 E4.33908
G1 X108.008 Y114.442 E4.51173
G1 X108.008 Y113.263 E4.61888
G1 X107.338 Y112.817 E4.69203
G1 X107.276 Y112.448 E4.72608
G1 X107.068 Y112.302 E4.74920
G1 X107.039 Y111.892 E4.78654
G1 X108.640 Y110.291 E4.99241
G1 X105.930 Y110.291 E5.23885
G1 X105.830 Y109.692 E5.29407
G1 X105.465 Y109.692 E5.32723
G1 X105.379 Y109.402 E5.35475
G1 X104.735 Y109.402 E5.41334
G1 X104.723 Y108.635 E5.48312
G1 X104.473 Y108.639 E5.50588
G1 X104.478 Y108.365 E5.53082
G1 X104.303 Y108.365 E5.54670
G1 X104.303 Y107.193 E5.65323
G1 X103.706 Y106.794 E5.71855
G1 X103.703 Y106.142 E5.77788
G1 X103.163 Y106.142 E5.82692
G1 X100.944 Y105.527 E6.03629
G1 X100.606 Y106.147 E6.10050
G1 X100.153 Y106.153 E6.14166
G1 X100.153 Y104.620 E6.28101
G1 X99.494 Y105.280 E6.36586
G1 X99.526 Y104.809 E6.40878
G1 X98.671 Y104.809 E6.48652
G1 X98.671 Y104.061 E6.55452
G1 X98.523 Y104.061 E6.56796
G1 X98.523 Y103.748 E6.59643
G1 X94.812 Y104.119 E6.93558
G1 X94.802 Y103.172 E7.02168
G1 X94.670 Y103.172 E7.03363
G1 X94.670 Y103.024 E7.04712
G1 X93.946 Y103.024 E7.11299
G1 X93.110 Y101.214 E7.29424
G1 X91.565 Y103.474 E7.54319
G1 X91.186 Y103.474 E7.57759
G1 X90.416 Y104.072 E7.66629
G1 X90.607 Y103.178 E7.74948
G1 X90.076 Y103.178 E7.79777
G1 X90.076 Y102.880 E7.82486
G1 X87.557 Y102.880 E8.05393
G1 X87.557 Y102.443 E8.09364
G1 X87.262 Y102.442 E8.12049
G1 X87.262 Y99.754 E8.36490
G1 X86.521 Y100.488 E8.45974
G1 X86.521 Y98.743 E8.61843
G1 X85.927 Y98.738 E8.67246
G1 X85.927 Y98.625 E8.68275
G1 X85.342 Y98.614 E8.73591
G1 X85.343 Y98.434 E8.75229
G1 X84.759 Y98.434 E8.80540
G1 X84.761 Y98.284 E8.81906
G1 X84.297 Y98.285 E8.86121
G1 X84.297 Y97.985 E8.88846
G1 X83.643 Y97.985 E8.94797
G1 X83.521 Y97.622 E8.98282
G1 X83.559 Y97.584 E8.98766
G1 X83.558 Y97.288 E9.01462
G1 X84.227 Y96.619 E9.10063
G1 X83.548 Y95.723 E9.20281
G1 X83.404 Y94.280 E9.33465
G1 X82.940 Y94.280 E9.37686
G1 X82.852 Y93.983 E9.40510
G1 X81.060 Y93.994 E9.56807
G1 X81.028 Y93.454 E9.61718
G1 X78.221 Y95.139 E9.91483
G1 X78.221 Y94.869 E9.93931
G1 X77.925 Y94.871 E9.96627
G1 X77.925 Y94.583 E9.99248
G1 X77.884 Y94.583 E9.99618
G1 X77.943 Y93.947 E10.05420
G1 X77.913 Y92.709 E10.16687
G1 X78.880 Y91.741 E10.29128
G1 X78.018 Y91.071 E10.39064
G1 X78.104 Y90.817 E10.41500
G1 X79.764 Y90.817 E10.56586
G1 X79.764 Y90.965 E10.57934
G1 X81.541 Y90.965 E10.74100
G1 X81.541 Y91.114 E10.75448
G1 X83.302 Y91.114 E10.91458
G1 X82.984 Y91.554 E10.96397
G1 X83.440 Y91.554 E11.00550
G1 X81.815 Y93.188 E11.21507
G1 X90.137 Y93.188 E11.97177
G1 X90.137 Y93.337 E11.98525
G1 X90.730 Y93.337 E12.03915
G1 X90.730 Y93.485 E12.05262
G1 X92.212 Y93.485 E12.18737
G1 X92.212 Y93.633 E12.20085
G1 X93.842 Y93.633 E12.34907
G1 X93.842 Y93.781 E12.36255
G1 X95.324 Y93.781 E12.49730
G1 X95.324 Y93.929 E12.51078
G1 X96.213 Y93.929 E12.59162
G1 X96.213 Y94.078 E12.60510
G1 X98.347 Y94.077 E12.79912
G1 X98.446 Y94.226 E12.81533
G1 X98.732 Y94.226 E12.84138
G1 X98.732 Y94.374 E12.85485
G1 X102.585 Y94.374 E13.20515
G1 X102.585 Y94.522 E13.21863
G1 X104.660 Y94.522 E13.40732
G1 X104.660 Y94.670 E13.42080
G1 X106.734 Y94.670 E13.60942
G1 X106.734 Y94.819 E13.62293
G1 X107.327 Y94.819 E13.67685
G1 X107.327 Y94.967 E13.69029
G1 X108.364 Y94.967 E13.78461
G1 X108.364 Y95.115 E13.79809
G1 X108.957 Y95.115 E13.85202
G1 X108.957 Y95.263 E13.86550
G1 X111.445 Y95.263 E14.09168
G1 X112.105 Y95.283 E14.15172
G1 X112.390 Y96.520 E14.26718
G1 X113.755 Y95.559 E14.41895
G1 X115.626 Y95.559 E14.58906
G1 X115.626 Y95.708 E14.60254
G1 X116.663 Y95.708 E14.69682
G1 X116.663 Y95.856 E14.71026
G1 X117.849 Y95.856 E14.81812
G1 X117.849 Y96.004 E14.83160
G1 X119.627 Y96.004 E14.99332
G1 X119.627 Y96.152 E15.00680
G1 X120.813 Y96.152 E15.11457
G1 X120.813 Y96.301 E15.12807
G1 X121.850 Y96.301 E15.22242
G1 X121.850 Y96.449 E15.23588
G1 X122.887 Y96.449 E15.33020
G1 X122.887 Y97.041 E15.38410
G1 X124.087 Y97.041 E15.49313
G1 X124.369 Y97.465 E15.53948
G1 X124.369 Y97.634 E15.55479
G1 X124.813 Y97.634 E15.59515
G1 X124.813 Y97.930 E15.62212
G1 X125.110 Y97.930 E15.64914
G1 X125.110 Y98.079 E15.66262
G1 X125.999 Y98.079 E15.74340
G1 X125.999 Y98.523 E15.78383
G1 X126.295 Y98.523 E15.81075
G1 X126.295 Y98.671 E15.82423
G1 X126.889 Y98.671 E15.87822
G1 X126.889 Y98.820 E15.89170
G1 X127.037 Y98.820 E15.90518
G1 X127.037 Y99.397 E15.95768
G1 X127.185 Y99.398 E15.97118
G1 X127.185 Y99.857 E16.01288
G1 X128.104 Y99.857 E16.09636
G1 X128.760 Y100.682 E16.19223
G1 X129.059 Y100.499 E16.22418
G1 X129.231 Y101.645 E16.32953
G1 X129.771 Y101.641 E16.37866
G1 X129.884 Y101.810 E16.39709
G1 X129.965 Y102.360 E16.44768
G1 X130.001 Y102.360 E16.45097
G1 X130.002 Y103.412 E16.54656
G1 X130.149 Y103.412 E16.55994
G1 X130.149 Y103.558 E16.57323
G1 X130.445 Y103.559 E16.60018
G1 X130.445 Y103.609 E16.60476
G1 X131.496 Y103.784 E16.70165
G1 X131.941 Y104.451 E16.77455
G1 X132.074 Y104.451 E16.78662
G1 X132.074 Y105.044 E16.84048
G1 X132.858 Y105.044 E16.91176
G1 X133.388 Y105.123 E16.96056
G1 X133.769 Y105.638 E17.01880
G1 X133.815 Y105.638 E17.02294
G1 X134.150 Y105.973 E17.06604
G1 X134.150 Y106.437 E17.10827
G1 X133.780 Y106.437 E17.14194
G1 X133.666 Y106.863 E17.18206
G1 X132.675 Y106.839 E17.27223
G1 X132.670 Y107.966 E17.37473
G1 X132.374 Y108.262 E17.41278
G1 X132.373 Y108.437 E17.42871
G1 X131.303 Y109.458 E17.56320
G1 X131.304 Y109.477 E17.56501
G1 X130.601 Y110.180 E17.65537
G1 X130.601 Y110.786 E17.71042
G1 X129.921 Y111.405 E17.79408
G1 X129.604 Y111.485 E17.82376
G1 X128.406 Y114.457 E18.11514
G1 X129.300 Y114.598 E18.19740
G1 X128.963 Y114.939 E18.24094
G1 X128.963 Y115.378 E18.28084
G1 X128.838 Y115.503 E18.29696
G1 X128.834 Y115.640 E18.30940
G1 X128.675 Y115.775 E18.32847
G1 X128.051 Y115.778 E18.38517
G1 X127.124 Y116.319 E18.48274
G1 X127.124 Y115.992 E18.51245
G1 X126.499 Y116.553 F7800.000
G1 F1800
G1 X125.233 Y116.545 E18.62759
G1 X124.985 Y115.053 E18.76513
G1 X123.446 Y116.592 E18.96297
G1 X123.291 Y116.324 E18.99116
G1 X122.567 Y116.729 E19.06658
G1 X122.201 Y116.720 E19.09990
G1 X122.200 Y116.096 E19.15665
G1 X120.196 Y116.110 E19.33892
G1 X119.281 Y116.687 E19.43727
G1 X119.261 Y116.919 E19.45843
G1 X119.089 Y117.003 E19.47586
G1 X118.938 Y117.140 E19.49438
G1 X116.822 Y117.140 E19.68675
G1 X116.672 Y117.290 E19.70605
G1 X115.923 Y117.293 E19.77418
G1 X115.234 Y117.983 E19.86283
G1 X115.225 Y118.293 E19.89102
G1 X115.065 Y118.452 E19.91152
G1 X115.065 Y118.834 E19.94626
G1 X114.712 Y119.141 E19.98883
G1 X114.677 Y119.068 E19.99616
G1 X113.352 Y120.145 E20.15139
G1 X113.019 Y119.903 E20.18883
G1 X112.376 Y119.795 E20.24818
G1 X111.690 Y119.898 E20.31119
G1 X111.683 Y119.322 E20.36362
G1 X112.831 Y118.939 E20.47371
G1 X112.046 Y117.762 E20.60233
G1 X112.179 Y117.496 E20.62936
G1 X111.184 Y115.947 E20.79680
G1 X110.673 Y116.323 E20.85446
G1 X110.238 Y116.291 E20.89411
G1 X109.909 Y116.051 E20.93117
G1 X109.855 Y116.041 E20.93610
G1 X109.711 Y115.945 E20.95189
G1 X109.606 Y115.833 E20.96589
G1 X109.606 Y115.552 E20.99140
G1 X109.296 Y115.423 E21.02188
G1 X109.290 Y115.139 E21.04774
G1 X107.383 Y115.033 E21.22147
G1 X107.383 Y113.598 E21.35196
G1 X106.880 Y113.263 E21.40685
G1 X106.759 Y113.142 E21.42244
G1 X106.703 Y112.809 E21.45310
G1 X106.465 Y112.642 E21.47952
G1 X106.427 Y112.101 E21.52879
G1 X105.946 Y112.101 E21.57258
G1 X107.131 Y110.916 E21.72503
G1 X105.400 Y110.916 E21.88241
G1 X105.301 Y110.317 E21.93764
G1 X104.999 Y110.317 E21.96509
G1 X104.913 Y110.027 E21.99260
G1 X104.119 Y110.027 E22.06476
G1 X104.108 Y109.270 E22.13361
G1 X103.838 Y109.274 E22.15818
G1 X103.842 Y108.989 E22.18408
G1 X103.678 Y108.989 E22.19902
G1 X103.678 Y107.527 E22.33197
G1 X103.082 Y107.130 E22.39712
G1 X103.081 Y106.767 E22.43014
G1 X102.789 Y106.767 E22.45667
G1 X102.789 Y106.687 E22.46395
G1 X101.255 Y106.262 E22.60864
G1 X100.979 Y106.768 E22.66102
G1 X100.366 Y106.775 E22.71678
G1 X99.529 Y107.237 E22.80378
G1 X99.529 Y106.129 E22.90457
G1 X98.756 Y106.902 E23.00397
G1 X98.857 Y105.434 E23.13778
G1 X98.047 Y105.433 E23.21145
G1 X98.046 Y104.686 E23.27941
G1 X97.898 Y104.686 E23.29288
G1 X97.898 Y104.438 E23.31538
G1 X94.194 Y104.809 E23.65387
G1 X94.183 Y103.797 E23.74587
G1 X94.045 Y103.797 E23.75842
G1 X94.045 Y103.648 E23.77191
G1 X93.546 Y103.648 E23.81731
G1 X93.005 Y102.475 E23.93479
G1 X91.895 Y104.098 E24.11350
G1 X91.401 Y104.099 E24.15840
G1 X91.121 Y104.317 E24.19069
G1 X90.627 Y104.563 E24.24087
G1 X90.341 Y104.586 E24.26698
G1 X90.341 Y104.544 E24.27085
G1 X89.676 Y104.544 E24.33132
G1 X89.834 Y103.803 E24.40023
G1 X89.451 Y103.803 E24.43505
G1 X89.451 Y103.505 E24.46214
G1 X86.932 Y103.505 E24.69122
G1 X86.932 Y103.066 E24.73115
G1 X86.637 Y103.064 E24.75800
G1 X86.637 Y101.253 E24.92273
G1 X86.318 Y101.569 E24.96358
G1 X85.384 Y101.573 E25.04849
G1 X85.896 Y101.002 E25.11825
G1 X85.896 Y99.363 E25.26725
G1 X85.302 Y99.358 E25.32128
G1 X85.302 Y99.238 E25.33220
G1 X84.714 Y99.227 E25.38564
G1 X84.715 Y99.059 E25.40091
G1 X84.127 Y99.060 E25.45435
G1 X84.129 Y98.910 E25.46797
G1 X83.672 Y98.911 E25.50950
G1 X83.672 Y98.610 E25.53683
G1 X83.192 Y98.610 E25.58047
G1 X82.806 Y97.453 E25.69140
G1 X82.933 Y97.326 E25.70771
G1 X82.932 Y97.030 E25.73467
G1 X83.400 Y96.562 E25.79479
G1 X82.944 Y95.960 E25.86344
G1 X82.839 Y94.905 E25.95985
G1 X82.474 Y94.905 E25.99303
G1 X82.386 Y94.610 E26.02101
G1 X80.965 Y94.619 E26.15027
G1 X80.485 Y94.876 E26.19975
G1 X80.464 Y94.521 E26.23209
G1 X78.775 Y95.535 E26.41127
G1 X78.639 Y95.650 E26.42743
G1 X78.410 Y95.648 E26.44826
G1 X78.279 Y95.794 E26.46607
G1 X77.966 Y95.782 E26.49457
G1 X77.596 Y96.211 E26.54604
G1 X77.596 Y95.497 E26.61090
G1 X77.300 Y95.499 E26.63786
G1 X77.300 Y95.208 E26.66436
G1 X77.199 Y95.208 E26.67354
G1 X77.317 Y93.926 E26.79056
G1 X77.282 Y92.456 E26.92428
G1 X77.938 Y91.800 E27.00863
G1 X77.059 Y91.117 E27.10982
G1 X77.502 Y90.425 E27.18456
G1 X77.330 Y90.310 E27.20336
G1 X77.411 Y90.044 E27.22866
G1 X78.610 Y90.044 E27.33768
G1 X78.610 Y90.192 E27.35116
G1 X80.388 Y90.192 E27.51286
G1 X80.388 Y90.341 E27.52633
G1 X82.166 Y90.341 E27.68799
G1 X82.166 Y90.489 E27.70147
G1 X84.526 Y90.489 E27.91603
G1 X84.207 Y90.929 E27.96542
G1 X84.943 Y90.929 E28.03230
G1 X83.318 Y92.563 E28.24188
G1 X88.093 Y92.564 E28.67608
G1 X88.152 Y92.415 E28.69060
G1 X89.132 Y92.415 E28.77968
G1 X89.132 Y92.563 E28.79316
G1 X90.762 Y92.563 E28.94138
G1 X90.762 Y92.712 E28.95486
G1 X91.355 Y92.712 E29.00876
G1 X91.355 Y92.860 E29.02223
G1 X92.837 Y92.860 E29.15698
G1 X92.837 Y93.008 E29.17046
G1 X94.467 Y93.008 E29.31868
G1 X94.467 Y93.156 E29.33216
G1 X95.949 Y93.156 E29.46691
G1 X95.949 Y93.304 E29.48039
G1 X96.838 Y93.304 E29.56123
G1 X96.838 Y93.453 E29.57471
G1 X98.680 Y93.453 E29.74226
G1 X98.780 Y93.601 E29.75847
G1 X99.357 Y93.601 E29.81099
G1 X99.357 Y93.749 E29.82446
G1 X103.210 Y93.749 E30.17477
G1 X103.210 Y93.897 E30.18824
G1 X105.285 Y93.897 E30.37693
G1 X105.285 Y94.045 E30.39041
G1 X107.359 Y94.045 E30.57903
G1 X107.359 Y94.194 E30.59253
G1 X107.952 Y94.194 E30.64645
G1 X107.952 Y94.342 E30.65991
G1 X108.989 Y94.342 E30.75423
G1 X108.989 Y94.490 E30.76770
G1 X109.582 Y94.490 E30.82163
G1 X109.582 Y94.638 E30.83511
G1 X111.263 Y94.632 E30.98797
G1 X112.605 Y94.673 E31.11005
G1 X112.790 Y95.474 E31.18484
G1 X113.768 Y94.786 E31.29352
G1 X114.324 Y94.786 E31.34416
G1 X114.324 Y94.935 E31.35763
G1 X116.251 Y94.935 E31.53278
G1 X116.251 Y95.083 E31.54626
G1 X117.288 Y95.083 E31.64054
G1 X117.288 Y95.231 E31.65400
G1 X118.474 Y95.231 E31.76186
G1 X118.474 Y95.379 E31.77533
G1 X120.252 Y95.379 E31.93705
G1 X120.252 Y95.527 E31.95052
G1 X121.437 Y95.527 E32.05830
G1 X121.437 Y95.676 E32.07180
G1 X122.475 Y95.676 E32.16614
G1 X122.475 Y95.824 E32.17960
G1 X123.512 Y95.824 E32.27393
G1 X123.512 Y96.416 E32.32783
G1 X124.421 Y96.416 E32.41044
G1 X124.685 Y96.813 E32.45375
G1 X124.994 Y96.843 E32.48199
G1 X124.994 Y97.009 E32.49709
G1 X125.438 Y97.009 E32.53748
G1 X125.438 Y97.306 E32.56444
G1 X125.735 Y97.306 E32.59144
G1 X125.735 Y97.454 E32.60491
G1 X126.624 Y97.454 E32.68570
G1 X126.624 Y97.898 E32.72612
G1 X126.920 Y97.898 E32.75305
G1 X126.920 Y98.047 E32.76652
G1 X127.513 Y98.047 E32.82051
G1 X127.513 Y98.195 E32.83399
G1 X127.662 Y98.195 E32.84748
G1 X127.662 Y98.778 E32.90052
G1 X127.810 Y98.780 E32.91401
G1 X127.810 Y99.232 E32.95516
G1 X128.405 Y99.232 E33.00925
G1 X128.905 Y99.861 E33.08227
G1 X129.117 Y99.731 E33.10490
G1 X129.584 Y99.783 E33.14762
G1 X129.769 Y101.016 E33.26102
G1 X130.104 Y101.014 E33.29153
G1 X130.200 Y101.159 E33.30734
G1 X130.308 Y101.159 E33.31711
G1 X130.447 Y101.346 E33.33830
G1 X130.505 Y101.741 E33.37466
G1 X130.626 Y101.743 E33.38563
G1 X130.626 Y102.787 E33.48062
G1 X130.774 Y102.788 E33.49403
G1 X130.774 Y102.935 E33.50740
G1 X131.070 Y102.935 E33.53435
G1 X131.070 Y103.080 E33.54748
G1 X131.821 Y103.205 E33.61673
G1 X131.940 Y103.324 E33.63204
G1 X132.275 Y103.826 E33.68695
G1 X132.424 Y103.826 E33.70043
G1 X132.699 Y104.239 E33.74551
G1 X132.699 Y104.419 E33.76185
G1 X132.904 Y104.419 E33.78052
G1 X133.737 Y104.543 E33.85709
G1 X134.084 Y105.013 E33.91025
G1 X134.250 Y105.013 E33.92532
G1 X134.281 Y105.220 E33.94437
G1 X134.608 Y105.547 E33.98642
G1 X134.775 Y105.797 E34.01380
G1 X134.775 Y106.098 E34.04114
