; generated by Slic3r 1.3.0-dev on 2017-08-18 at 21:45:56

; external perimeters extrusion width = 0.40mm (1.14mm^3/s)
; perimeters extrusion width = 0.68mm (3.95mm^3/s)
; infill extrusion width = 1.20mm (9.43mm^3/s)
; solid infill extrusion width = 0.68mm (1.32mm^3/s)
; top infill extrusion width = 0.68mm (0.99mm^3/s)
; support material extrusion width = 0.40mm (2.27mm^3/s)

M107
M190 S66 ; set bed temperature and wait for it to be reached
M104 S215 ; set temperature
G28 ; home all axes
G1 Z5 F5000 ; lift nozzle

; Filament gcode

M109 S215 ; set temperature and wait for it to be reached
G21 ; set units to millimeters
G90 ; use absolute coordinates
M82 ; use absolute distances for extrusion
G92 E0
G1 Z0.350 F7800.000
G1 E-2.00000 F2400.00000
G92 E0
G1 X77.622 Y84.823 F7800.000
G1 E2.00000 F2400.00000
G1 F1800
G1 X79.500 Y83.507 E2.20854
G1 X80.971 Y83.019 E2.34953
G1 X110.281 Y76.990 E5.07041
G1 X111.454 Y76.856 E5.17780
G1 X125.517 Y76.519 E6.45686
G1 X127.977 Y76.993 E6.68470
G1 X130.489 Y77.997 E6.93073
G1 X132.439 Y79.205 E7.13927
G1 X133.420 Y80.298 E7.27279
G1 X134.257 Y81.470 E7.40380
G1 X134.792 Y82.358 E7.49804
G1 X135.127 Y83.028 E7.56615
G1 X135.747 Y84.973 E7.75174
G1 X136.920 Y92.509 E8.44529
G1 X136.998 Y93.528 E8.53816
G1 X136.998 Y94.532 E8.62953
G1 X136.870 Y95.832 E8.74825
G1 X136.702 Y96.669 E8.82590
G1 X135.502 Y99.349 E9.09292
G1 X112.222 Y130.333 E12.61691
G1 X111.619 Y131.030 E12.70069
G1 X111.276 Y131.373 E12.74487
G1 X109.398 Y132.690 E12.95342
G1 X108.198 Y133.116 E13.06920
G1 X107.528 Y133.283 E13.13199
G1 X105.921 Y133.481 E13.27919
G1 X105.586 Y133.481 E13.30965
G1 X83.776 Y132.808 E15.29381
G1 X79.372 Y132.639 E15.69454
G1 X77.130 Y132.155 E15.90308
G1 X75.187 Y130.936 E16.11162
G1 X73.777 Y129.128 E16.32017
G1 X73.002 Y126.019 E16.61154
G1 X73.002 Y119.822 E17.17501
G1 X73.173 Y114.577 E17.65221
G1 X74.689 Y90.267 E19.86699
G1 X75.227 Y88.037 E20.07554
G1 X76.001 Y86.705 E20.21566
G1 X76.504 Y86.035 E20.29181
G1 X77.119 Y85.326 E20.37722
G1 X77.579 Y84.866 E20.43637
G1 E18.43637 F2400.00000
G92 E0
G1 X104.824 Y120.735 F7800.000
G1 E2.00000 F2400.00000
G1 F1800
G1 X104.824 Y122.409 E2.15229
G1 X104.656 Y122.409 E2.16752
G1 X104.656 Y124.686 E2.37456
G1 X104.254 Y125.089 E2.42635
G1 X103.669 Y125.089 E2.47953
G1 X103.669 Y124.922 E2.49475
G1 X100.151 Y124.922 E2.81459
G1 X100.151 Y124.754 E2.82982
G1 X93.787 Y124.754 E3.40851
G1 X93.787 Y124.587 E3.42373
G1 X85.581 Y124.587 E4.16996
G1 X85.581 Y124.419 E4.18519
G1 X81.226 Y124.419 E4.58112
G1 X81.226 Y120.485 E4.93889
G1 X81.394 Y120.317 E4.96043
G1 X81.394 Y115.393 E5.40821
G1 X82.399 Y115.393 E5.49959
G1 X82.399 Y114.455 E5.58480
G1 X82.634 Y114.220 E5.61505
G1 X83.404 Y114.220 E5.68503
G1 X83.404 Y113.116 E5.78547
G1 X85.834 Y110.686 E6.09795
G1 X85.164 Y110.686 E6.15886
G1 X86.001 Y109.848 E6.26655
G1 X84.743 Y109.848 E6.38090
G1 X84.743 Y109.096 E6.44930
G1 X85.078 Y108.761 E6.49238
G1 X85.078 Y108.358 E6.52900
G1 X85.581 Y108.358 E6.57468
G1 X85.581 Y107.353 E6.66606
G1 X86.251 Y107.353 E6.72698
G1 X86.251 Y106.081 E6.84265
G1 X88.681 Y103.651 E7.15512
G1 X86.838 Y103.651 E7.32263
G1 X88.848 Y101.642 E7.58108
G1 X86.418 Y101.642 E7.80203
G1 X86.418 Y101.474 E7.81726
G1 X86.251 Y101.474 E7.83249
G1 X86.251 Y100.302 E7.93909
G1 X86.083 Y100.302 E7.95431
G1 X86.083 Y100.134 E7.96954
G1 X85.916 Y100.134 E7.98477
G1 X85.916 Y99.799 E8.01523
G1 X85.748 Y99.799 E8.03046
G1 X85.748 Y98.962 E8.10661
G1 X85.581 Y98.962 E8.12180
G1 X85.581 Y98.794 E8.13703
G1 X85.413 Y98.794 E8.15230
G1 X85.413 Y98.627 E8.16753
G1 X84.829 Y98.627 E8.22070
G1 X87.341 Y96.115 E8.54375
G1 X85.078 Y96.115 E8.74947
G1 X85.078 Y91.945 E9.12861
G1 X85.898 Y91.945 E9.20317
G1 X85.898 Y92.113 E9.21840
G1 X89.501 Y92.113 E9.54595
G1 X89.668 Y91.945 E9.56749
G1 X90.171 Y91.945 E9.61318
G1 X90.338 Y91.778 E9.63472
G1 X90.841 Y91.778 E9.68040
G1 X91.008 Y91.610 E9.70194
G1 X91.343 Y91.610 E9.73240
G1 X91.510 Y91.443 E9.75394
G1 X91.678 Y91.443 E9.76916
G1 X91.845 Y91.275 E9.79070
G1 X92.180 Y91.275 E9.82116
G1 X92.348 Y91.108 E9.84270
G1 X92.515 Y91.108 E9.85793
G1 X92.683 Y90.940 E9.87946
G1 X92.850 Y90.940 E9.89469
G1 X93.018 Y90.773 E9.91623
G1 X93.353 Y90.773 E9.94669
G1 X93.520 Y90.605 E9.96822
G1 X93.855 Y90.605 E9.99868
G1 X94.023 Y90.438 E10.02022
G1 X94.358 Y90.438 E10.05068
G1 X94.525 Y90.270 E10.07221
G1 X95.028 Y90.270 E10.11790
G1 X95.195 Y90.103 E10.13944
G1 X96.450 Y90.103 E10.25353
G1 X96.450 Y94.542 E10.65722
G1 X96.952 Y94.040 E10.72183
G1 X96.952 Y94.710 E10.78275
G1 X98.627 Y93.035 E10.99812
G1 X98.627 Y95.548 E11.22657
G1 X100.889 Y93.285 E11.51752
G1 X101.809 Y93.285 E11.60115
G1 X101.809 Y94.710 E11.73072
G1 X104.489 Y92.030 E12.07531
G1 X104.489 Y92.365 E12.10577
G1 X107.589 Y89.265 E12.50439
G1 X109.196 Y89.265 E12.65052
G1 X109.196 Y88.161 E12.75096
G1 X110.033 Y87.323 E12.85864
G1 X110.033 Y86.586 E12.92572
G1 X110.268 Y86.586 E12.94711
G1 X110.436 Y86.418 E12.96865
G1 X110.938 Y86.418 E13.01434
G1 X111.356 Y86.001 E13.06800
G1 X111.356 Y86.586 E13.12117
G1 X111.691 Y86.586 E13.15163
G1 X111.691 Y86.921 E13.18208
G1 X111.858 Y86.921 E13.19731
G1 X111.858 Y87.088 E13.21254
G1 X112.026 Y87.088 E13.22777
G1 X112.026 Y89.686 E13.46395
G1 X113.533 Y88.178 E13.65778
G1 X113.533 Y91.025 E13.91668
G1 X114.370 Y90.188 E14.02437
G1 X114.370 Y90.523 E14.05482
G1 X116.968 Y87.926 E14.38883
G1 X117.135 Y87.926 E14.40406
G1 X117.887 Y87.173 E14.50079
G1 X117.887 Y87.758 E14.55397
G1 X118.222 Y87.758 E14.58442
G1 X118.222 Y87.926 E14.59965
G1 X118.390 Y87.926 E14.61488
G1 X118.390 Y88.093 E14.63011
G1 X118.557 Y88.093 E14.64534
G1 X118.557 Y88.261 E14.66057
G1 X118.725 Y88.261 E14.67580
G1 X118.725 Y88.428 E14.69103
G1 X118.892 Y88.428 E14.70626
G1 X118.892 Y88.596 E14.72149
G1 X119.227 Y88.596 E14.75194
G1 X119.227 Y88.763 E14.76717
G1 X120.400 Y88.763 E14.87378
G1 X120.400 Y90.018 E14.98787
G1 X118.305 Y92.113 E15.25726
G1 X119.142 Y92.113 E15.33339
G1 X118.807 Y92.448 E15.37647
G1 X119.979 Y92.448 E15.48307
G1 X118.725 Y93.702 E15.64442
G1 X118.725 Y95.880 E15.84240
G1 X117.635 Y96.970 E15.98256
G1 X120.232 Y96.970 E16.21873
G1 X120.232 Y97.137 E16.23396
G1 X120.400 Y97.137 E16.24919
G1 X120.400 Y97.472 E16.27965
G1 X120.567 Y97.472 E16.29488
G1 X120.567 Y97.889 E16.33282
G1 X120.232 Y98.224 E16.37589
G1 X120.232 Y98.392 E16.39111
G1 X120.065 Y98.559 E16.41265
G1 X120.065 Y98.894 E16.44311
G1 X119.227 Y99.732 E16.55083
G1 X119.227 Y99.899 E16.56603
G1 X118.725 Y100.402 E16.63064
G1 X118.725 Y100.569 E16.64587
G1 X118.557 Y100.736 E16.66740
G1 X118.557 Y101.071 E16.69786
G1 X118.390 Y101.239 E16.71940
G1 X118.390 Y103.584 E16.93261
G1 X118.155 Y103.819 E16.96286
G1 X116.063 Y103.819 E17.15310
G1 X116.063 Y103.651 E17.16832
G1 X114.052 Y103.651 E17.35115
G1 X114.052 Y103.484 E17.36638
G1 X111.205 Y103.484 E17.62521
G1 X111.205 Y103.316 E17.64044
G1 X108.190 Y103.316 E17.91457
G1 X108.190 Y103.149 E17.92980
G1 X104.841 Y103.149 E18.23434
G1 X104.841 Y102.982 E18.24957
G1 X101.474 Y102.982 E18.55573
G1 X101.474 Y104.923 E18.73231
G1 X101.307 Y105.091 E18.75387
G1 X101.307 Y105.662 E18.80576
G1 X100.972 Y105.662 E18.83621
G1 X100.972 Y108.943 E19.13455
G1 X99.211 Y110.704 E19.36101
G1 X100.551 Y110.704 E19.48291
G1 X99.714 Y111.540 E19.59052
G1 X101.977 Y111.540 E19.79624
G1 X101.977 Y113.215 E19.94853
G1 X103.149 Y113.215 E20.05508
G1 X103.149 Y114.469 E20.16911
G1 X101.888 Y115.730 E20.33122
G1 X104.321 Y115.728 E20.55248
G1 X104.321 Y115.895 E20.56762
G1 X104.489 Y115.895 E20.58285
G1 X104.489 Y116.312 E20.62080
G1 X102.729 Y118.072 E20.84711
G1 X104.991 Y118.072 E21.05283
G1 X104.991 Y119.580 E21.18989
G1 X105.494 Y119.580 E21.23557
G1 X105.494 Y119.747 E21.25080
G1 X105.911 Y119.747 E21.28875
G1 X105.326 Y120.332 E21.36394
G1 X105.326 Y120.735 E21.40056
G1 X104.884 Y120.735 E21.44079
G1 X105.449 Y121.359 F7800.000
G1 F1800
G1 X105.449 Y123.034 E21.59308
G1 X105.281 Y123.034 E21.60831
G1 X105.281 Y124.945 E21.78207
G1 X104.779 Y125.448 E21.84668
G1 X104.779 Y125.714 E21.87090
G1 X103.044 Y125.714 E22.02865
G1 X103.044 Y125.546 E22.04388
G1 X99.527 Y125.546 E22.36370
G1 X99.527 Y125.379 E22.37893
G1 X93.162 Y125.379 E22.95762
G1 X93.162 Y125.212 E22.97285
G1 X84.956 Y125.212 E23.71907
G1 X84.956 Y125.044 E23.73430
G1 X80.601 Y125.044 E24.13024
G1 X80.601 Y120.226 E24.56836
G1 X80.769 Y120.058 E24.58991
G1 X80.769 Y115.201 E25.03153
G1 X81.203 Y114.768 E25.08732
G1 X81.774 Y114.768 E25.13924
G1 X81.774 Y114.197 E25.19117
G1 X82.375 Y113.595 E25.26849
G1 X82.779 Y113.595 E25.30519
G1 X82.779 Y112.857 E25.37235
G1 X84.325 Y111.311 E25.57118
G1 X83.655 Y111.311 E25.63210
G1 X84.492 Y110.473 E25.73978
G1 X83.784 Y110.473 E25.80423
G1 X83.784 Y109.743 E25.87060
G1 X84.118 Y109.743 E25.90105
G1 X84.119 Y108.837 E25.98344
G1 X84.454 Y108.502 E26.02651
G1 X84.454 Y107.733 E26.09641
G1 X84.956 Y107.733 E26.14210
G1 X84.956 Y106.729 E26.23348
G1 X85.626 Y106.729 E26.29439
G1 X85.626 Y105.823 E26.37678
G1 X87.172 Y104.276 E26.57561
G1 X85.961 Y104.276 E26.68574
G1 X85.961 Y103.645 E26.74312
G1 X87.340 Y102.267 E26.92042
G1 X85.793 Y102.267 E27.06101
G1 X85.793 Y102.099 E27.07624
G1 X85.626 Y102.099 E27.09147
G1 X85.626 Y100.927 E27.19807
G1 X85.458 Y100.927 E27.21330
G1 X85.458 Y100.759 E27.22853
G1 X85.291 Y100.759 E27.24375
G1 X85.291 Y100.424 E27.27421
G1 X85.123 Y100.424 E27.28944
G1 X85.123 Y99.587 E27.36559
G1 X84.956 Y99.587 E27.38079
G1 X84.956 Y99.419 E27.39602
G1 X84.788 Y99.419 E27.41128
G1 X84.788 Y99.252 E27.42651
G1 X84.454 Y99.252 E27.45697
G1 X84.454 Y98.582 E27.51788
G1 X84.286 Y98.582 E27.53311
G1 X84.286 Y98.286 E27.56004
G1 X85.832 Y96.740 E27.75886
G1 X84.454 Y96.740 E27.88422
G1 X84.454 Y92.553 E28.26494
G1 X84.286 Y92.553 E28.28017
G1 X84.286 Y92.385 E28.29540
G1 X84.119 Y92.385 E28.31063
G1 X84.119 Y92.218 E28.32586
G1 X83.951 Y92.218 E28.34109
G1 X83.951 Y92.050 E28.35632
G1 X83.655 Y92.050 E28.38324
G1 X84.385 Y91.320 E28.47711
G1 X86.523 Y91.320 E28.67155
G1 X86.523 Y91.488 E28.68678
G1 X89.242 Y91.488 E28.93398
G1 X89.409 Y91.320 E28.95551
G1 X89.912 Y91.320 E29.00120
G1 X90.079 Y91.153 E29.02274
G1 X90.582 Y91.153 E29.06843
G1 X90.749 Y90.985 E29.08996
G1 X91.084 Y90.985 E29.12042
G1 X91.252 Y90.818 E29.14196
G1 X91.419 Y90.818 E29.15719
G1 X91.587 Y90.650 E29.17872
G1 X91.922 Y90.650 E29.20918
G1 X92.089 Y90.483 E29.23072
G1 X92.257 Y90.483 E29.24595
G1 X92.424 Y90.315 E29.26749
G1 X92.591 Y90.315 E29.28271
G1 X92.759 Y90.148 E29.30425
G1 X93.094 Y90.148 E29.33471
G1 X93.261 Y89.980 E29.35625
G1 X93.596 Y89.980 E29.38670
G1 X93.764 Y89.813 E29.40824
G1 X94.099 Y89.813 E29.43870
G1 X94.266 Y89.645 E29.46024
G1 X94.769 Y89.645 E29.50592
G1 X94.936 Y89.478 E29.52746
G1 X95.774 Y89.478 E29.60361
G1 X95.941 Y89.310 E29.62514
G1 X96.907 Y89.310 E29.71299
G1 X96.907 Y89.478 E29.72821
G1 X97.075 Y89.478 E29.74344
G1 X97.075 Y89.645 E29.75867
G1 X97.371 Y89.645 E29.78560
G1 X97.075 Y89.942 E29.82368
G1 X97.075 Y93.034 E30.10486
G1 X97.577 Y92.531 E30.16947
G1 X97.577 Y93.201 E30.23039
G1 X98.917 Y91.862 E30.40269
G1 X98.917 Y92.158 E30.42961
G1 X99.252 Y92.158 E30.46007
G1 X99.252 Y94.039 E30.63113
G1 X100.631 Y92.660 E30.80844
G1 X102.434 Y92.660 E30.97242
G1 X102.434 Y93.201 E31.02164
G1 X104.551 Y91.084 E31.29390
G1 X104.551 Y90.650 E31.33335
G1 X105.114 Y90.650 E31.38449
G1 X105.114 Y90.857 E31.40325
G1 X107.330 Y88.641 E31.68823
G1 X108.571 Y88.641 E31.80107
G1 X108.571 Y87.902 E31.86823
G1 X109.408 Y87.065 E31.97592
G1 X109.408 Y86.395 E32.03683
G1 X109.842 Y85.961 E32.09262
G1 X110.010 Y85.961 E32.10785
G1 X110.177 Y85.793 E32.12938
G1 X110.679 Y85.793 E32.17507
G1 X110.847 Y85.626 E32.19661
G1 X111.014 Y85.626 E32.21184
G1 X111.478 Y85.162 E32.27145
G1 X111.478 Y85.458 E32.29838
G1 X111.981 Y85.458 E32.34406
G1 X111.981 Y85.961 E32.38975
G1 X112.315 Y85.961 E32.42021
G1 X112.315 Y86.296 E32.45067
G1 X112.483 Y86.296 E32.46590
G1 X112.483 Y86.463 E32.48113
G1 X112.650 Y86.463 E32.49635
G1 X112.650 Y88.177 E32.65218
G1 X113.359 Y87.468 E32.74332
G1 X113.990 Y87.468 E32.80071
G1 X113.990 Y87.636 E32.81593
G1 X114.158 Y87.636 E32.83116
G1 X114.158 Y89.517 E33.00222
G1 X114.995 Y88.679 E33.10990
G1 X114.995 Y89.014 E33.14036
G1 X116.709 Y87.301 E33.36073
G1 X116.876 Y87.301 E33.37596
G1 X117.615 Y86.562 E33.47093
G1 X117.615 Y86.296 E33.49515
G1 X118.010 Y86.296 E33.53106
G1 X118.010 Y86.631 E33.56152
G1 X118.345 Y86.631 E33.59198
G1 X118.345 Y86.798 E33.60721
G1 X118.512 Y86.798 E33.62244
G1 X118.512 Y87.133 E33.65289
G1 X118.847 Y87.133 E33.68335
G1 X118.847 Y87.301 E33.69858
G1 X119.015 Y87.301 E33.71381
G1 X119.015 Y87.468 E33.72904
G1 X119.182 Y87.468 E33.74427
G1 X119.182 Y87.636 E33.75950
G1 X119.350 Y87.636 E33.77473
G1 X119.350 Y87.803 E33.78996
G1 X119.517 Y87.803 E33.80518
G1 X119.517 Y87.971 E33.82041
G1 X119.852 Y87.971 E33.85087
G1 X119.852 Y88.138 E33.86610
G1 X121.025 Y88.138 E33.97270
G1 X121.025 Y89.517 E34.09806
G1 X121.359 Y89.182 E34.14114
G1 X121.359 Y89.942 E34.21022
G1 X119.813 Y91.488 E34.40905
G1 X120.651 Y91.488 E34.48519
G1 X120.316 Y91.823 E34.52826
G1 X121.359 Y91.823 E34.62317
G1 X121.359 Y92.454 E34.68055
G1 X120.758 Y93.055 E34.75788
G1 X120.256 Y93.055 E34.80356
G1 X119.350 Y93.961 E34.92008
G1 X119.350 Y95.675 E35.07590
G1 X119.517 Y95.675 E35.09113
G1 X119.517 Y95.971 E35.11806
G1 X119.143 Y96.345 E35.16612
G1 X120.857 Y96.345 E35.32193
G1 X120.857 Y96.512 E35.33716
G1 X121.025 Y96.512 E35.35239
G1 X121.025 Y96.847 E35.38285
G1 X121.192 Y96.847 E35.39808
G1 X121.192 Y97.182 E35.42854
G1 X121.488 Y97.182 E35.45546
G1 X121.192 Y97.478 E35.49354
G1 X121.192 Y98.148 E35.55446
G1 X120.857 Y98.483 E35.59753
G1 X120.857 Y98.651 E35.61275
G1 X120.690 Y98.818 E35.63429
G1 X120.690 Y99.153 E35.66474
G1 X119.852 Y99.991 E35.77245
G1 X119.852 Y100.158 E35.78767
G1 X119.350 Y100.660 E35.85228
G1 X119.350 Y100.828 E35.86751
G1 X119.182 Y100.995 E35.88904
G1 X119.182 Y101.330 E35.91950
G1 X119.015 Y101.498 E35.94104
G1 X119.015 Y103.843 E36.15425
G1 X118.246 Y104.611 E36.25311
G1 X117.447 Y104.611 E36.32579
G1 X117.447 Y104.444 E36.34102
G1 X115.438 Y104.444 E36.52369
G1 X115.438 Y104.276 E36.53892
G1 X113.427 Y104.276 E36.72171
G1 X113.427 Y104.109 E36.73694
G1 X110.580 Y104.109 E36.99580
G1 X110.580 Y103.941 E37.01103
G1 X107.566 Y103.941 E37.28515
G1 X107.566 Y103.774 E37.30038
G1 X104.216 Y103.774 E37.60493
G1 X104.216 Y103.606 E37.62016
G1 X102.099 Y103.606 E37.81268
G1 X102.099 Y105.182 E37.95598
G1 X101.931 Y105.350 E37.97753
G1 X101.932 Y106.286 E38.06268
G1 X101.597 Y106.287 E38.09314
G1 X101.597 Y108.403 E38.28563
G1 X102.395 Y108.403 E38.35824
G1 X100.720 Y110.079 E38.57369
G1 X102.060 Y110.078 E38.69557
G1 X101.223 Y110.916 E38.80322
G1 X102.601 Y110.916 E38.92856
G1 X102.602 Y112.590 E39.08085
G1 X103.774 Y112.590 E39.18742
G1 X103.774 Y113.595 E39.27878
G1 X103.941 Y113.595 E39.29401
G1 X103.941 Y113.763 E39.30925
G1 X104.109 Y113.763 E39.32448
G1 X104.109 Y114.393 E39.38183
G1 X103.398 Y115.104 E39.47323
G1 X104.946 Y115.103 E39.61401
G1 X104.946 Y115.270 E39.62919
G1 X105.114 Y115.270 E39.64442
G1 X105.114 Y115.438 E39.65965
G1 X105.449 Y115.438 E39.69010
G1 X105.449 Y116.236 E39.76272
G1 X104.238 Y117.447 E39.91847
G1 X105.616 Y117.447 E40.04383
G1 X105.616 Y118.955 E40.18089
G1 X106.119 Y118.955 E40.22658
G1 X106.119 Y119.122 E40.24181
G1 X106.621 Y119.122 E40.28749
G1 X106.621 Y119.921 E40.36011
G1 X105.951 Y120.591 E40.44625
G1 X105.951 Y121.359 E40.51616
G1 X105.509 Y121.359 E40.55639
G1 X106.074 Y121.984 F7800.000
G1 F1800
G1 X106.074 Y123.019 E40.65049
G1 X106.241 Y123.019 E40.66572
G1 X106.241 Y123.659 E40.72391
G1 X105.906 Y123.659 E40.75436
G1 X105.906 Y125.334 E40.90666
G1 X105.776 Y125.334 E40.91847
G1 X105.404 Y125.706 E40.96637
G1 X105.404 Y126.339 E41.02387
G1 X102.419 Y126.339 E41.29526
G1 X102.419 Y126.171 E41.31049
G1 X98.902 Y126.171 E41.63031
G1 X98.902 Y126.004 E41.64553
G1 X97.569 Y126.004 E41.76671
G1 X97.402 Y126.171 E41.78824
G1 X96.725 Y126.171 E41.84982
G1 X96.725 Y126.004 E41.86505
G1 X92.538 Y126.004 E42.24578
G1 X92.538 Y125.836 E42.26100
