; generated by Slic3r 1.3.0-dev on 2017-08-18 at 21:46:40

; external perimeters extrusion width = 0.40mm (1.14mm^3/s)
; perimeters extrusion width = 0.68mm (3.95mm^3/s)
; infill extrusion width = 1.20mm (9.43mm^3/s)
; solid infill extrusion width = 0.68mm (1.32mm^3/s)
; top infill extrusion width = 0.68mm (0.99mm^3/s)
; support material extrusion width = 0.40mm (2.27mm^3/s)

M107
M190 S66 ; set bed temperature and wait for it to be reached
M104 S215 ; set temperature
G28 ; home all axes
G1 Z5 F5000 ; lift nozzle

; Filament gcode

M109 S215 ; set temperature and wait for it to be reached
G21 ; set units to millimeters
G90 ; use absolute coordinates
M82 ; use absolute distances for extrusion
G92 E0
G1 Z0.350 F7800.000
G1 E-2.00000 F2400.00000
G92 E0
G1 X85.235 Y94.578 F7800.000
G1 E2.00000 F2400.00000
G1 F1800
G1 X86.956 Y93.338 E2.19291
G1 X87.100 Y93.266 E2.20758
G1 X89.315 Y92.608 E2.41768
G1 X112.824 Y89.939 E4.56903
G1 X113.587 Y89.896 E4.63857
G1 X115.289 Y90.119 E4.79464
G1 X120.990 Y91.634 E5.33101
G1 X121.888 Y91.896 E5.41608
G1 X122.105 Y91.968 E5.43683
G1 X124.694 Y93.568 E5.71361
G1 X124.911 Y93.785 E5.74147
G1 X126.227 Y95.663 E5.95001
G1 X126.851 Y98.469 E6.21144
G1 X126.851 Y98.542 E6.21801
G1 X126.676 Y100.053 E6.35638
G1 X125.594 Y104.672 E6.78770
G1 X125.369 Y105.485 E6.86442
G1 X125.140 Y106.193 E6.93208
G1 X124.728 Y107.213 E7.03211
G1 X124.319 Y108.012 E7.11373
G1 X123.886 Y108.734 E7.19026
G1 X123.286 Y109.593 E7.28555
G1 X122.670 Y110.302 E7.37096
G1 X121.805 Y111.167 E7.48223
G1 X121.444 Y111.501 E7.52691
G1 X115.238 Y116.841 E8.27135
G1 X114.784 Y117.199 E8.32394
G1 X112.475 Y118.858 E8.58252
G1 X110.409 Y119.854 E8.79107
G1 X108.608 Y120.104 E8.95635
G1 X107.742 Y120.104 E9.03509
G1 X105.497 Y119.712 E9.24239
G1 X87.673 Y113.289 E10.96509
G1 X85.682 Y112.150 E11.17363
G1 X84.200 Y110.400 E11.38218
G1 X83.304 Y107.424 E11.66478
G1 X83.222 Y105.861 E11.80711
G1 X83.150 Y101.243 E12.22710
G1 X83.149 Y99.624 E12.37427
G1 X83.347 Y98.019 E12.52135
G1 X83.419 Y97.730 E12.54844
G1 X84.352 Y95.635 E12.75699
G1 X85.192 Y94.621 E12.87676
G1 E10.87676 F2400.00000
G92 E0
G1 X108.283 Y111.638 F7800.000
G1 E2.00000 F2400.00000
G1 F1800
G1 X107.851 Y111.638 E2.03924
G1 X107.851 Y110.990 E2.09815
G1 X108.283 Y110.990 E2.13739
G1 X108.283 Y111.578 E2.19085
G1 E0.19085 F2400.00000
G92 E0
G1 X104.865 Y108.488 F7800.000
G1 E2.00000 F2400.00000
G1 F1800
G1 X104.651 Y108.488 E2.01939
G1 X104.651 Y108.415 E2.02595
G1 X104.361 Y108.415 E2.05234
G1 X104.361 Y108.343 E2.05891
G1 X104.070 Y108.343 E2.08537
G1 X104.070 Y108.271 E2.09193
G1 X103.856 Y108.271 E2.11137
G1 X103.856 Y108.199 E2.11793
G1 X103.567 Y108.199 E2.14420
G1 X103.567 Y108.127 E2.15076
G1 X102.989 Y108.127 E2.20330
G1 X102.989 Y108.054 E2.20988
G1 X102.702 Y108.054 E2.23603
G1 X102.701 Y107.982 E2.24257
G1 X102.415 Y107.982 E2.26866
G1 X102.415 Y107.910 E2.27522
G1 X102.198 Y107.910 E2.29489
G1 X102.198 Y107.838 E2.30144
G1 X101.908 Y107.838 E2.32786
G1 X101.908 Y107.766 E2.33442
G1 X101.620 Y107.766 E2.36054
G1 X101.620 Y107.694 E2.36711
G1 X101.403 Y107.694 E2.38684
G1 X101.403 Y107.622 E2.39340
G1 X101.116 Y107.622 E2.41956
G1 X101.116 Y107.549 E2.42612
G1 X100.467 Y107.549 E2.48515
G1 X100.467 Y107.477 E2.49171
G1 X100.245 Y107.477 E2.51183
G1 X100.245 Y107.405 E2.51840
G1 X99.962 Y107.405 E2.54410
G1 X99.962 Y107.333 E2.55066
G1 X99.667 Y107.333 E2.57755
G1 X99.666 Y107.261 E2.58411
G1 X99.373 Y107.261 E2.61080
G1 X99.372 Y107.189 E2.61736
G1 X99.166 Y107.189 E2.63618
G1 X99.165 Y107.117 E2.64273
G1 X98.880 Y107.117 E2.66872
G1 X98.880 Y107.044 E2.67528
G1 X98.586 Y107.044 E2.70194
G1 X98.586 Y106.972 E2.70851
G1 X98.013 Y106.972 E2.76064
G1 X98.013 Y106.900 E2.76719
G1 X97.723 Y106.900 E2.79360
G1 X97.722 Y106.828 E2.80016
G1 X97.411 Y106.828 E2.82844
G1 X97.410 Y106.756 E2.83501
G1 X97.147 Y106.756 E2.85894
G1 X97.147 Y106.684 E2.86550
G1 X96.857 Y106.684 E2.89192
G1 X96.856 Y106.611 E2.89850
G1 X96.637 Y106.611 E2.91842
G1 X96.637 Y106.539 E2.92497
G1 X96.347 Y106.539 E2.95139
G1 X96.346 Y106.467 E2.95795
G1 X95.695 Y106.467 E3.01722
G1 X95.694 Y106.395 E3.02378
G1 X95.407 Y106.395 E3.04991
G1 X95.406 Y106.323 E3.05647
G1 X95.121 Y106.323 E3.08239
G1 X95.121 Y106.250 E3.08898
G1 X94.836 Y106.250 E3.11492
G1 X94.836 Y106.178 E3.12145
G1 X94.617 Y106.178 E3.14131
G1 X94.617 Y106.106 E3.14787
G1 X94.334 Y106.106 E3.17359
G1 X94.334 Y106.034 E3.18014
G1 X94.043 Y106.034 E3.20668
G1 X94.042 Y105.962 E3.21325
G1 X93.755 Y105.962 E3.23935
G1 X93.755 Y105.890 E3.24591
G1 X93.106 Y105.890 E3.30497
G1 X93.106 Y105.818 E3.31153
G1 X92.814 Y105.818 E3.33808
G1 X92.814 Y105.745 E3.34464
G1 X92.528 Y105.745 E3.37062
G1 X92.528 Y105.674 E3.37713
G1 X92.316 Y105.674 E3.39643
G1 X92.316 Y105.601 E3.40303
G1 X92.014 Y105.601 E3.43050
G1 X92.014 Y105.529 E3.43707
G1 X91.735 Y105.529 E3.46241
G1 X91.735 Y105.456 E3.46904
G1 X91.518 Y105.456 E3.48872
G1 X91.518 Y104.616 E3.56509
G1 X93.781 Y102.354 E3.85600
G1 X93.492 Y102.354 E3.88225
G1 X93.901 Y101.945 E3.93478
G1 X94.189 Y101.945 E3.96103
G1 X94.308 Y101.826 E3.97632
G1 X94.308 Y102.162 E4.00683
G1 X94.597 Y102.162 E4.03308
G1 X94.597 Y102.234 E4.03963
G1 X94.813 Y102.234 E4.05932
G1 X94.813 Y102.307 E4.06598
G1 X95.102 Y102.307 E4.09222
G1 X95.102 Y104.697 E4.30953
G1 X96.880 Y102.883 E4.54045
G1 X97.627 Y102.883 E4.60842
G1 X97.627 Y102.956 E4.61498
G1 X97.916 Y102.956 E4.64125
G1 X97.916 Y103.028 E4.64781
G1 X98.205 Y103.028 E4.67405
G1 X98.205 Y103.100 E4.68064
G1 X98.493 Y103.100 E4.70688
G1 X98.493 Y103.172 E4.71343
G1 X98.710 Y103.172 E4.73312
G1 X98.710 Y103.244 E4.73968
G1 X98.999 Y103.244 E4.76592
G1 X98.999 Y103.316 E4.77248
G1 X99.287 Y103.316 E4.79872
G1 X99.287 Y103.389 E4.80529
G1 X99.504 Y103.389 E4.82498
G1 X99.504 Y103.461 E4.83154
G1 X99.792 Y103.461 E4.85778
G1 X99.792 Y103.533 E4.86434
G1 X100.081 Y103.533 E4.89059
G1 X100.081 Y103.605 E4.89715
G1 X100.298 Y103.605 E4.91684
G1 X100.298 Y103.677 E4.92340
G1 X100.586 Y103.677 E4.94964
G1 X100.586 Y103.749 E4.95620
G1 X100.875 Y103.749 E4.98245
G1 X100.875 Y103.822 E4.98902
G1 X101.452 Y103.822 E5.04151
G1 X101.452 Y103.894 E5.04807
G1 X101.741 Y103.894 E5.07431
G1 X101.741 Y103.966 E5.08087
G1 X102.390 Y103.966 E5.13992
G1 X102.390 Y104.038 E5.14648
G1 X102.607 Y104.038 E5.16617
G1 X102.607 Y104.110 E5.17273
G1 X102.895 Y104.110 E5.19898
G1 X102.895 Y104.182 E5.20554
G1 X103.112 Y104.182 E5.22522
G1 X103.112 Y104.255 E5.23178
G1 X103.400 Y104.255 E5.25803
G1 X103.400 Y104.327 E5.26459
G1 X103.689 Y104.327 E5.29084
G1 X103.689 Y104.399 E5.29740
G1 X103.906 Y104.399 E5.31708
G1 X103.906 Y104.471 E5.32364
G1 X104.194 Y104.471 E5.34989
G1 X104.194 Y104.615 E5.36301
G1 X104.339 Y104.615 E5.37614
G1 X104.339 Y104.687 E5.38270
G1 X104.627 Y104.687 E5.40894
G1 X104.627 Y104.761 E5.41567
G1 X104.916 Y104.761 E5.44191
G1 X104.916 Y104.831 E5.44824
G1 X107.394 Y104.832 E5.67361
G1 X108.404 Y103.823 E5.80347
G1 X108.404 Y103.605 E5.82323
G1 X109.053 Y103.605 E5.88229
G1 X109.053 Y102.595 E5.97415
G1 X109.414 Y102.595 E6.00696
G1 X109.414 Y102.306 E6.03321
G1 X110.905 Y102.306 E6.16877
G1 X110.905 Y102.378 E6.17534
G1 X111.049 Y102.378 E6.18845
G1 X111.049 Y102.883 E6.23439
G1 X111.122 Y102.883 E6.24095
G1 X111.122 Y103.219 E6.27144
G1 X110.472 Y103.868 E6.35496
G1 X110.472 Y104.951 E6.45338
G1 X110.183 Y105.240 E6.49062
G1 X108.379 Y105.240 E6.65466
G1 X107.946 Y105.673 E6.71034
G1 X107.153 Y105.673 E6.78243
G1 X107.153 Y106.466 E6.85452
G1 X104.865 Y108.754 E7.14869
G1 X104.865 Y108.548 E7.16744
G1 X106.543 Y107.959 F7800.000
G1 F1800
G1 X107.706 Y107.959 E7.27311
G1 X107.706 Y109.330 E7.39778
G1 X107.778 Y109.330 E7.40434
G1 X107.778 Y109.834 E7.45014
G1 X106.480 Y109.834 E7.56812
G1 X106.480 Y109.762 E7.57468
G1 X106.408 Y109.762 E7.58125
G1 X106.408 Y109.618 E7.59437
G1 X106.191 Y109.618 E7.61414
G1 X106.191 Y109.545 E7.62070
G1 X105.902 Y109.545 E7.64694
G1 X105.902 Y109.473 E7.65350
G1 X105.686 Y109.473 E7.67309
G1 X105.686 Y109.401 E7.67965
G1 X105.036 Y109.401 E7.73880
G1 X105.036 Y109.329 E7.74536
G1 X104.819 Y109.329 E7.76508
G1 X104.819 Y109.257 E7.77164
G1 X104.532 Y109.257 E7.79774
G1 X104.532 Y109.185 E7.80430
G1 X104.241 Y109.185 E7.83073
G1 X104.241 Y109.112 E7.83729
G1 X104.027 Y109.112 E7.85680
G1 X104.027 Y109.040 E7.86336
G1 X103.737 Y109.040 E7.88969
G1 X103.737 Y108.968 E7.89625
G1 X103.447 Y108.968 E7.92262
G1 X103.447 Y108.896 E7.92918
G1 X103.232 Y108.896 E7.94872
G1 X103.232 Y108.824 E7.95528
G1 X102.943 Y108.824 E7.98153
G1 X102.943 Y108.752 E7.98810
G1 X102.365 Y108.752 E8.04061
G1 X102.365 Y108.679 E8.04719
G1 X102.077 Y108.679 E8.07337
G1 X102.077 Y108.607 E8.07992
G1 X101.790 Y108.607 E8.10607
G1 X101.790 Y108.535 E8.11263
G1 X101.573 Y108.535 E8.13231
G1 X101.573 Y108.463 E8.13886
G1 X101.284 Y108.463 E8.16521
G1 X101.284 Y108.391 E8.17177
G1 X100.996 Y108.391 E8.19794
G1 X100.996 Y108.319 E8.20450
G1 X100.779 Y108.319 E8.22422
G1 X100.779 Y108.246 E8.23078
G1 X100.491 Y108.246 E8.25697
G1 X100.491 Y108.174 E8.26353
G1 X99.842 Y108.174 E8.32257
G1 X99.842 Y108.102 E8.32913
G1 X99.622 Y108.102 E8.34908
G1 X99.622 Y108.030 E8.35564
G1 X99.337 Y108.030 E8.38155
G1 X99.337 Y107.958 E8.38812
G1 X99.044 Y107.958 E8.41475
G1 X99.044 Y107.886 E8.42131
G1 X98.753 Y107.886 E8.44780
G1 X98.752 Y107.814 E8.45436
G1 X98.541 Y107.814 E8.47352
G1 X98.541 Y107.741 E8.48008
G1 X98.254 Y107.741 E8.50616
G1 X98.254 Y107.669 E8.51273
G1 X97.963 Y107.669 E8.53922
G1 X97.963 Y107.597 E8.54578
G1 X97.388 Y107.597 E8.59806
G1 X97.388 Y107.525 E8.60461
G1 X97.098 Y107.525 E8.63095
G1 X97.098 Y107.453 E8.63751
G1 X96.796 Y107.453 E8.66497
G1 X96.795 Y107.381 E8.67154
G1 X96.522 Y107.381 E8.69636
G1 X96.522 Y107.308 E8.70292
G1 X96.232 Y107.308 E8.72927
G1 X96.232 Y107.236 E8.73585
G1 X96.014 Y107.236 E8.75567
G1 X96.014 Y107.164 E8.76222
G1 X95.724 Y107.164 E8.78856
G1 X95.724 Y107.092 E8.79512
G1 X95.073 Y107.092 E8.85429
G1 X95.073 Y107.020 E8.86086
G1 X94.785 Y107.020 E8.88701
G1 X94.785 Y106.948 E8.89357
G1 X94.498 Y106.948 E8.91962
G1 X94.498 Y106.875 E8.92620
G1 X94.212 Y106.875 E8.95225
G1 X94.212 Y106.803 E8.95880
G1 X93.994 Y106.803 E8.97858
G1 X93.994 Y106.731 E8.98514
G1 X93.709 Y106.731 E9.01106
G1 X93.709 Y106.659 E9.01762
G1 X93.418 Y106.659 E9.04405
G1 X93.418 Y106.587 E9.05061
G1 X93.131 Y106.587 E9.07677
G1 X93.131 Y106.515 E9.08333
G1 X92.481 Y106.515 E9.14239
G1 X92.481 Y106.442 E9.14895
G1 X92.190 Y106.442 E9.17537
G1 X92.190 Y106.370 E9.18193
G1 X91.903 Y106.370 E9.20802
G1 X91.903 Y106.298 E9.21455
G1 X91.690 Y106.298 E9.23400
G1 X91.690 Y106.226 E9.24058
G1 X91.393 Y106.226 E9.26758
G1 X91.392 Y106.154 E9.27415
G1 X91.110 Y106.154 E9.29983
G1 X91.110 Y106.081 E9.30643
G1 X90.894 Y106.081 E9.32611
G1 X90.894 Y104.357 E9.48286
G1 X92.272 Y102.979 E9.66014
G1 X91.983 Y102.979 E9.68639
G1 X92.272 Y102.690 E9.72351
G1 X91.984 Y102.690 E9.74976
G1 X92.272 Y102.401 E9.78687
G1 X92.056 Y102.401 E9.80656
G1 X92.272 Y102.185 E9.83440
G1 X90.821 Y102.185 E9.96633
G1 X90.821 Y100.671 E10.10397
G1 X91.469 Y100.671 E10.16289
G1 X91.469 Y100.743 E10.16944
G1 X91.758 Y100.743 E10.19568
G1 X91.758 Y100.815 E10.20224
G1 X92.047 Y100.815 E10.22848
G1 X92.047 Y100.888 E10.23505
G1 X92.696 Y100.888 E10.29411
G1 X92.696 Y100.960 E10.30068
G1 X92.985 Y100.960 E10.32693
G1 X92.985 Y101.032 E10.33348
G1 X93.273 Y101.032 E10.35973
G1 X93.273 Y101.104 E10.36626
G1 X93.490 Y101.104 E10.38593
G1 X93.490 Y101.176 E10.39251
G1 X93.778 Y101.176 E10.41876
G1 X93.778 Y101.248 E10.42531
G1 X94.067 Y101.248 E10.45157
G1 X94.067 Y101.320 E10.45814
G1 X94.933 Y101.320 E10.53688
G1 X94.933 Y101.537 E10.55657
G1 X95.222 Y101.537 E10.58281
G1 X95.222 Y101.609 E10.58937
G1 X95.438 Y101.609 E10.60906
G1 X95.438 Y101.682 E10.61568
G1 X95.727 Y101.682 E10.64193
G1 X95.727 Y103.167 E10.77697
G1 X96.830 Y102.042 E10.92020
G1 X97.098 Y102.042 E10.94460
G1 X97.098 Y102.114 E10.95116
G1 X97.387 Y102.114 E10.97740
G1 X97.387 Y102.186 E10.98397
G1 X97.675 Y102.186 E11.01021
G1 X97.675 Y102.259 E11.01677
G1 X98.252 Y102.259 E11.06924
G1 X98.252 Y102.331 E11.07580
G1 X98.541 Y102.331 E11.10207
G1 X98.541 Y102.403 E11.10863
G1 X98.830 Y102.403 E11.13487
G1 X98.830 Y102.475 E11.14145
G1 X99.118 Y102.475 E11.16770
G1 X99.118 Y102.547 E11.17425
G1 X99.335 Y102.547 E11.19394
G1 X99.335 Y102.619 E11.20050
G1 X99.624 Y102.619 E11.22674
G1 X99.624 Y102.691 E11.23330
G1 X99.912 Y102.691 E11.25955
G1 X99.912 Y102.764 E11.26611
G1 X100.129 Y102.764 E11.28580
G1 X100.129 Y102.836 E11.29236
G1 X100.417 Y102.836 E11.31860
G1 X100.417 Y102.908 E11.32516
G1 X100.706 Y102.908 E11.35141
G1 X100.706 Y102.980 E11.35797
G1 X100.922 Y102.980 E11.37766
G1 X100.922 Y103.052 E11.38422
G1 X101.211 Y103.052 E11.41046
G1 X101.211 Y103.125 E11.41702
G1 X101.500 Y103.125 E11.44327
G1 X101.500 Y103.197 E11.44984
G1 X102.077 Y103.197 E11.50233
G1 X102.077 Y103.269 E11.50889
G1 X102.366 Y103.269 E11.53513
G1 X102.366 Y103.341 E11.54169
G1 X103.015 Y103.341 E11.60074
G1 X103.015 Y103.413 E11.60730
G1 X103.232 Y103.413 E11.62699
G1 X103.232 Y103.485 E11.63356
G1 X103.520 Y103.485 E11.65980
G1 X103.520 Y103.557 E11.66636
G1 X103.737 Y103.557 E11.68605
G1 X103.737 Y103.630 E11.69261
G1 X104.025 Y103.630 E11.71885
G1 X104.025 Y103.702 E11.72542
G1 X104.314 Y103.702 E11.75166
G1 X104.314 Y103.774 E11.75822
G1 X104.530 Y103.774 E11.77791
G1 X104.530 Y103.846 E11.78447
G1 X104.819 Y103.846 E11.81071
G1 X104.819 Y103.990 E11.82383
G1 X104.963 Y103.990 E11.83696
G1 X104.963 Y104.063 E11.84352
G1 X105.252 Y104.063 E11.86977
G1 X105.252 Y104.136 E11.87644
G1 X105.541 Y104.136 E11.90268
G1 X105.541 Y104.206 E11.90911
G1 X107.135 Y104.207 E12.05413
G1 X107.779 Y103.564 E12.13689
G1 X107.779 Y103.347 E12.15657
G1 X107.851 Y103.275 E12.16585
G1 X107.851 Y102.980 E12.19266
G1 X108.429 Y102.980 E12.24515
G1 X108.429 Y102.265 E12.31021
G1 X108.501 Y102.193 E12.31949
G1 X108.501 Y101.970 E12.33974
G1 X108.789 Y101.970 E12.36598
G1 X108.789 Y101.681 E12.39223
G1 X109.511 Y101.681 E12.45785
G1 X109.511 Y101.393 E12.48409
G1 X110.296 Y101.393 E12.55544
G1 X110.007 Y101.681 E12.59255
G1 X111.530 Y101.681 E12.73104
G1 X111.530 Y101.753 E12.73760
G1 X111.674 Y101.753 E12.75072
G1 X111.674 Y102.259 E12.79665
G1 X111.747 Y102.259 E12.80321
G1 X111.747 Y103.478 E12.91406
G1 X111.097 Y104.127 E12.99758
G1 X111.097 Y105.186 E13.09387
G1 X111.006 Y105.522 E13.12552
G1 X110.774 Y105.532 E13.14656
G1 X110.160 Y106.146 E13.22551
G1 X110.160 Y105.865 E13.25106
G1 X108.637 Y105.865 E13.38955
G1 X108.204 Y106.298 E13.44523
G1 X107.778 Y106.298 E13.48403
G1 X107.778 Y106.725 E13.52284
G1 X106.586 Y107.917 E13.67611
G1 X108.052 Y107.334 F7800.000
G1 F1800
G1 X108.403 Y107.334 E13.70799
G1 X108.403 Y108.066 E13.77453
G1 X108.330 Y108.138 E13.78381
G1 X108.330 Y108.705 E13.83538
G1 X108.403 Y108.705 E13.84194
G1 X108.403 Y108.922 E13.86162
G1 X108.475 Y108.922 E13.86819
G1 X108.475 Y109.138 E13.88787
G1 X108.691 Y109.138 E13.90755
G1 X108.691 Y109.354 E13.92720
G1 X108.836 Y109.355 E13.94033
G1 X108.835 Y110.365 E14.03221
G1 X109.052 Y110.365 E14.05190
G1 X109.052 Y110.437 E14.05846
G1 X109.269 Y110.437 E14.07815
G1 X109.269 Y110.582 E14.09129
G1 X109.413 Y110.582 E14.10442
G1 X109.413 Y110.726 E14.11752
G1 X109.904 Y110.726 E14.16217
G1 X109.196 Y111.383 E14.24996
G1 X109.196 Y111.758 E14.28406
G1 X108.908 Y111.758 E14.31031
G1 X108.908 Y112.035 E14.33551
G1 X108.836 Y112.107 E14.34479
G1 X108.836 Y112.179 E14.35135
G1 X107.876 Y113.139 E14.47476
G1 X107.876 Y112.840 E14.50193
G1 X107.505 Y112.840 E14.53566
G1 X107.866 Y112.479 E14.58206
G1 X107.577 Y112.479 E14.60831
G1 X107.794 Y112.263 E14.63616
G1 X107.226 Y112.263 E14.68774
G1 X107.226 Y111.407 E14.76555
G1 X106.804 Y111.830 E14.81992
G1 X106.505 Y111.830 E14.84709
G1 X106.505 Y110.964 E14.92585
G1 X105.917 Y110.964 E14.97926
G1 X106.423 Y110.459 E15.04421
G1 X105.855 Y110.459 E15.09578
G1 X105.855 Y110.387 E15.10235
G1 X105.783 Y110.387 E15.10891
G1 X105.783 Y110.242 E15.12203
G1 X105.566 Y110.242 E15.14174
G1 X105.566 Y110.170 E15.14830
