; generated by Slic3r 1.3.0-dev on 2017-08-18 at 21:47:26

; external perimeters extrusion width = 0.40mm (1.14mm^3/s)
; perimeters extrusion width = 0.68mm (3.95mm^3/s)
; infill extrusion width = 1.20mm (9.43mm^3/s)
; solid infill extrusion width = 0.68mm (1.32mm^3/s)
; top infill extrusion width = 0.68mm (0.99mm^3/s)
; support material extrusion width = 0.40mm (2.27mm^3/s)

M107
M190 S66 ; set bed temperature and wait for it to be reached
M104 S215 ; set temperature
G28 ; home all axes
G1 Z5 F5000 ; lift nozzle

; Filament gcode

M109 S215 ; set temperature and wait for it to be reached
G21 ; set units to millimeters
G90 ; use absolute coordinates
M82 ; use absolute distances for extrusion
G92 E0
G1 Z0.350 F7800.000
G1 E-2.00000 F2400.00000
G92 E0
G1 X81.481 Y98.168 F7800.000
G1 E2.00000 F2400.00000
G1 F1800
G1 X83.359 Y96.852 E2.20854
G1 X84.546 Y96.430 E2.32314
G1 X105.116 Y91.250 E4.25191
G1 X113.459 Y89.429 E5.02845
G1 X116.374 Y88.873 E5.29825
G1 X117.266 Y88.765 E5.37997
G1 X119.164 Y88.682 E5.55273
G1 X121.940 Y89.292 E5.81118
G1 X126.750 Y91.512 E6.29284
G1 X127.648 Y92.015 E6.38647
G1 X127.870 Y92.162 E6.41073
G1 X129.721 Y94.020 E6.64913
G1 X129.870 Y94.245 E6.67372
G1 X130.773 Y96.297 E6.87749
G1 X130.920 Y96.885 E6.93264
G1 X131.072 Y97.722 E7.01000
G1 X131.443 Y100.907 E7.30159
G1 X131.488 Y101.674 E7.37142
G1 X131.488 Y102.036 E7.40433
G1 X131.420 Y102.979 E7.49029
G1 X131.345 Y103.501 E7.53830
G1 X130.041 Y106.594 E7.84352
G1 X120.711 Y118.739 E9.23610
G1 X119.017 Y120.285 E9.44464
G1 X116.897 Y121.161 E9.65318
G1 X115.465 Y121.318 E9.78423
G1 X115.243 Y121.318 E9.80441
G1 X113.913 Y121.183 E9.92597
G1 X83.946 Y115.042 E12.70747
G1 X82.315 Y114.478 E12.86436
G1 X82.167 Y114.404 E12.87942
G1 X80.324 Y113.039 E13.08796
G1 X79.056 Y111.128 E13.29650
G1 X78.503 Y108.479 E13.54260
G1 X78.503 Y108.256 E13.56288
G1 X78.593 Y107.167 E13.66225
G1 X79.498 Y101.817 E14.15558
G1 X80.292 Y99.666 E14.36412
G1 X81.332 Y98.316 E14.51904
G1 X81.438 Y98.211 E14.53262
G1 E12.53262 F2400.00000
G92 E0
G1 X108.492 Y109.929 F7800.000
G1 E2.00000 F2400.00000
G1 F1800
G1 X108.965 Y109.929 E2.04301
G1 X110.057 Y110.499 E2.15495
G1 X109.971 Y111.465 E2.24317
G1 X109.443 Y111.465 E2.29126
G1 X109.443 Y111.391 E2.29798
G1 X109.147 Y111.391 E2.32489
G1 X109.147 Y111.317 E2.33161
G1 X108.777 Y111.317 E2.36522
G1 X108.777 Y111.243 E2.37195
G1 X108.481 Y111.243 E2.39884
G1 X108.481 Y111.169 E2.40557
G1 X108.106 Y111.169 E2.43969
G1 X108.106 Y111.095 E2.44642
G1 X107.743 Y111.095 E2.47944
G1 X107.743 Y111.021 E2.48617
G1 X107.446 Y111.021 E2.51316
G1 X107.446 Y110.947 E2.51989
G1 X107.075 Y110.947 E2.55366
G1 X107.075 Y110.873 E2.56039
G1 X106.707 Y110.873 E2.59385
G1 X106.707 Y110.799 E2.60058
G1 X106.336 Y110.799 E2.63428
G1 X106.336 Y110.725 E2.64101
G1 X106.039 Y110.725 E2.66797
G1 X106.039 Y110.651 E2.67470
G1 X105.670 Y110.651 E2.70830
G1 X105.670 Y110.577 E2.71503
G1 X105.297 Y110.577 E2.74889
G1 X105.297 Y110.503 E2.75562
G1 X104.930 Y110.503 E2.78906
G1 X104.930 Y110.429 E2.79579
G1 X104.558 Y110.429 E2.82960
G1 X104.558 Y110.355 E2.83633
G1 X104.253 Y110.355 E2.86406
G1 X104.252 Y110.281 E2.87079
G1 X103.892 Y110.281 E2.90359
G1 X103.891 Y110.207 E2.91031
G1 X103.516 Y110.207 E2.94449
G1 X103.515 Y110.133 E2.95122
G1 X103.155 Y110.133 E2.98398
G1 X103.155 Y110.060 E2.99071
G1 X102.785 Y110.060 E3.02433
G1 X102.785 Y109.986 E3.03106
G1 X102.488 Y109.986 E3.05811
G1 X102.488 Y109.912 E3.06484
G1 X102.117 Y109.912 E3.09855
G1 X102.117 Y109.838 E3.10528
G1 X101.749 Y109.838 E3.13877
G1 X101.749 Y109.764 E3.14550
G1 X101.377 Y109.764 E3.17929
G1 X101.377 Y109.690 E3.18601
G1 X101.009 Y109.690 E3.21947
G1 X101.009 Y109.616 E3.22620
G1 X100.816 Y109.616 E3.24379
G1 X101.220 Y109.076 E3.30511
G1 X101.699 Y108.598 E3.36664
G1 X103.450 Y108.598 E3.52587
G1 X103.450 Y108.359 E3.54757
G1 X105.607 Y106.230 E3.82319
G1 X106.489 Y106.230 E3.90340
G1 X106.935 Y107.061 E3.98915
G1 X108.062 Y105.934 E4.13411
G1 X108.136 Y105.934 E4.14084
G1 X108.358 Y105.712 E4.16939
G1 X108.433 Y105.712 E4.17618
G1 X108.581 Y105.564 E4.19520
G1 X108.654 Y105.564 E4.20189
G1 X109.603 Y104.615 E4.32385
G1 X109.943 Y104.640 E4.35491
G1 X109.943 Y104.824 E4.37165
G1 X110.007 Y104.824 E4.37744
G1 X109.893 Y106.115 E4.49529
G1 X109.474 Y106.221 E4.53457
G1 X109.385 Y106.531 E4.56391
G1 X109.086 Y106.613 E4.59212
G1 X109.021 Y106.852 E4.61468
G1 X108.577 Y107.007 E4.65739
G1 X108.494 Y109.869 E4.91779
G1 X109.136 Y109.305 F7800.000
G1 F1800
G1 X110.770 Y109.305 E5.06636
G1 X110.219 Y109.879 E5.13867
G1 X110.716 Y110.138 E5.18959
G1 X110.626 Y111.153 E5.28222
G1 X111.419 Y111.154 E5.35433
G1 X111.779 Y111.844 E5.42506
G1 X112.214 Y111.944 E5.46561
G1 X111.731 Y112.608 E5.54031
G1 X111.260 Y112.608 E5.58313
G1 X111.260 Y112.534 E5.58986
G1 X110.889 Y112.534 E5.62354
G1 X110.889 Y112.460 E5.63027
G1 X110.594 Y112.460 E5.65709
G1 X110.594 Y112.386 E5.66382
G1 X110.224 Y112.386 E5.69747
G1 X110.224 Y112.312 E5.70419
G1 X109.854 Y112.312 E5.73785
G1 X109.854 Y112.238 E5.74458
G1 X109.558 Y112.238 E5.77147
G1 X109.558 Y112.164 E5.77820
G1 X109.188 Y112.164 E5.81187
G1 X109.188 Y112.090 E5.81860
G1 X108.818 Y112.090 E5.85222
G1 X108.818 Y112.016 E5.85894
G1 X108.522 Y112.016 E5.88585
G1 X108.522 Y111.942 E5.89257
G1 X108.152 Y111.942 E5.92620
G1 X108.152 Y111.868 E5.93293
G1 X107.856 Y111.868 E5.95982
G1 X107.856 Y111.794 E5.96655
G1 X107.483 Y111.794 E6.00048
G1 X107.483 Y111.720 E6.00721
G1 X107.117 Y111.720 E6.04047
G1 X107.117 Y111.646 E6.04720
G1 X106.821 Y111.646 E6.07416
G1 X106.821 Y111.572 E6.08089
G1 X106.450 Y111.572 E6.11461
G1 X106.450 Y111.498 E6.12134
G1 X106.081 Y111.498 E6.15487
G1 X106.081 Y111.424 E6.16160
G1 X105.711 Y111.424 E6.19527
G1 X105.711 Y111.350 E6.20200
G1 X105.415 Y111.350 E6.22895
G1 X105.415 Y111.276 E6.23568
G1 X105.045 Y111.276 E6.26929
G1 X105.045 Y111.202 E6.27602
G1 X104.673 Y111.202 E6.30979
G1 X104.673 Y111.128 E6.31652
G1 X104.305 Y111.128 E6.35004
G1 X104.305 Y111.054 E6.35677
G1 X103.934 Y111.054 E6.39051
G1 X103.934 Y110.980 E6.39724
G1 X103.632 Y110.980 E6.42465
G1 X103.632 Y110.906 E6.43138
G1 X103.268 Y110.906 E6.46449
G1 X103.267 Y110.832 E6.47121
G1 X102.894 Y110.832 E6.50518
G1 X102.894 Y110.758 E6.51191
G1 X102.530 Y110.758 E6.54500
G1 X102.530 Y110.684 E6.55173
G1 X102.160 Y110.684 E6.58536
G1 X102.160 Y110.610 E6.59208
G1 X101.863 Y110.610 E6.61908
G1 X101.863 Y110.536 E6.62581
G1 X101.492 Y110.536 E6.65950
G1 X101.492 Y110.462 E6.66623
G1 X101.123 Y110.462 E6.69977
G1 X101.123 Y110.388 E6.70650
G1 X100.753 Y110.388 E6.74023
G1 X100.753 Y110.314 E6.74696
G1 X100.384 Y110.314 E6.78049
G1 X100.384 Y110.240 E6.78722
G1 X100.013 Y110.240 E6.82091
G1 X100.012 Y109.401 E6.89723
G1 X100.415 Y108.998 E6.94908
G1 X100.499 Y108.997 E6.95673
G1 X100.747 Y108.666 E6.99433
G1 X101.440 Y107.973 E7.08345
G1 X102.825 Y107.973 E7.20939
G1 X102.825 Y107.603 E7.24303
G1 X102.992 Y107.603 E7.25825
G1 X103.787 Y106.812 E7.36017
G1 X103.787 Y105.907 E7.44247
G1 X104.081 Y105.842 E7.46989
G1 X104.257 Y106.223 E7.50802
G1 X104.427 Y106.110 E7.52658
G1 X104.427 Y106.517 E7.56363
G1 X105.351 Y105.605 E7.68169
G1 X105.979 Y105.605 E7.73877
G1 X105.981 Y105.531 E7.74550
G1 X106.653 Y105.531 E7.80667
G1 X106.882 Y105.640 E7.82972
G1 X107.088 Y106.024 E7.86936
G1 X107.803 Y105.309 E7.96132
G1 X107.877 Y105.309 E7.96805
G1 X108.099 Y105.087 E7.99660
G1 X108.174 Y105.087 E8.00337
G1 X108.322 Y104.939 E8.02239
G1 X108.395 Y104.939 E8.02909
G1 X109.363 Y103.972 E8.15347
G1 X110.568 Y104.058 E8.26338
G1 X110.568 Y104.199 E8.27621
G1 X110.642 Y104.199 E8.28292
G1 X110.642 Y104.737 E8.33184
G1 X110.563 Y105.627 E8.41306
G1 X110.716 Y105.646 E8.42705
G1 X110.716 Y106.168 E8.47453
G1 X110.312 Y106.653 E8.53198
G1 X109.976 Y106.738 E8.56345
G1 X109.889 Y107.042 E8.59212
G1 X109.595 Y107.122 E8.61985
G1 X109.537 Y107.334 E8.63986
G1 X109.189 Y107.455 E8.67334
G1 X109.137 Y109.245 E8.83611
G1 E6.83611 F2400.00000
G92 E0
G1 X109.221 Y101.326 F7800.000
G1 E2.00000 F2400.00000
G1 F1800
G1 X108.823 Y101.326 E2.03624
G1 X110.430 Y99.719 E2.24291
G1 X110.799 Y99.719 E2.27645
G1 X110.785 Y100.078 E2.30915
G1 X110.716 Y100.235 E2.32473
G1 X110.683 Y100.268 E2.32899
G1 X110.683 Y100.565 E2.35600
G1 X110.609 Y100.639 E2.36553
G1 X110.609 Y100.859 E2.38549
G1 X110.535 Y100.933 E2.39500
G1 X110.535 Y101.082 E2.40857
G1 X110.461 Y101.156 E2.41809
G1 X110.461 Y101.230 E2.42481
G1 X110.313 Y101.378 E2.44392
G1 X110.313 Y101.496 E2.45458
G1 X110.251 Y101.513 E2.46043
G1 X110.073 Y102.216 E2.52643
G1 X109.665 Y102.216 E2.56350
G1 X109.665 Y102.001 E2.58311
G1 X109.517 Y102.000 E2.59655
G1 X109.517 Y101.846 E2.61053
G1 X109.443 Y101.846 E2.61727
G1 X109.443 Y101.698 E2.63073
G1 X109.369 Y101.698 E2.63746
G1 X109.369 Y101.550 E2.65092
G1 X109.221 Y101.550 E2.66437
G1 X109.221 Y101.386 E2.67935
G1 X109.235 Y100.030 F7800.000
G1 F1800
G1 X108.569 Y100.030 E2.73994
G1 X109.505 Y99.094 E2.86034
G1 X110.964 Y99.094 E2.99297
G1 X110.964 Y98.946 E3.00641
G1 X111.186 Y98.946 E3.02662
G1 X111.186 Y98.206 E3.09392
G1 X112.289 Y98.206 E3.19423
G1 X111.705 Y99.538 E3.32649
G1 X111.927 Y99.538 E3.34671
G1 X111.529 Y99.936 E3.39794
G1 X111.529 Y99.964 E3.40045
G1 X111.412 Y100.040 E3.41316
G1 X111.397 Y100.438 E3.44932
G1 X111.308 Y100.527 E3.46076
G1 X111.308 Y100.823 E3.48772
G1 X111.234 Y100.897 E3.49726
G1 X111.234 Y101.118 E3.51730
G1 X111.160 Y101.192 E3.52681
G1 X111.160 Y101.341 E3.54034
G1 X111.086 Y101.415 E3.54986
G1 X111.086 Y101.489 E3.55658
G1 X110.938 Y101.637 E3.57567
G1 X110.938 Y101.859 E3.59583
G1 X110.767 Y102.019 E3.61715
G1 X110.649 Y102.486 E3.66089
G1 X110.367 Y102.841 E3.70217
G1 X109.040 Y102.841 E3.82279
G1 X109.040 Y102.623 E3.84262
G1 X108.892 Y102.623 E3.85606
G1 X108.892 Y102.471 E3.86982
G1 X108.818 Y102.471 E3.87656
G1 X108.818 Y102.323 E3.89002
G1 X108.744 Y102.323 E3.89674
G1 X108.744 Y102.175 E3.91021
G1 X108.596 Y102.175 E3.92366
G1 X108.596 Y101.951 E3.94409
G1 X108.448 Y101.951 E3.95755
G1 X108.448 Y100.816 E4.06069
G1 X109.193 Y100.072 E4.15640
G1 E2.15640 F2400.00000
G92 E0
G1 X119.917 Y98.934 F7800.000
G1 E2.00000 F2400.00000
G1 F1800
G1 X119.917 Y97.984 E2.08639
G1 X120.213 Y97.984 E2.11330
G1 X120.213 Y97.688 E2.14022
G1 X120.631 Y97.688 E2.17822
G1 X120.631 Y97.836 E2.19168
G1 X120.927 Y97.836 E2.21859
G1 X120.927 Y97.910 E2.22532
G1 X121.223 Y97.910 E2.25223
G1 X121.223 Y97.984 E2.25896
G1 X121.445 Y97.984 E2.27914
G1 X121.445 Y98.132 E2.29260
G1 X121.815 Y98.132 E2.32624
G1 X121.815 Y98.206 E2.33297
G1 X122.111 Y98.206 E2.35988
G1 X122.111 Y98.280 E2.36661
G1 X122.259 Y98.280 E2.38007
G1 X122.259 Y98.354 E2.38679
G1 X122.330 Y98.354 E2.39327
G1 X122.330 Y98.428 E2.40000
G1 X122.804 Y98.428 E2.44306
G1 X122.715 Y98.550 E2.45682
G1 X122.942 Y98.635 E2.47889
G1 X122.763 Y98.881 E2.50656
G1 X122.841 Y98.908 E2.51408
G1 X122.064 Y99.685 E2.61404
G1 X122.360 Y99.685 E2.64099
G1 X122.064 Y99.982 E2.67909
G1 X123.596 Y99.982 E2.81841
G1 X122.895 Y100.991 E2.93018
G1 X122.507 Y100.991 E2.96546
G1 X122.508 Y100.917 E2.97218
G1 X122.138 Y100.917 E3.00581
G1 X122.138 Y100.843 E3.01257
G1 X121.840 Y100.843 E3.03960
G1 X121.840 Y100.769 E3.04632
G1 X121.545 Y100.769 E3.07319
G1 X121.545 Y100.695 E3.07991
G1 X121.175 Y100.695 E3.11352
G1 X121.175 Y100.621 E3.12025
G1 X120.883 Y100.621 E3.14679
G1 X120.890 Y99.158 E3.27988
G1 X119.500 Y100.547 E3.45858
G1 X119.103 Y100.547 E3.49469
G1 X119.103 Y99.711 E3.57072
G1 X119.659 Y98.891 E3.66085
G1 X119.858 Y98.924 E3.67916
G1 E1.67916 F2400.00000
G92 E0
G1 X116.798 Y103.710 F7800.000
G1 E2.00000 F2400.00000
G1 F1800
G1 X116.775 Y104.313 E2.05487
G1 X116.676 Y104.411 E2.06756
G1 X116.676 Y104.732 E2.09674
G1 X115.881 Y104.732 E2.16912
G1 X115.881 Y104.084 E2.22804
G1 X116.349 Y104.084 E2.27067
G1 X116.423 Y104.010 E2.28018
G1 X116.497 Y104.010 E2.28691
G1 X116.755 Y103.752 E2.32010
G1 X116.486 Y105.357 F7800.000
G1 F1800
G1 X114.859 Y105.357 E2.46811
G1 X115.256 Y104.960 E2.51918
G1 X115.256 Y103.864 E2.61880
G1 X115.646 Y103.459 E2.66997
G1 X116.090 Y103.459 E2.71036
G1 X116.164 Y103.385 E2.71987
G1 X116.238 Y103.385 E2.72660
G1 X116.460 Y103.163 E2.75514
G1 X116.534 Y103.163 E2.76187
G1 X118.041 Y101.656 E2.95565
G1 X118.041 Y102.302 E3.01441
G1 X117.967 Y102.376 E3.02392
G1 X117.967 Y102.598 E3.04410
G1 X117.893 Y102.672 E3.05362
G1 X117.893 Y102.894 E3.07379
G1 X117.819 Y102.968 E3.08331
G1 X117.819 Y103.225 E3.10665
G1 X117.671 Y103.447 E3.13095
G1 X117.671 Y103.560 E3.14125
G1 X117.597 Y103.634 E3.15074
G1 X117.597 Y103.930 E3.17764
G1 X117.526 Y104.002 E3.18686
G1 X117.525 Y104.105 E3.19625
G1 X117.405 Y104.184 E3.20929
G1 X117.390 Y104.581 E3.24543
G1 X117.301 Y104.670 E3.25688
G1 X117.301 Y104.892 E3.27706
G1 X117.246 Y104.947 E3.28416
G1 X117.232 Y105.258 E3.31244
G1 X117.079 Y105.410 E3.33201
G1 X117.079 Y105.558 E3.34545
G1 X117.005 Y105.632 E3.35497
G1 X117.005 Y105.854 E3.37516
G1 X116.931 Y105.928 E3.38467
G1 X116.931 Y106.224 E3.41158
G1 X116.857 Y106.298 E3.42109
G1 X116.857 Y106.446 E3.43456
G1 X116.709 Y106.594 E3.45359
G1 X116.709 Y106.890 E3.48055
G1 X116.647 Y106.953 E3.48855
G1 X116.641 Y107.181 E3.50930
G1 X116.565 Y107.256 E3.51898
G1 X116.564 Y107.479 E3.53929
G1 X116.413 Y107.630 E3.55864
G1 X116.413 Y107.852 E3.57882
G1 X116.339 Y107.926 E3.58833
G1 X116.340 Y108.069 E3.60133
G1 X116.118 Y108.084 E3.62156
G1 X116.118 Y108.814 E3.68794
G1 X116.044 Y108.888 E3.69746
G1 X116.044 Y109.184 E3.72438
G1 X115.969 Y109.258 E3.73390
G1 X115.969 Y109.480 E3.75408
G1 X115.552 Y109.897 E3.80781
G1 X115.552 Y109.500 E3.84390
G1 X114.733 Y109.500 E3.91838
G1 X115.561 Y108.613 E4.02881
G1 X114.959 Y108.613 E4.08357
G1 X114.960 Y107.476 E4.18695
G1 X116.370 Y106.065 E4.36834
G1 X115.789 Y106.054 E4.42120
G1 X116.444 Y105.399 E4.50545
G1 X114.978 Y105.982 F7800.000
G1 F1800
G1 X114.409 Y105.982 E4.55718
G1 X114.409 Y105.834 E4.57064
G1 X114.335 Y105.834 E4.57736
G1 X114.335 Y105.293 E4.62655
G1 X114.483 Y105.145 E4.64558
G1 X114.483 Y104.849 E4.67249
G1 X114.631 Y104.701 E4.69152
G1 X114.631 Y103.910 E4.76344
G1 X114.483 Y103.910 E4.77690
G1 X114.483 Y103.483 E4.81573
G1 X114.984 Y103.130 E4.87143
G1 X115.095 Y103.130 E4.88160
G1 X115.381 Y102.834 E4.91899
G1 X115.832 Y102.834 E4.95998
G1 X115.906 Y102.760 E4.96949
G1 X115.980 Y102.760 E4.97622
G1 X116.202 Y102.538 E5.00476
G1 X116.276 Y102.538 E5.01149
G1 X117.123 Y101.690 E5.12054
G1 X116.555 Y101.690 E5.17227
G1 X116.555 Y101.542 E5.18573
G1 X116.045 Y101.542 E5.23208
G1 X115.771 Y101.690 E5.26040
G1 X115.001 Y101.690 E5.33042
G1 X115.001 Y101.441 E5.35307
G1 X114.853 Y101.525 E5.36855
G1 X114.853 Y100.580 E5.45447
G1 X114.779 Y100.580 E5.46119
G1 X114.779 Y100.506 E5.46792
G1 X114.503 Y100.506 E5.49298
G1 X114.887 Y99.955 E5.55406
G1 X114.997 Y99.914 E5.56478
G1 X114.998 Y99.801 E5.57506
G1 X115.223 Y99.801 E5.59546
G1 X115.223 Y99.448 E5.62756
G1 X115.684 Y98.987 E5.68683
G1 X115.963 Y98.987 E5.71220
G1 X115.963 Y98.839 E5.72566
G1 X116.472 Y98.839 E5.77195
G1 X116.453 Y99.125 E5.79801
G1 X116.379 Y99.253 E5.81142
G1 X116.594 Y99.826 E5.86716
G1 X116.594 Y100.155 E5.89699
G1 X116.670 Y100.158 E5.90384
G1 X116.670 Y100.598 E5.94379
G1 X117.197 Y100.246 E6.00143
G1 X118.478 Y100.245 E6.11794
G1 X118.478 Y99.520 E6.18386
G1 X118.712 Y99.175 E6.22175
G1 X118.549 Y99.175 E6.23660
G1 X118.860 Y98.817 E6.27966
G1 X119.216 Y98.183 E6.34577
G1 X119.292 Y98.196 E6.35283
G1 X119.292 Y97.359 E6.42897
G1 X119.588 Y97.359 E6.45588
G1 X119.588 Y96.619 E6.52316
G1 X120.590 Y96.619 E6.61426
G1 X120.590 Y96.693 E6.62099
G1 X120.664 Y96.693 E6.62771
G1 X120.664 Y96.841 E6.64117
G1 X120.742 Y96.841 E6.64823
G1 X120.744 Y96.989 E6.66169
G1 X120.960 Y96.989 E6.68129
G1 X120.960 Y97.063 E6.68802
G1 X121.256 Y97.063 E6.71493
G1 X121.256 Y97.211 E6.72839
G1 X121.552 Y97.211 E6.75530
G1 X121.552 Y97.285 E6.76203
G1 X121.848 Y97.285 E6.78894
G1 X121.848 Y97.359 E6.79567
G1 X122.070 Y97.359 E6.81585
G1 X122.070 Y97.507 E6.82931
G1 X122.440 Y97.507 E6.86295
G1 X122.440 Y97.581 E6.86968
G1 X122.736 Y97.581 E6.89659
G1 X122.736 Y97.655 E6.90332
