; generated by Slic3r 1.3.0-dev on 2017-08-18 at 21:49:42

; external perimeters extrusion width = 0.40mm (1.14mm^3/s)
; perimeters extrusion width = 0.68mm (3.95mm^3/s)
; infill extrusion width = 1.20mm (9.43mm^3/s)
; solid infill extrusion width = 0.68mm (1.32mm^3/s)
; top infill extrusion width = 0.68mm (0.99mm^3/s)
; support material extrusion width = 0.40mm (2.27mm^3/s)

M107
M190 S66 ; set bed temperature and wait for it to be reached
M104 S215 ; set temperature
G28 ; home all axes
G1 Z5 F5000 ; lift nozzle

; Filament gcode

M109 S215 ; set temperature and wait for it to be reached
G21 ; set units to millimeters
G90 ; use absolute coordinates
M82 ; use absolute distances for extrusion
G92 E0
G1 Z0.350 F7800.000
G1 E-2.00000 F2400.00000
G92 E0
G1 X90.154 Y78.076 F7800.000
G1 E2.00000 F2400.00000
G1 F1800
G1 X92.236 Y75.670 E2.28927
G1 X94.618 Y73.924 E2.55782
G1 X95.573 Y73.512 E2.65241
G1 X97.804 Y72.980 E2.86095
G1 X100.907 Y73.546 E3.14777
G1 X101.321 Y73.732 E3.18904
G1 X103.385 Y75.182 E3.41840
G1 X118.241 Y91.500 E5.42501
G1 X123.029 Y97.258 E6.10594
G1 X123.301 Y97.610 E6.14642
G1 X125.377 Y100.484 E6.46872
G1 X125.932 Y101.400 E6.56610
G1 X126.889 Y103.315 E6.76085
G1 X127.249 Y104.183 E6.84627
G1 X127.403 Y104.644 E6.89047
G1 X127.731 Y107.137 E7.11905
G1 X126.802 Y110.167 E7.40729
G1 X126.223 Y111.129 E7.50932
G1 X113.133 Y131.562 E9.71588
G1 X112.204 Y132.708 E9.84996
G1 X111.494 Y133.323 E9.93541
G1 X109.594 Y134.740 E10.15095
G1 X108.187 Y135.540 E10.29815
G1 X106.271 Y136.339 E10.48684
G1 X105.401 Y136.632 E10.57040
G1 X104.891 Y136.765 E10.61830
G1 X104.700 Y136.813 E10.63616
G1 X102.117 Y136.938 E10.87139
G1 X94.605 Y135.818 E11.56200
G1 X92.429 Y135.092 E11.77054
G1 X90.631 Y133.668 E11.97908
G1 X89.297 Y131.360 E12.22148
G1 X86.253 Y122.067 E13.11067
G1 X86.069 Y121.387 E13.17477
G1 X82.398 Y104.145 E14.77767
G1 X82.252 Y102.766 E14.90380
G1 X82.252 Y101.969 E14.97627
G1 X82.570 Y99.941 E15.16290
G1 X88.857 Y80.384 E17.03086
G1 X90.125 Y78.128 E17.26616
G1 E15.26616 F2400.00000
G92 E0
G1 X104.358 Y127.369 F7800.000
G1 E2.00000 F2400.00000
G1 F1800
G1 X104.358 Y128.042 E2.06118
G1 X103.566 Y127.910 E2.13424
G1 X103.565 Y127.506 E2.17096
G1 X102.752 Y127.506 E2.24489
G1 X102.748 Y127.055 E2.28591
G1 X102.136 Y126.953 E2.34230
G1 X102.137 Y126.548 E2.37910
G1 X101.077 Y126.548 E2.47550
G1 X100.535 Y126.187 E2.53475
G1 X100.539 Y123.162 E2.80978
G1 X98.111 Y125.590 E3.12203
G1 X97.635 Y125.590 E3.16529
G1 X97.474 Y125.750 E3.18590
G1 X96.703 Y125.750 E3.25606
G1 X96.703 Y125.590 E3.27059
G1 X96.543 Y125.590 E3.28511
G1 X96.543 Y125.112 E3.32866
G1 X96.384 Y125.112 E3.34315
G1 X96.384 Y124.632 E3.38671
G1 X96.224 Y124.632 E3.40126
G1 X96.224 Y124.153 E3.44481
G1 X96.064 Y124.153 E3.45933
G1 X96.064 Y123.515 E3.51737
G1 X95.905 Y123.515 E3.53189
G1 X95.905 Y123.196 E3.56094
G1 X95.745 Y123.196 E3.57544
G1 X95.745 Y122.557 E3.63348
G1 X95.585 Y122.557 E3.64802
G1 X95.585 Y122.238 E3.67707
G1 X95.426 Y122.238 E3.69157
G1 X95.426 Y121.759 E3.73509
G1 X95.266 Y121.759 E3.74963
G1 X95.266 Y121.280 E3.79319
G1 X95.106 Y121.280 E3.80769
G1 X95.106 Y120.801 E3.85124
G1 X94.947 Y120.801 E3.86576
G1 X94.947 Y120.322 E3.90931
G1 X94.787 Y120.322 E3.92381
G1 X94.787 Y119.844 E3.96736
G1 X94.627 Y119.844 E3.98188
G1 X94.627 Y119.365 E4.02543
G1 X94.468 Y119.365 E4.03995
G1 X94.468 Y118.726 E4.09802
G1 X94.308 Y118.726 E4.11253
G1 X94.308 Y118.434 E4.13904
G1 X94.468 Y118.275 E4.15957
G1 X94.468 Y117.477 E4.23216
G1 X95.911 Y116.034 E4.41772
G1 X95.368 Y115.830 E4.47042
G1 X96.164 Y114.735 E4.59351
G1 X94.268 Y114.735 E4.76593
G1 X94.701 Y114.017 E4.84215
G1 X94.149 Y113.852 E4.89461
G1 X94.149 Y112.314 E5.03445
G1 X94.499 Y111.858 E5.08673
G1 X94.628 Y111.730 E5.10326
G1 X94.628 Y111.691 E5.10676
G1 X94.808 Y111.457 E5.13364
G1 X94.665 Y111.374 E5.14868
G1 X95.253 Y110.785 E5.22438
G1 X94.413 Y109.526 E5.36204
G1 X94.217 Y108.350 E5.47043
G1 X94.149 Y108.350 E5.47670
G1 X94.149 Y106.594 E5.63638
G1 X93.510 Y106.594 E5.69449
G1 X93.510 Y105.955 E5.75255
G1 X92.722 Y105.955 E5.82424
G1 X93.065 Y105.561 E5.87183
G1 X94.635 Y102.763 E6.16358
G1 X93.350 Y102.763 E6.28043
G1 X93.350 Y101.992 E6.35050
G1 X94.655 Y100.687 E6.51827
G1 X91.275 Y100.687 E6.82560
G1 X91.275 Y100.118 E6.87741
G1 X91.507 Y99.557 E6.93258
G1 X91.529 Y99.387 E6.94815
G1 X91.914 Y98.731 E7.01729
G1 X91.914 Y98.480 E7.04014
G1 X92.073 Y98.320 E7.06067
G1 X92.073 Y98.161 E7.07518
G1 X92.233 Y98.001 E7.09572
G1 X92.233 Y97.535 E7.13807
G1 X92.397 Y96.879 E7.19956
G1 X92.712 Y96.564 E7.24005
G1 X92.712 Y96.085 E7.28360
G1 X92.871 Y95.926 E7.30411
G1 X92.871 Y95.607 E7.33313
G1 X93.031 Y95.447 E7.35366
G1 X93.031 Y95.287 E7.36820
G1 X93.191 Y95.128 E7.38873
G1 X93.191 Y94.649 E7.43228
G1 X93.350 Y94.489 E7.45276
G1 X93.350 Y94.052 E7.49256
G1 X93.594 Y93.462 E7.55062
G1 X93.611 Y93.271 E7.56806
G1 X93.829 Y93.052 E7.59610
G1 X93.829 Y92.733 E7.62514
G1 X93.983 Y92.580 E7.64487
G1 X93.987 Y92.146 E7.68431
G1 X94.092 Y91.832 E7.71444
G1 X94.150 Y91.774 E7.72188
G1 X94.293 Y91.152 E7.77991
G1 X94.468 Y90.976 E7.80247
G1 X94.468 Y90.623 E7.83460
G1 X94.627 Y90.451 E7.85593
G1 X94.627 Y90.336 E7.86639
G1 X94.793 Y90.167 E7.88789
G1 X94.791 Y89.697 E7.93067
G1 X94.947 Y89.540 E7.95077
G1 X94.947 Y89.058 E7.99461
G1 X95.266 Y88.514 E8.05199
G1 X95.266 Y88.273 E8.07390
G1 X95.438 Y88.104 E8.09584
G1 X95.434 Y87.781 E8.12524
G1 X95.590 Y87.627 E8.14514
G1 X95.587 Y86.978 E8.20407
G1 X95.877 Y86.462 E8.25789
G1 X95.880 Y86.372 E8.26606
G1 X96.064 Y86.188 E8.28976
G1 X96.064 Y85.869 E8.31880
G1 X96.224 Y85.709 E8.33932
G1 X96.224 Y85.529 E8.35572
G1 X97.168 Y85.529 E8.44158
G1 X97.005 Y85.752 E8.46667
G1 X98.488 Y86.295 E8.61023
G1 X98.929 Y86.956 E8.68251
G1 X98.848 Y88.566 E8.82912
G1 X99.090 Y88.566 E8.85117
G1 X99.090 Y88.881 E8.87985
G1 X99.244 Y88.881 E8.89383
G1 X99.244 Y89.041 E8.90834
G1 X99.729 Y89.041 E8.95242
G1 X99.729 Y89.518 E8.99584
G1 X99.889 Y89.518 E9.01037
G1 X99.889 Y89.679 E9.02500
G1 X100.366 Y89.679 E9.06841
G1 X100.366 Y90.211 E9.11672
G1 X101.903 Y90.456 E9.25830
G1 X102.123 Y90.563 E9.28054
G1 X102.123 Y92.294 E9.43795
G1 X103.241 Y91.880 E9.54633
G1 X103.241 Y92.393 E9.59302
G1 X103.724 Y92.393 E9.63692
G1 X103.725 Y92.714 E9.66609
G1 X103.879 Y92.714 E9.68012
G1 X103.879 Y93.032 E9.70902
G1 X104.297 Y93.032 E9.74702
G1 X104.537 Y93.670 E9.80904
G1 X105.623 Y93.670 E9.90777
G1 X104.774 Y94.533 E10.01781
G1 X105.232 Y94.685 E10.06170
G1 X103.574 Y96.343 E10.27489
G1 X105.955 Y96.369 E10.49141
G1 X105.955 Y96.864 E10.53644
G1 X104.384 Y98.958 E10.77448
G1 X105.702 Y99.178 E10.89596
G1 X104.359 Y100.533 E11.06944
G1 X106.753 Y100.534 E11.28708
G1 X106.753 Y103.117 E11.52191
G1 X109.147 Y100.723 E11.82976
G1 X109.147 Y102.367 E11.97924
G1 X109.626 Y101.851 E12.04325
G1 X109.626 Y103.116 E12.15829
G1 X111.250 Y101.492 E12.36710
G1 X112.951 Y101.492 E12.52177
G1 X112.734 Y101.709 E12.54965
G1 X114.416 Y102.270 E12.71080
G1 X114.416 Y105.302 E12.98656
G1 X114.377 Y105.333 E12.99109
G1 X114.416 Y105.339 E12.99473
G1 X114.416 Y106.002 E13.05501
G1 X114.955 Y105.429 E13.12653
G1 X117.824 Y105.907 E13.39103
G1 X118.765 Y106.534 E13.49378
G1 X118.480 Y106.819 E13.53038
G1 X116.360 Y107.737 E13.74044
G1 X115.849 Y107.854 E13.78816
G1 X111.517 Y112.181 E14.34487
G1 X110.265 Y112.181 E14.45873
G1 X110.265 Y113.674 E14.59449
G1 X110.151 Y113.873 E14.61534
G1 X109.946 Y114.080 E14.64185
G1 X109.946 Y114.874 E14.71406
G1 X108.224 Y116.596 E14.93548
G1 X109.443 Y116.976 E15.05164
G1 X109.147 Y117.278 E15.09009
G1 X109.147 Y117.588 E15.11824
G1 X108.988 Y117.748 E15.13877
G1 X108.988 Y118.067 E15.16780
G1 X108.828 Y118.227 E15.18834
G1 X108.828 Y118.540 E15.21681
G1 X108.668 Y118.698 E15.23731
G1 X108.668 Y119.026 E15.26710
G1 X108.509 Y119.185 E15.28756
G1 X108.509 Y119.497 E15.31597
G1 X108.345 Y119.659 E15.33687
G1 X108.347 Y119.985 E15.36656
G1 X108.190 Y120.142 E15.38675
G1 X108.190 Y120.462 E15.41579
G1 X108.030 Y120.621 E15.43632
G1 X108.030 Y120.957 E15.46684
G1 X107.870 Y121.122 E15.48773
G1 X107.870 Y121.281 E15.50218
G1 X107.711 Y121.453 E15.52350
G1 X107.711 Y121.739 E15.54955
G1 X107.551 Y121.899 E15.57010
G1 X107.551 Y122.377 E15.61355
G1 X107.392 Y122.537 E15.63407
G1 X107.391 Y122.856 E15.66311
G1 X107.232 Y123.016 E15.68364
G1 X107.232 Y123.335 E15.71267
G1 X107.072 Y123.495 E15.73319
G1 X107.072 Y123.814 E15.76223
G1 X106.913 Y123.973 E15.78275
G1 X106.913 Y124.293 E15.81179
G1 X106.753 Y124.453 E15.83233
G1 X106.753 Y124.765 E15.86078
G1 X106.591 Y124.925 E15.88147
G1 X106.592 Y125.252 E15.91118
G1 X106.434 Y125.410 E15.93151
G1 X106.434 Y125.729 E15.96054
G1 X106.274 Y125.889 E15.98107
G1 X106.274 Y126.368 E16.02462
G1 X106.114 Y126.528 E16.04515
G1 X106.114 Y126.867 E16.07606
G1 X105.935 Y126.867 E16.09236
G1 X105.448 Y127.354 E16.15494
G1 X104.418 Y127.369 E16.24857
G1 E14.24857 F2400.00000
G92 E0
G1 X96.703 Y84.542 F7800.000
G1 E2.00000 F2400.00000
G1 F1800
G1 X96.703 Y83.953 E2.05355
G1 X97.175 Y83.481 E2.11426
G1 X97.175 Y84.070 E2.16781
G1 X96.745 Y84.500 E2.22308
G1 X97.225 Y84.904 F7800.000
G1 F1800
G1 X98.397 Y84.904 E2.32964
G1 X97.999 Y85.450 E2.39107
G1 X98.895 Y85.778 E2.47783
G1 X99.376 Y86.500 E2.55677
G1 X99.578 Y86.500 E2.57508
G1 X99.505 Y87.940 E2.70614
G1 X99.715 Y87.939 E2.72525
G1 X99.715 Y88.256 E2.75407
G1 X99.869 Y88.256 E2.76805
G1 X99.869 Y88.416 E2.78256
G1 X100.354 Y88.416 E2.82664
G1 X100.354 Y88.894 E2.87011
G1 X100.513 Y88.894 E2.88463
G1 X100.513 Y89.054 E2.89922
G1 X100.992 Y89.054 E2.94268
G1 X100.991 Y89.628 E2.99482
G1 X101.152 Y89.639 E3.00950
G1 X101.152 Y89.698 E3.01484
G1 X102.094 Y89.855 E3.10165
G1 X102.748 Y90.170 E3.16771
G1 X102.748 Y91.396 E3.27919
G1 X103.258 Y91.207 E3.32861
G1 X103.312 Y91.289 E3.33757
G1 X103.866 Y91.289 E3.38792
G1 X103.866 Y91.768 E3.43147
G1 X104.347 Y91.768 E3.47519
G1 X104.348 Y92.089 E3.50431
G1 X104.504 Y92.088 E3.51853
G1 X104.504 Y92.407 E3.54748
G1 X104.730 Y92.407 E3.56804
G1 X104.970 Y93.045 E3.63006
G1 X106.353 Y93.045 E3.75580
G1 X106.661 Y93.507 E3.80624
G1 X105.922 Y94.257 E3.90193
G1 X106.388 Y94.412 E3.94661
G1 X105.066 Y95.734 E4.11661
G1 X106.580 Y95.750 E4.25423
G1 X106.580 Y96.780 E4.34787
G1 X106.757 Y96.835 E4.36479
G1 X105.501 Y98.511 E4.55524
G1 X106.995 Y98.760 E4.69297
G1 X105.857 Y99.909 E4.84003
G1 X107.378 Y99.909 E4.97833
G1 X107.378 Y101.608 E5.13279
G1 X109.772 Y99.214 E5.44064
G1 X109.772 Y100.777 E5.58274
G1 X110.251 Y100.261 E5.64676
G1 X110.251 Y101.608 E5.76917
G1 X111.509 Y100.350 E5.93087
G1 X112.646 Y99.971 E6.03986
G1 X112.646 Y100.440 E6.08246
G1 X112.216 Y100.867 E6.13762
G1 X114.460 Y100.867 E6.34167
G1 X113.891 Y101.436 E6.41479
G1 X115.040 Y101.819 E6.52495
G1 X115.041 Y104.426 E6.76196
G1 X116.250 Y103.139 E6.92251
G1 X116.631 Y103.282 E6.95944
G1 X116.631 Y104.382 E7.05941
G1 X115.892 Y104.952 E7.14426
G1 X118.059 Y105.313 E7.34404
G1 X119.355 Y106.177 E7.48569
G1 X119.360 Y106.616 E7.52559
G1 X119.510 Y106.616 E7.53929
G1 X119.510 Y107.194 E7.59183
G1 X118.743 Y107.862 E7.68437
G1 X118.742 Y107.441 E7.72269
G1 X118.108 Y108.075 E7.80426
G1 X118.108 Y107.661 E7.84188
G1 X116.556 Y108.333 E7.99567
G1 X116.163 Y108.423 E8.03229
G1 X113.175 Y111.408 E8.41631
G1 X113.818 Y111.407 E8.47475
G1 X112.419 Y112.806 E8.65467
G1 X110.890 Y112.806 E8.79369
G1 X110.890 Y113.841 E8.88776
G1 X110.722 Y114.133 E8.91845
G1 X110.736 Y114.171 E8.92206
G1 X110.571 Y114.337 E8.94342
G1 X110.571 Y115.133 E9.01578
G1 X109.397 Y116.307 E9.16675
G1 X110.248 Y116.573 E9.24788
G1 X109.934 Y116.887 E9.28835
G1 X109.932 Y117.371 E9.33232
G1 X109.772 Y117.533 E9.35301
G1 X109.772 Y117.847 E9.38151
G1 X109.613 Y118.006 E9.40203
G1 X109.613 Y118.326 E9.43107
G1 X109.453 Y118.485 E9.45160
G1 X109.453 Y118.801 E9.48029
G1 X109.293 Y118.959 E9.50076
G1 X109.293 Y119.284 E9.53031
G1 X109.134 Y119.444 E9.55081
G1 X109.134 Y119.759 E9.57946
G1 X108.971 Y119.919 E9.60022
G1 X108.973 Y120.243 E9.62969
G1 X108.815 Y120.401 E9.65001
G1 X108.815 Y120.720 E9.67905
G1 X108.655 Y120.880 E9.69958
G1 X108.655 Y121.209 E9.72951
G1 X108.495 Y121.375 E9.75040
G1 X108.495 Y121.527 E9.76425
G1 X108.336 Y121.699 E9.78557
G1 X108.336 Y121.998 E9.81278
G1 X108.176 Y122.158 E9.83333
G1 X108.176 Y122.636 E9.87681
G1 X108.016 Y122.796 E9.89734
G1 X108.016 Y123.115 E9.92637
G1 X107.857 Y123.275 E9.94690
G1 X107.857 Y123.594 E9.97593
G1 X107.697 Y123.753 E9.99646
G1 X107.697 Y124.073 E10.02549
G1 X107.537 Y124.232 E10.04602
G1 X107.537 Y124.552 E10.07505
G1 X107.378 Y124.711 E10.09558
G1 X107.378 Y125.027 E10.12426
G1 X107.217 Y125.186 E10.14487
G1 X107.217 Y125.510 E10.17437
G1 X107.059 Y125.669 E10.19477
G1 X107.059 Y125.988 E10.22381
G1 X106.899 Y126.148 E10.24434
G1 X106.899 Y126.627 E10.28788
G1 X106.739 Y126.786 E10.30841
G1 X106.739 Y127.106 E10.33744
G1 X106.580 Y127.265 E10.35797
G1 X106.580 Y127.492 E10.37862
G1 X106.194 Y127.492 E10.41373
G1 X105.710 Y127.975 E10.47583
G1 X104.983 Y127.985 E10.54193
G1 X104.983 Y128.488 E10.58768
G1 X104.522 Y128.770 E10.63678
G1 X103.983 Y128.771 E10.68579
G1 X104.091 Y128.631 E10.70183
G1 X102.941 Y128.440 E10.80778
G1 X102.941 Y128.131 E10.83583
G1 X102.134 Y128.131 E10.90919
G1 X102.128 Y127.585 E10.95881
G1 X101.509 Y127.482 E11.01591
G1 X101.510 Y127.173 E11.04399
G1 X100.813 Y127.173 E11.10735
G1 X100.388 Y127.031 E11.14812
G1 X100.388 Y126.840 E11.16554
G1 X99.910 Y126.521 E11.21780
G1 X99.912 Y124.673 E11.38587
G1 X98.369 Y126.215 E11.58425
G1 X97.893 Y126.215 E11.62757
G1 X97.733 Y126.375 E11.64817
G1 X96.844 Y126.375 E11.72900
G1 X96.842 Y127.129 E11.79758
G1 X96.397 Y127.614 E11.85743
G1 X96.397 Y127.173 E11.89755
G1 X96.238 Y127.173 E11.91205
G1 X96.238 Y126.694 E11.95556
G1 X96.078 Y126.694 E11.97010
G1 X96.078 Y126.215 E12.01364
G1 X95.918 Y126.215 E12.02816
G1 X95.918 Y125.736 E12.07171
G1 X95.759 Y125.736 E12.08621
G1 X95.759 Y125.257 E12.12978
G1 X95.599 Y125.257 E12.14431
G1 X95.599 Y124.778 E12.18786
G1 X95.439 Y124.778 E12.20239
G1 X95.439 Y124.140 E12.26043
G1 X95.280 Y124.140 E12.27494
G1 X95.280 Y123.821 E12.30399
G1 X95.120 Y123.821 E12.31850
G1 X95.120 Y123.182 E12.37654
G1 X94.960 Y123.182 E12.39107
G1 X94.960 Y122.863 E12.42013
G1 X94.801 Y122.863 E12.43463
G1 X94.801 Y122.384 E12.47815
G1 X94.641 Y122.384 E12.49268
G1 X94.641 Y121.905 E12.53624
G1 X94.482 Y121.905 E12.55075
G1 X94.482 Y121.426 E12.59429
G1 X94.322 Y121.426 E12.60881
G1 X94.322 Y120.947 E12.65236
G1 X94.162 Y120.947 E12.66687
G1 X94.162 Y120.468 E12.71041
G1 X94.003 Y120.468 E12.72494
G1 X94.003 Y119.990 E12.76848
G1 X93.843 Y119.990 E12.78300
G1 X93.843 Y119.351 E12.84107
G1 X93.683 Y119.351 E12.85558
G1 X93.683 Y118.176 E12.96245
G1 X93.843 Y118.016 E12.98298
G1 X93.843 Y117.218 E13.05556
G1 X94.783 Y116.278 E13.17643
G1 X94.380 Y116.127 E13.21556
G1 X94.937 Y115.360 E13.30175
G1 X93.683 Y115.360 E13.41578
G1 X93.683 Y115.041 E13.44481
G1 X93.524 Y115.041 E13.45933
G1 X93.524 Y114.760 E13.48489
G1 X93.750 Y114.385 E13.52474
G1 X93.045 Y114.173 E13.59169
G1 X93.045 Y113.866 E13.61963
G1 X93.524 Y113.386 E13.68125
G1 X93.524 Y112.343 E13.77607
G1 X93.405 Y112.256 E13.78950
G1 X93.877 Y111.641 E13.85997
G1 X93.849 Y111.625 E13.86299
G1 X94.003 Y111.471 E13.88279
G1 X94.003 Y111.152 E13.91175
G1 X94.449 Y110.706 E13.96917
G1 X93.819 Y109.761 E14.07245
G1 X93.688 Y108.975 E14.14490
G1 X93.523 Y108.975 E14.15987
G1 X93.524 Y107.219 E14.31955
G1 X92.885 Y107.219 E14.37764
G1 X92.885 Y106.580 E14.43570
G1 X92.247 Y106.580 E14.49375
G1 X92.247 Y105.549 E14.58751
G1 X92.552 Y105.199 E14.62975
G1 X93.568 Y103.388 E14.81862
G1 X92.726 Y103.388 E14.89525
G1 X92.726 Y101.733 E15.04568
G1 X93.146 Y101.312 E15.09980
G1 X90.188 Y101.312 E15.36884
G1 X90.491 Y100.796 E15.42326
G1 X90.491 Y100.616 E15.43967
G1 X90.650 Y100.456 E15.46020
G1 X90.650 Y99.994 E15.50224
G1 X90.898 Y99.395 E15.56117
G1 X90.928 Y99.162 E15.58254
G1 X91.289 Y98.561 E15.64622
G1 X91.289 Y98.221 E15.67716
G1 X91.448 Y98.062 E15.69769
G1 X91.448 Y97.902 E15.71221
G1 X91.608 Y97.742 E15.73274
G1 X91.608 Y97.263 E15.77630
G1 X91.673 Y97.198 E15.78467
