; generated by Slic3r 1.3.0-dev on 2017-08-18 at 21:50:47

; external perimeters extrusion width = 0.40mm (1.14mm^3/s)
; perimeters extrusion width = 0.68mm (3.95mm^3/s)
; infill extrusion width = 1.20mm (9.43mm^3/s)
; solid infill extrusion width = 0.68mm (1.32mm^3/s)
; top infill extrusion width = 0.68mm (0.99mm^3/s)
; support material extrusion width = 0.40mm (2.27mm^3/s)

M107
M190 S66 ; set bed temperature and wait for it to be reached
M104 S215 ; set temperature
G28 ; home all axes
G1 Z5 F5000 ; lift nozzle

; Filament gcode

M109 S215 ; set temperature and wait for it to be reached
G21 ; set units to millimeters
G90 ; use absolute coordinates
M82 ; use absolute distances for extrusion
G92 E0
G1 Z0.350 F7800.000
G1 E-2.00000 F2400.00000
G92 E0
G1 X99.077 Y66.968 F7800.000
G1 E2.00000 F2400.00000
G1 F1800
G1 X99.266 Y66.695 E2.03015
G1 X100.911 Y65.098 E2.23869
G1 X103.003 Y64.157 E2.44723
G1 X104.634 Y63.952 E2.59675
G1 X106.161 Y63.952 E2.73557
G1 X106.610 Y63.968 E2.77644
G1 X122.333 Y65.036 E4.20943
G1 X122.917 Y65.102 E4.26287
G1 X125.910 Y65.575 E4.53838
G1 X130.337 Y66.338 E4.94685
G1 X133.012 Y66.833 E5.19429
G1 X135.161 Y67.635 E5.40283
G1 X136.202 Y68.391 E5.51979
G1 X136.348 Y68.521 E5.53754
G1 X137.684 Y70.156 E5.72957
G1 X143.376 Y79.980 E6.76200
G1 X143.881 Y80.984 E6.86412
G1 X144.486 Y83.036 E7.05870
G1 X144.680 Y84.713 E7.21218
G1 X144.834 Y87.509 E7.46678
G1 X144.611 Y89.618 E7.65965
G1 X144.366 Y90.471 E7.74037
G1 X141.437 Y99.113 E8.57004
G1 X141.227 Y99.653 E8.62276
G1 X131.250 Y122.341 E10.87643
G1 X129.762 Y124.464 E11.11220
G1 X128.734 Y125.441 E11.24114
G1 X123.719 Y129.919 E11.85248
G1 X121.960 Y131.028 E12.04158
G1 X88.168 Y145.509 E15.38449
G1 X85.589 Y146.045 E15.62402
G1 X84.973 Y146.047 E15.68005
G1 X82.849 Y145.708 E15.87567
G1 X82.390 Y145.555 E15.91958
G1 X81.522 Y145.195 E16.00509
G1 X80.812 Y144.833 E16.07751
G1 X80.271 Y144.518 E16.13448
G1 X77.218 Y142.540 E16.46520
G1 X76.846 Y142.280 E16.50648
G1 X76.235 Y141.822 E16.57589
G1 X75.524 Y141.205 E16.66150
G1 X75.219 Y140.900 E16.70077
G1 X74.042 Y139.301 E16.88130
G1 X65.918 Y123.859 E18.46792
G1 X65.218 Y121.675 E18.67646
G1 X65.304 Y119.383 E18.88501
G1 X66.238 Y117.147 E19.10538
G1 X99.044 Y67.018 E24.55291
G1 E22.55291 F2400.00000
G92 E0
G1 X84.350 Y138.157 F7800.000
G1 E2.00000 F2400.00000
G1 F1800
G1 X83.460 Y138.157 E2.08094
G1 X83.404 Y137.989 E2.09697
G1 X83.191 Y137.846 E2.12036
G1 X83.303 Y137.565 E2.14785
G1 X83.857 Y137.657 E2.19895
G1 X84.308 Y138.114 E2.25731
G1 X83.956 Y138.088 F7800.000
G1 X82.651 Y137.213 F7800.000
G1 F1800
G1 X82.595 Y137.246 E2.26468
G1 F1800
G1 X82.538 Y137.279 E2.27258
G1 X82.485 Y137.270 E2.27919
G1 X82.321 Y137.107 E2.30712
G1 F1800
G1 X82.147 Y137.035 E2.32794
G1 X82.121 Y137.053 E2.33142
G1 F1800
G1 X82.068 Y137.088 E2.33761
G1 F1800
G1 X82.003 Y137.130 E2.34432
G1 X81.384 Y136.630 F7800.000
G1 F1800
G1 X81.022 Y136.630 E2.37719
G1 X80.874 Y136.482 E2.39631
G1 X80.759 Y136.172 E2.42630
G1 X80.535 Y136.172 E2.44667
G1 X80.255 Y135.984 E2.47737
G1 X80.255 Y135.592 E2.51301
G1 X80.548 Y135.306 E2.55023
G1 X80.757 Y135.522 E2.57755
G1 X80.945 Y135.804 E2.60838
G1 X81.384 Y135.804 E2.64828
G1 X81.384 Y136.570 E2.71797
G1 X81.046 Y136.503 F7800.000
G1 X79.836 Y135.383 F7800.000
G1 F1800
G1 X79.829 Y135.912 E2.72378
G1 E0.72378 F2400.00000
G92 E0
G1 X84.444 Y138.812 F7800.000
G1 E2.00000 F2400.00000
G1 F1800
G1 X84.569 Y138.830 E2.00989
G1 F1800
G1 X84.739 Y138.865 E2.02518
G1 X84.770 Y138.927 E2.03127
G1 X84.856 Y138.971 E2.03984
G1 F1800
G1 X84.942 Y139.016 E2.04722
G1 F1800
G1 X85.132 Y139.080 E2.05982
G1 X85.167 Y139.180 E2.06646
G1 E0.06646 F2400.00000
G92 E0
G1 X84.252 Y124.695 F7800.000
G1 E2.00000 F2400.00000
G1 F1800
G1 X83.947 Y124.695 E2.02773
G1 X83.948 Y124.542 E2.04161
G1 X83.489 Y124.542 E2.08328
G1 X83.489 Y124.390 E2.09716
G1 X82.528 Y124.390 E2.18454
G1 X82.476 Y124.078 E2.21331
G1 X82.115 Y124.078 E2.24620
G1 X82.115 Y123.321 E2.31499
G1 X81.351 Y123.321 E2.38437
G1 X81.351 Y122.863 E2.42601
G1 X81.199 Y122.863 E2.43984
G1 X81.199 Y122.710 E2.45372
G1 X80.742 Y122.710 E2.49535
G1 X80.742 Y122.558 E2.50923
G1 X79.826 Y122.558 E2.59252
G1 X79.826 Y122.405 E2.60640
G1 X79.460 Y122.405 E2.63966
G1 X79.420 Y121.361 E2.73465
G1 X77.536 Y122.258 E2.92437
G1 X77.536 Y121.642 E2.98040
G1 X77.383 Y121.642 E2.99428
G1 X77.383 Y121.337 E3.02205
G1 X76.620 Y121.337 E3.09146
G1 X76.620 Y120.573 E3.16085
G1 X75.817 Y120.573 E3.23386
G1 X75.692 Y120.198 E3.26979
G1 X76.901 Y119.346 E3.40432
G1 X77.515 Y119.346 E3.46010
G1 X77.667 Y119.193 E3.47973
G1 X78.125 Y119.193 E3.52135
G1 X78.278 Y119.041 E3.54098
G1 X78.888 Y119.041 E3.59652
G1 X79.041 Y118.888 E3.61614
G1 X79.499 Y118.888 E3.65778
G1 X79.652 Y118.735 E3.67741
G1 X80.568 Y118.735 E3.76069
G1 X80.720 Y118.583 E3.78032
G1 X81.320 Y118.583 E3.83484
G1 X81.709 Y119.426 E3.91928
G1 X82.412 Y118.723 E4.00963
G1 X82.492 Y118.874 E4.02516
G1 X84.294 Y117.329 E4.24094
G1 X84.574 Y117.797 E4.29051
G1 X85.614 Y117.209 E4.39910
G1 X86.828 Y117.209 E4.50954
G1 X86.971 Y117.826 E4.56717
G1 X87.312 Y117.625 E4.60317
G1 X87.312 Y119.013 E4.72940
G1 X89.690 Y116.635 E5.03518
G1 X89.807 Y116.635 E5.04590
G1 X89.885 Y116.598 E5.05369
G1 X90.337 Y116.598 E5.09483
G1 X91.117 Y115.819 E5.19504
G1 X91.885 Y115.609 E5.26747
G1 X91.885 Y115.072 E5.31636
G1 X92.648 Y115.072 E5.38576
G1 X92.648 Y114.576 E5.43088
G1 X92.879 Y114.498 E5.45305
G1 X93.033 Y114.309 E5.47526
G1 X93.090 Y114.309 E5.48045
G1 X95.252 Y112.122 E5.76002
G1 X95.255 Y112.935 E5.83391
G1 X95.402 Y112.935 E5.84730
G1 X95.402 Y113.240 E5.87501
G1 X95.551 Y113.240 E5.88860
G1 X95.551 Y113.531 E5.91509
G1 X95.707 Y113.532 E5.92920
G1 X95.707 Y113.850 E5.95811
G1 X96.159 Y113.850 E5.99921
G1 X96.159 Y114.461 E6.05476
G1 X96.471 Y114.461 E6.08313
G1 X96.471 Y114.516 E6.08814
G1 X96.623 Y114.542 E6.10221
G1 X96.623 Y115.988 E6.23370
G1 X96.963 Y115.988 E6.26463
G1 X97.156 Y117.527 E6.40567
G1 X98.760 Y116.429 E6.58245
G1 X98.760 Y116.897 E6.62500
G1 X99.832 Y116.803 E6.72285
G1 X99.833 Y117.045 E6.74483
G1 X100.133 Y117.047 E6.77208
G1 X100.133 Y117.446 E6.80835
G1 X102.166 Y117.341 E6.99350
G1 X99.708 Y119.800 E7.30966
G1 X99.616 Y119.719 E7.32083
G1 X97.955 Y120.023 E7.47438
G1 X97.887 Y120.113 E7.48463
G1 X95.383 Y120.116 E7.71226
G1 X94.987 Y118.547 E7.85948
G1 X93.193 Y121.673 E8.18718
G1 X92.377 Y121.707 E8.26148
G1 X92.358 Y122.757 E8.35697
G1 X91.590 Y123.426 E8.44953
G1 X91.590 Y123.469 E8.45347
G1 X90.833 Y124.084 E8.54219
G1 X90.052 Y124.084 E8.61317
G1 X90.052 Y122.779 E8.73182
G1 X88.445 Y123.583 E8.89522
G1 X86.615 Y122.290 E9.09893
G1 X84.869 Y123.454 E9.28977
G1 X84.869 Y126.374 E9.55528
G1 X84.460 Y126.374 E9.59246
G1 X84.405 Y126.043 E9.62297
G1 X84.405 Y125.000 E9.71780
G1 X84.252 Y125.000 E9.73167
G1 X84.252 Y124.755 E9.75397
G1 E7.75397 F2400.00000
G92 E0
G1 X94.953 Y112.072 F7800.000
G1 E2.00000 F2400.00000
G1 F1800
G1 X94.327 Y111.608 E2.07079
G1 X94.327 Y111.103 E2.11678
G1 X94.788 Y111.103 E2.15869
G1 X94.788 Y111.408 E2.18645
G1 X94.949 Y111.408 E2.20108
G1 X94.952 Y112.012 E2.25603
G1 E0.25603 F2400.00000
G92 E0
G1 X102.653 Y120.552 F7800.000
G1 E2.00000 F2400.00000
G1 F1800
G1 X101.894 Y120.563 E2.06902
G1 X102.093 Y117.972 E2.30534
G1 X102.577 Y117.972 E2.34930
G1 X102.577 Y118.125 E2.36318
G1 X102.882 Y118.125 E2.39094
G1 X102.882 Y118.277 E2.40482
G1 X103.493 Y118.277 E2.46034
G1 X103.493 Y118.430 E2.47422
G1 X105.944 Y118.430 E2.69718
G1 X106.039 Y118.583 E2.71350
G1 X106.512 Y118.583 E2.75652
G1 X107.337 Y119.699 E2.88274
G1 X107.764 Y119.287 E2.93665
G1 X107.764 Y120.109 E3.01142
G1 X108.259 Y120.109 E3.05652
G1 X108.452 Y121.647 E3.19742
G1 X110.253 Y120.415 E3.39586
G1 X111.861 Y120.415 E3.54210
G1 X112.080 Y120.195 E3.57031
G1 X112.350 Y120.110 E3.59602
G1 X113.534 Y120.107 E3.70368
G1 X110.523 Y123.719 E4.13130
G1 X110.203 Y123.704 E4.16046
G1 X110.203 Y122.042 E4.31152
G1 X108.000 Y123.549 E4.55417
G1 X107.462 Y122.327 E4.67559
G1 X106.614 Y123.016 E4.77489
G1 X106.232 Y123.016 E4.80966
G1 X106.232 Y122.863 E4.82354
G1 X104.503 Y122.863 E4.98070
G1 X103.974 Y122.513 E5.03842
G1 X103.791 Y122.330 E5.06194
G1 X103.790 Y121.514 E5.13617
G1 X102.793 Y121.498 E5.22686
G1 X102.662 Y120.611 E5.30842
G1 E3.30842 F2400.00000
G92 E0
G1 X114.453 Y120.627 F7800.000
G1 E2.00000 F2400.00000
G1 F1800
G1 X117.086 Y120.532 E2.23959
G1 X117.122 Y120.495 E2.24427
G1 X117.536 Y120.547 E2.28222
G1 X117.536 Y121.489 E2.36788
G1 X114.460 Y121.489 E2.64758
G1 X114.453 Y120.687 E2.72054
G1 X113.829 Y120.729 F7800.000
G1 F1800
G1 X110.917 Y124.223 E3.13406
G1 X111.597 Y124.474 E3.20000
G1 X111.597 Y125.446 E3.28838
G1 X111.104 Y125.343 E3.33422
G1 X111.104 Y124.862 E3.37796
G1 X110.341 Y124.862 E3.44733
G1 X110.341 Y124.745 E3.45792
G1 X110.037 Y124.618 E3.48787
G1 X110.038 Y124.321 E3.51487
G1 X109.578 Y124.298 E3.55673
G1 X109.578 Y123.227 E3.65415
G1 X108.304 Y124.099 E3.79452
G1 X107.560 Y124.099 E3.86219
G1 X107.220 Y123.329 E3.93870
G1 X106.648 Y123.793 E4.00572
G1 X106.067 Y123.793 E4.05858
G1 X106.067 Y123.641 E4.07245
G1 X105.608 Y123.641 E4.11420
G1 X105.608 Y123.488 E4.12808
G1 X104.322 Y123.488 E4.24497
G1 X103.576 Y122.999 E4.32614
G1 X103.166 Y122.589 E4.37880
G1 X103.166 Y122.129 E4.42062
G1 X102.377 Y122.117 E4.49241
G1 X102.234 Y121.989 E4.50983
G1 X102.115 Y121.185 E4.58371
G1 X101.218 Y121.199 E4.66526
G1 X101.387 Y119.004 E4.86541
G1 X99.734 Y120.657 E5.07799
G1 X99.429 Y120.388 E5.11495
G1 X98.308 Y120.594 E5.21866
G1 X98.148 Y120.806 E5.24279
G1 X97.791 Y120.858 E5.27560
G1 X97.773 Y120.893 E5.27917
G1 X97.214 Y120.893 E5.33002
G1 X97.214 Y120.739 E5.34401
G1 X94.897 Y120.742 E5.55466
G1 X94.760 Y120.199 E5.60562
G1 X93.564 Y122.282 E5.82407
G1 X92.991 Y122.307 E5.87622
G1 X92.977 Y123.046 E5.94348
G1 X92.213 Y123.712 E6.03561
G1 X92.213 Y123.768 E6.04074
G1 X91.055 Y124.709 E6.17645
G1 X90.492 Y124.709 E6.22761
G1 X90.339 Y124.862 E6.24724
G1 X90.008 Y124.862 E6.27740
G1 X89.427 Y124.746 E6.33122
G1 X89.427 Y123.790 E6.41809
G1 X88.375 Y124.317 E6.52507
G1 X87.870 Y124.191 E6.57235
G1 X87.828 Y123.912 E6.59796
G1 X86.605 Y123.048 E6.73411
G1 X85.494 Y123.789 E6.85553
G1 X85.494 Y126.354 E7.08881
G1 X85.647 Y126.354 E7.10269
G1 X85.647 Y127.026 E7.16383
G1 X84.850 Y127.887 E7.27053
G1 X84.850 Y126.999 E7.35132
G1 X84.030 Y126.999 E7.42587
G1 X83.912 Y126.885 E7.44076
G1 X83.780 Y126.095 E7.51361
G1 X83.780 Y125.625 E7.55633
G1 X83.628 Y125.625 E7.57020
G1 X83.628 Y125.320 E7.59797
G1 X83.322 Y125.320 E7.62571
G1 X83.322 Y125.167 E7.63959
G1 X82.864 Y125.167 E7.68125
G1 X82.864 Y125.014 E7.69513
G1 X81.999 Y125.014 E7.77382
G1 X81.947 Y124.702 E7.80259
G1 X81.763 Y124.702 E7.81933
G1 X81.490 Y124.510 E7.84969
G1 X81.490 Y123.946 E7.90102
G1 X80.862 Y123.946 E7.95809
G1 X80.727 Y123.540 E7.99703
G1 X80.727 Y123.488 E8.00173
G1 X80.575 Y123.488 E8.01556
G1 X80.575 Y123.335 E8.02944
G1 X80.117 Y123.335 E8.07107
G1 X80.117 Y123.183 E8.08495
G1 X79.201 Y123.183 E8.16824
G1 X79.201 Y123.030 E8.18212
G1 X78.859 Y123.030 E8.21323
G1 X78.832 Y122.333 E8.27664
G1 X77.688 Y122.878 E8.39178
G1 X76.911 Y122.877 E8.46248
G1 X76.911 Y122.267 E8.51800
G1 X76.758 Y122.267 E8.53188
G1 X76.758 Y121.961 E8.55965
G1 X76.202 Y121.961 E8.61023
G1 X75.995 Y121.815 E8.63330
G1 X75.995 Y121.198 E8.68936
G1 X75.367 Y121.198 E8.74650
G1 X75.265 Y120.893 E8.77576
G1 X74.927 Y120.893 E8.80650
G1 X74.927 Y120.740 E8.82043
G1 X74.016 Y120.740 E8.90325
G1 X74.626 Y120.130 E8.98168
G1 X74.857 Y119.571 E9.03666
G1 X74.876 Y119.422 E9.05033
G1 X75.271 Y119.026 E9.10118
G1 X75.661 Y119.026 E9.13658
G1 X75.842 Y119.328 E9.16860
G1 X76.703 Y118.721 E9.26442
G1 X77.256 Y118.721 E9.31468
G1 X77.408 Y118.568 E9.33431
G1 X77.866 Y118.568 E9.37594
G1 X78.019 Y118.416 E9.39557
G1 X78.630 Y118.416 E9.45110
G1 X78.782 Y118.263 E9.47072
G1 X79.240 Y118.263 E9.51236
G1 X79.393 Y118.111 E9.53199
G1 X80.309 Y118.111 E9.61527
G1 X80.461 Y117.958 E9.63491
G1 X80.919 Y117.958 E9.67656
G1 X81.072 Y117.805 E9.69618
G1 X81.649 Y117.805 E9.74866
G1 X81.901 Y118.350 E9.80325
G1 X82.565 Y117.686 E9.88865
G1 X82.676 Y117.893 E9.91002
G1 X83.844 Y116.892 E10.04991
G1 X84.154 Y116.737 E10.08149
G1 X84.430 Y116.737 E10.10656
G1 X84.578 Y116.589 E10.12559
G1 X84.797 Y116.953 E10.16423
G1 X85.799 Y116.386 E10.26896
G1 X85.799 Y116.584 E10.28697
G1 X87.326 Y116.584 E10.42575
G1 X87.388 Y116.853 E10.45088
G1 X87.936 Y116.528 E10.50887
G1 X87.936 Y117.505 E10.59764
G1 X89.431 Y116.010 E10.78978
G1 X89.666 Y116.010 E10.81115
G1 X89.743 Y115.973 E10.81894
G1 X90.078 Y115.973 E10.84944
G1 X90.792 Y115.260 E10.94120
G1 X91.260 Y115.132 E10.98532
G1 X91.260 Y114.447 E11.04763
G1 X92.023 Y114.447 E11.11703
G1 X92.023 Y114.125 E11.14629
G1 X92.509 Y113.963 E11.19280
G1 X92.735 Y113.684 E11.22552
G1 X92.829 Y113.684 E11.23410
G1 X94.203 Y112.294 E11.41178
G1 X93.704 Y111.924 E11.46827
G1 X93.702 Y110.674 E11.58199
G1 X94.955 Y109.355 E11.74738
G1 X94.955 Y109.714 E11.78008
G1 X95.115 Y109.714 E11.79457
G1 X95.118 Y110.173 E11.83626
G1 X95.264 Y110.173 E11.84953
G1 X95.264 Y110.478 E11.87724
G1 X95.413 Y110.478 E11.89083
G1 X95.413 Y110.783 E11.91859
G1 X95.571 Y110.783 E11.93293
G1 X95.574 Y111.394 E11.98848
G1 X95.722 Y111.394 E12.00191
G1 X95.722 Y111.699 E12.02965
G1 X95.875 Y111.699 E12.04364
G1 X95.878 Y112.310 E12.09920
G1 X96.027 Y112.310 E12.11278
G1 X96.027 Y112.615 E12.14050
G1 X96.176 Y112.615 E12.15409
G1 X96.176 Y112.912 E12.18109
G1 X96.331 Y112.913 E12.19519
G1 X96.331 Y113.225 E12.22359
G1 X96.784 Y113.225 E12.26469
G1 X96.784 Y113.836 E12.32025
G1 X97.095 Y113.836 E12.34861
G1 X97.095 Y113.987 E12.36231
G1 X97.248 Y114.012 E12.37638
G1 X97.248 Y115.363 E12.49918
G1 X97.515 Y115.363 E12.52345
G1 X97.649 Y116.433 E12.62147
G1 X99.385 Y115.244 E12.81279
G1 X99.385 Y116.215 E12.90105
G1 X100.456 Y116.121 E12.99874
G1 X100.456 Y116.424 E13.02629
G1 X100.758 Y116.427 E13.05369
G1 X100.758 Y116.788 E13.08656
G1 X102.403 Y116.704 E13.23637
G1 X102.493 Y116.583 E13.25007
G1 X102.749 Y116.667 E13.27453
G1 X102.752 Y117.042 E13.30866
G1 X102.896 Y117.042 E13.32174
G1 X102.896 Y117.347 E13.34949
G1 X103.201 Y117.347 E13.37725
G1 X103.201 Y117.500 E13.39113
G1 X103.507 Y117.500 E13.41889
G1 X103.507 Y117.653 E13.43277
G1 X104.117 Y117.653 E13.48829
G1 X104.117 Y117.805 E13.50217
G1 X106.292 Y117.805 E13.69995
G1 X106.387 Y117.958 E13.71628
G1 X106.827 Y117.958 E13.75630
G1 X107.416 Y118.754 E13.84633
G1 X107.930 Y118.257 E13.91142
G1 X107.930 Y118.721 E13.95364
G1 X108.296 Y118.721 E13.98688
G1 X108.388 Y118.942 E14.00868
G1 X108.388 Y119.484 E14.05800
G1 X108.811 Y119.484 E14.09643
G1 X108.945 Y120.552 E14.19430
G1 X110.059 Y119.790 E14.31713
G1 X111.602 Y119.790 E14.45741
G1 X111.746 Y119.645 E14.47595
G1 X112.253 Y119.485 E14.52423
G1 X112.977 Y119.483 E14.59010
G1 X113.129 Y119.332 E14.60959
G1 X113.762 Y119.332 E14.66719
G1 X113.881 Y119.203 E14.68318
G1 X114.010 Y119.213 E14.69495
G1 X114.803 Y118.421 E14.79687
G1 X114.803 Y118.779 E14.82948
G1 X114.956 Y118.825 E14.84396
G1 X114.956 Y119.789 E14.93167
G1 X115.101 Y119.789 E14.94493
G1 X115.101 Y119.978 E14.96212
G1 X116.818 Y119.916 E15.11828
G1 X116.896 Y119.837 E15.12841
G1 X117.159 Y119.870 E15.15246
G1 X117.906 Y119.332 E15.23620
G1 X118.161 Y119.332 E15.25941
G1 X118.161 Y122.385 E15.53702
G1 X118.619 Y122.385 E15.57866
G1 X118.619 Y122.685 E15.60599
G1 X118.604 Y122.700 E15.60793
G1 X118.619 Y123.335 E15.66568
G1 X118.170 Y123.335 E15.70656
G1 X117.210 Y122.637 E15.81446
G1 X117.210 Y122.114 E15.86204
G1 X115.108 Y122.114 E16.05315
G1 X115.108 Y122.267 E16.06702
G1 X114.145 Y122.267 E16.15459
G1 X113.838 Y121.815 E16.20428
G1 X113.829 Y120.789 E16.29754
G1 X113.219 Y122.437 F7800.000
G1 F1800
G1 X111.963 Y123.944 E16.47588
G1 X112.341 Y124.083 E16.51247
G1 X112.274 Y124.417 E16.54343
G1 X112.222 Y124.467 E16.54996
G1 X112.222 Y126.097 E16.69820
G1 X111.243 Y126.097 E16.78723
G1 X111.243 Y126.011 E16.79512
G1 X110.608 Y125.877 E16.85410
G1 X110.479 Y125.748 E16.87072
G1 X110.479 Y125.487 E16.89448
G1 X110.142 Y125.487 E16.92512
