; generated by Slic3r 1.3.0-dev on 2017-08-18 at 21:51:40

; external perimeters extrusion width = 0.40mm (1.14mm^3/s)
; perimeters extrusion width = 0.68mm (3.95mm^3/s)
; infill extrusion width = 1.20mm (9.43mm^3/s)
; solid infill extrusion width = 0.68mm (1.32mm^3/s)
; top infill extrusion width = 0.68mm (0.99mm^3/s)
; support material extrusion width = 0.40mm (2.27mm^3/s)

M107
M190 S66 ; set bed temperature and wait for it to be reached
M104 S215 ; set temperature
G28 ; home all axes
G1 Z5 F5000 ; lift nozzle

; Filament gcode

M109 S215 ; set temperature and wait for it to be reached
G21 ; set units to millimeters
G90 ; use absolute coordinates
M82 ; use absolute distances for extrusion
G92 E0
G1 Z0.350 F7800.000
G1 E-2.00000 F2400.00000
G92 E0
G1 X77.198 Y68.145 F7800.000
G1 E2.00000 F2400.00000
G1 F1800
G1 X77.373 Y67.971 E2.02245
G1 X79.257 Y66.664 E2.23099
G1 X82.032 Y66.055 E2.48930
G1 X95.735 Y66.056 E3.73533
G1 X107.324 Y66.212 E4.78920
G1 X123.494 Y66.960 E6.26112
G1 X125.273 Y67.292 E6.42560
G1 X125.722 Y67.442 E6.46867
G1 X127.740 Y68.532 E6.67721
G1 X129.265 Y70.245 E6.88575
G1 X130.127 Y72.440 E7.10014
G1 X140.003 Y122.266 E11.71897
G1 X140.129 Y123.554 E11.83664
G1 X140.129 Y123.704 E11.85025
G1 X139.732 Y125.962 E12.05879
G1 X138.189 Y128.388 E12.32020
G1 X138.039 Y128.538 E12.33945
G1 X135.457 Y130.136 E12.61561
G1 X95.206 Y143.602 E16.47496
G1 X93.105 Y143.945 E16.66859
G1 X91.604 Y143.945 E16.80509
G1 X89.897 Y143.720 E16.96158
G1 X74.785 Y139.680 E18.38400
G1 X72.705 Y138.713 E18.59254
G1 X71.080 Y137.095 E18.80109
G1 X70.103 Y135.020 E19.00963
G1 X69.871 Y133.280 E19.16926
G1 X69.871 Y132.232 E19.26450
G1 X70.335 Y123.396 E20.06908
G1 X72.321 Y94.864 E22.66975
G1 X75.313 Y71.971 E24.76913
G1 X76.000 Y69.783 E24.97767
G1 X77.162 Y68.194 E25.15671
G1 E23.15671 F2400.00000
G92 E0
G1 X94.075 Y132.160 F7800.000
G1 E2.00000 F2400.00000
G1 F1800
G1 X94.075 Y132.577 E2.03790
G1 X93.776 Y132.876 E2.07639
G1 X93.776 Y133.774 E2.15802
G1 X93.626 Y133.923 E2.17726
G1 X93.626 Y134.073 E2.19087
G1 X93.476 Y134.223 E2.21011
G1 X93.476 Y134.672 E2.25093
G1 X93.327 Y134.821 E2.27017
G1 X93.327 Y135.569 E2.33820
G1 X93.177 Y135.719 E2.35744
G1 X93.177 Y136.046 E2.38714
G1 X92.583 Y136.046 E2.44115
G1 X92.583 Y134.133 E2.61511
G1 X92.733 Y133.983 E2.63435
G1 X92.733 Y132.160 E2.80011
G1 X94.015 Y132.160 E2.91669
G1 E0.91669 F2400.00000
G92 E0
G1 X93.600 Y128.987 F7800.000
G1 E2.00000 F2400.00000
G1 F1800
G1 X93.600 Y130.373 E2.12603
G1 X92.442 Y131.530 E2.27490
G1 X79.011 Y131.530 E3.49614
G1 X80.807 Y129.735 E3.72704
G1 X78.993 Y129.735 E3.89194
G1 X78.993 Y127.490 E4.09602
G1 X78.844 Y127.490 E4.10963
G1 X78.844 Y127.341 E4.12323
G1 X78.694 Y127.341 E4.13684
G1 X78.694 Y126.162 E4.24405
G1 X78.844 Y126.012 E4.26329
G1 X78.844 Y123.768 E4.46738
G1 X78.993 Y123.618 E4.48662
G1 X78.993 Y123.319 E4.51383
G1 X79.143 Y123.169 E4.53307
G1 X79.143 Y122.720 E4.57389
G1 X79.292 Y122.571 E4.59313
G1 X79.292 Y122.122 E4.63395
G1 X79.442 Y121.972 E4.65319
G1 X79.442 Y121.823 E4.66679
G1 X81.854 Y119.411 E4.97697
G1 X80.340 Y119.411 E5.11467
G1 X80.340 Y119.129 E5.14026
G1 X80.490 Y118.979 E5.15950
G1 X80.490 Y118.531 E5.20032
G1 X80.639 Y118.381 E5.21957
G1 X80.639 Y116.137 E5.42364
G1 X80.789 Y115.987 E5.44288
G1 X80.789 Y113.593 E5.66056
G1 X83.201 Y111.181 E5.97073
G1 X81.088 Y111.181 E6.16284
G1 X81.088 Y110.900 E6.18842
G1 X81.238 Y110.750 E6.20766
G1 X81.238 Y107.159 E6.53420
G1 X81.387 Y107.009 E6.55344
G1 X81.387 Y106.560 E6.59426
G1 X81.537 Y106.411 E6.61350
G1 X81.537 Y105.812 E6.66792
G1 X83.949 Y103.400 E6.97810
G1 X82.584 Y103.400 E7.10218
G1 X82.584 Y102.371 E7.19579
G1 X82.734 Y102.221 E7.21503
G1 X82.734 Y101.922 E7.24224
G1 X82.884 Y101.772 E7.26148
G1 X82.884 Y99.061 E7.50802
G1 X82.734 Y99.061 E7.52162
G1 X82.734 Y96.667 E7.73931
G1 X82.584 Y96.667 E7.75292
G1 X82.584 Y96.368 E7.78013
G1 X82.435 Y96.368 E7.79374
G1 X82.435 Y96.218 E7.80734
G1 X82.285 Y96.218 E7.82095
G1 X82.285 Y96.068 E7.83455
G1 X82.135 Y96.068 E7.84816
G1 X82.135 Y95.620 E7.88898
G1 X81.986 Y95.620 E7.90255
G1 X81.986 Y95.470 E7.91616
G1 X81.537 Y95.470 E7.95701
G1 X81.537 Y94.929 E8.00622
G1 X81.797 Y94.929 E8.02985
G1 X81.946 Y94.779 E8.04909
G1 X82.096 Y94.779 E8.06269
G1 X83.332 Y93.543 E8.22169
G1 X83.332 Y93.393 E8.23529
G1 X83.632 Y93.094 E8.27378
G1 X83.632 Y90.682 E8.49311
G1 X83.482 Y90.682 E8.50671
G1 X83.482 Y86.809 E8.85882
G1 X85.894 Y84.397 E9.16899
G1 X83.482 Y84.397 E9.38832
G1 X83.482 Y74.280 E10.30829
G1 X94.048 Y74.280 E11.26908
G1 X94.048 Y74.430 E11.28269
G1 X101.829 Y74.430 E11.99017
G1 X101.829 Y74.579 E12.00378
G1 X107.216 Y74.579 E12.49359
G1 X107.216 Y74.729 E12.50720
G1 X111.555 Y74.729 E12.90174
G1 X111.555 Y74.878 E12.91534
G1 X115.146 Y74.878 E13.24191
G1 X115.146 Y75.028 E13.25551
G1 X118.438 Y75.028 E13.55483
G1 X118.438 Y75.178 E13.56843
G1 X120.066 Y75.178 E13.71646
G1 X119.467 Y75.776 E13.79343
G1 X120.066 Y75.776 E13.84785
G1 X119.168 Y76.674 E13.96330
G1 X120.066 Y76.674 E14.04494
G1 X119.168 Y77.572 E14.16039
G1 X119.767 Y77.572 E14.21490
G1 X118.926 Y78.412 E14.32301
G1 X117.839 Y78.412 E14.42185
G1 X117.839 Y79.011 E14.47628
G1 X116.984 Y79.011 E14.55406
G1 X116.959 Y79.930 E14.63769
G1 X116.344 Y80.546 E14.71687
G1 X116.343 Y80.995 E14.75772
G1 X116.044 Y81.294 E14.79623
G1 X116.044 Y81.405 E14.80626
G1 X114.996 Y81.405 E14.90150
G1 X114.996 Y81.854 E14.94232
G1 X114.886 Y81.854 E14.95235
G1 X114.737 Y82.003 E14.97159
G1 X114.437 Y82.003 E14.99880
G1 X113.240 Y83.200 E15.15273
G1 X112.493 Y83.200 E15.22071
G1 X112.343 Y83.350 E15.23997
G1 X110.956 Y83.350 E15.36602
G1 X110.956 Y83.799 E15.40684
G1 X110.358 Y83.799 E15.46126
G1 X110.358 Y84.846 E15.55650
G1 X110.248 Y84.846 E15.56653
G1 X110.098 Y84.996 E15.58577
G1 X109.948 Y84.996 E15.59937
G1 X108.862 Y86.083 E15.73912
G1 X108.862 Y88.495 E15.95850
G1 X109.011 Y88.495 E15.97210
G1 X109.011 Y88.930 E16.01166
G1 X106.775 Y91.188 E16.30060
G1 X108.862 Y91.188 E16.49030
G1 X108.862 Y92.068 E16.57030
G1 X106.749 Y94.181 E16.84200
G1 X107.946 Y94.181 E16.95084
G1 X107.249 Y94.877 E17.04041
G1 X107.964 Y94.887 E17.10539
G1 X107.964 Y98.371 E17.42220
G1 X108.114 Y98.371 E17.43581
G1 X108.114 Y98.818 E17.47648
G1 X108.263 Y98.818 E17.49009
G1 X108.263 Y99.118 E17.51738
G1 X108.562 Y99.118 E17.54459
G1 X108.562 Y99.268 E17.55820
G1 X108.712 Y99.268 E17.57180
G1 X108.712 Y99.717 E17.61267
G1 X108.862 Y99.717 E17.62628
G1 X108.862 Y100.166 E17.66708
G1 X109.011 Y100.166 E17.68069
G1 X109.011 Y100.615 E17.72149
G1 X109.161 Y100.615 E17.73509
G1 X109.161 Y100.764 E17.74868
G1 X109.311 Y100.764 E17.76228
G1 X109.311 Y100.914 E17.77589
G1 X109.460 Y100.914 E17.78950
G1 X109.460 Y101.064 E17.80310
G1 X109.610 Y101.064 E17.81671
G1 X109.610 Y101.213 E17.83031
G1 X109.759 Y101.213 E17.84392
G1 X109.759 Y101.363 E17.85752
G1 X110.358 Y101.363 E17.91194
G1 X110.358 Y101.512 E17.92555
G1 X110.508 Y101.512 E17.93916
G1 X110.508 Y101.812 E17.96638
G1 X111.106 Y101.812 E18.02079
G1 X111.106 Y102.112 E18.04806
G1 X111.256 Y102.112 E18.06167
G1 X111.256 Y102.410 E18.08883
G1 X112.004 Y102.410 E18.15686
G1 X112.004 Y102.859 E18.19768
G1 X112.154 Y102.859 E18.21128
G1 X112.154 Y109.292 E18.79618
G1 X112.752 Y109.292 E18.85060
G1 X112.752 Y110.041 E18.91873
G1 X113.201 Y110.041 E18.95955
G1 X113.201 Y110.341 E18.98676
G1 X113.500 Y110.341 E19.01397
G1 X113.500 Y110.938 E19.06830
G1 X113.799 Y110.938 E19.09551
G1 X113.799 Y111.238 E19.12279
G1 X114.099 Y111.238 E19.15000
G1 X114.099 Y111.388 E19.16362
G1 X114.248 Y111.388 E19.17722
G1 X114.248 Y111.538 E19.19083
G1 X114.398 Y111.538 E19.20443
G1 X114.398 Y111.687 E19.21805
G1 X114.697 Y111.687 E19.24526
G1 X114.697 Y111.987 E19.27247
G1 X114.996 Y111.987 E19.29969
G1 X114.996 Y112.286 E19.32689
G1 X115.296 Y112.286 E19.35411
G1 X115.296 Y112.435 E19.36771
G1 X115.595 Y112.435 E19.39492
G1 X115.595 Y112.585 E19.40852
G1 X115.745 Y112.585 E19.42213
G1 X115.745 Y112.735 E19.43573
G1 X115.894 Y112.735 E19.44934
G1 X115.894 Y112.884 E19.46295
G1 X116.044 Y112.884 E19.47655
G1 X116.044 Y113.034 E19.49020
G1 X116.193 Y113.034 E19.50380
G1 X116.193 Y113.333 E19.53098
G1 X116.642 Y113.333 E19.57180
G1 X116.642 Y113.633 E19.59905
G1 X116.792 Y113.633 E19.61265
G1 X116.792 Y113.932 E19.63984
G1 X117.091 Y113.932 E19.66705
G1 X117.091 Y114.231 E19.69425
G1 X117.241 Y114.231 E19.70786
G1 X117.241 Y114.380 E19.72145
G1 X117.540 Y114.380 E19.74866
G1 X117.540 Y114.530 E19.76228
G1 X117.690 Y114.530 E19.77589
G1 X117.690 Y114.680 E19.78949
G1 X117.989 Y114.680 E19.81671
G1 X117.989 Y114.829 E19.83031
G1 X118.139 Y114.829 E19.84391
G1 X118.139 Y114.966 E19.85630
G1 X118.288 Y114.967 E19.86985
G1 X118.288 Y115.278 E19.89817
G1 X118.438 Y115.278 E19.91183
G1 X118.438 Y115.428 E19.92544
G1 X118.737 Y115.428 E19.95265
G1 X118.737 Y115.728 E19.97993
G1 X118.887 Y115.728 E19.99353
G1 X118.887 Y115.877 E20.00707
G1 X119.036 Y115.877 E20.02068
G1 X119.036 Y116.026 E20.03429
G1 X119.186 Y116.026 E20.04792
G1 X119.186 Y116.326 E20.07517
G1 X119.336 Y116.326 E20.08875
G1 X119.336 Y116.458 E20.10074
G1 X119.484 Y116.460 E20.11426
G1 X119.484 Y116.625 E20.12934
G1 X119.635 Y116.625 E20.14303
G1 X119.635 Y116.924 E20.17020
G1 X119.785 Y116.924 E20.18381
G1 X119.785 Y117.074 E20.19741
G1 X119.934 Y117.074 E20.21102
G1 X119.934 Y117.223 E20.22462
G1 X120.084 Y117.223 E20.23823
G1 X120.084 Y117.522 E20.26541
G1 X120.233 Y117.522 E20.27902
G1 X120.233 Y117.671 E20.29257
G1 X120.383 Y117.672 E20.30618
G1 X120.383 Y117.972 E20.33347
G1 X120.682 Y117.972 E20.36068
G1 X120.682 Y118.271 E20.38790
G1 X120.832 Y118.271 E20.40151
G1 X120.832 Y118.420 E20.41510
G1 X120.982 Y118.420 E20.42870
G1 X120.982 Y118.570 E20.44231
G1 X121.131 Y118.570 E20.45592
G1 X121.131 Y118.720 E20.46950
G1 X121.430 Y118.720 E20.49671
G1 X121.430 Y119.019 E20.52395
G1 X121.730 Y119.019 E20.55117
G1 X121.730 Y119.312 E20.57777
G1 X122.032 Y119.313 E20.60523
G1 X122.032 Y119.618 E20.63301
G1 X122.179 Y119.618 E20.64631
G1 X122.179 Y119.767 E20.65984
G1 X122.328 Y119.767 E20.67344
G1 X122.328 Y119.917 E20.68703
G1 X122.628 Y119.917 E20.71424
G1 X122.628 Y120.066 E20.72786
G1 X122.777 Y120.066 E20.74147
G1 X122.777 Y120.216 E20.75507
G1 X122.927 Y120.216 E20.76868
G1 X122.927 Y120.366 E20.78229
G1 X123.076 Y120.366 E20.79589
G1 X123.076 Y120.515 E20.80949
G1 X123.376 Y120.515 E20.83670
G1 X123.376 Y120.665 E20.85031
G1 X123.525 Y120.665 E20.86392
G1 X123.525 Y120.815 E20.87753
G1 X123.825 Y120.815 E20.90474
G1 X123.825 Y120.964 E20.91834
G1 X123.974 Y120.964 E20.93195
G1 X123.974 Y121.114 E20.94556
G1 X124.273 Y121.114 E20.97277
G1 X124.273 Y121.263 E20.98638
G1 X124.572 Y121.263 E21.01352
G1 X124.572 Y121.413 E21.02712
G1 X124.722 Y121.413 E21.04079
G1 X124.722 Y121.563 E21.05440
G1 X124.872 Y121.563 E21.06800
G1 X124.872 Y121.712 E21.08159
G1 X125.321 Y121.712 E21.12241
G1 X125.321 Y121.862 E21.13602
G1 X125.620 Y121.862 E21.16323
G1 X125.620 Y122.011 E21.17682
G1 X126.201 Y122.011 E21.22962
G1 X125.510 Y122.702 E21.31848
G1 X122.535 Y122.702 E21.58895
G1 X122.535 Y122.553 E21.60255
G1 X122.386 Y122.553 E21.61616
G1 X122.386 Y122.403 E21.62976
G1 X122.087 Y122.403 E21.65692
G1 X122.087 Y122.253 E21.67053
G1 X121.937 Y122.253 E21.68419
G1 X121.937 Y122.104 E21.69779
G1 X121.186 Y122.104 E21.76607
G1 X121.186 Y121.954 E21.77966
G1 X120.141 Y121.954 E21.87463
G1 X120.141 Y121.805 E21.88824
G1 X119.393 Y121.805 E21.95627
G1 X119.393 Y119.991 E22.12117
G1 X117.580 Y121.805 E22.35438
G1 X116.792 Y121.805 E22.42599
G1 X116.792 Y122.443 E22.48400
G1 X115.784 Y123.451 E22.61363
G1 X115.485 Y123.451 E22.64084
G1 X115.185 Y123.750 E22.67931
G1 X114.306 Y123.750 E22.75925
G1 X114.306 Y123.600 E22.77284
G1 X114.006 Y123.600 E22.80012
G1 X114.006 Y123.451 E22.81374
G1 X110.657 Y123.451 E23.11828
G1 X110.657 Y124.687 E23.23069
G1 X110.507 Y124.837 E23.24996
G1 X110.507 Y124.986 E23.26358
G1 X110.208 Y125.285 E23.30204
G1 X110.208 Y125.435 E23.31564
G1 X110.059 Y125.585 E23.33488
G1 X110.059 Y125.695 E23.34491
G1 X109.218 Y125.695 E23.42133
G1 X109.218 Y125.378 E23.45019
G1 X107.872 Y126.724 E23.62336
G1 X107.872 Y125.378 E23.74581
G1 X106.357 Y126.892 E23.94054
G1 X105.627 Y126.892 E24.00693
G1 X105.627 Y126.742 E24.02054
G1 X105.478 Y126.742 E24.03411
G1 X105.478 Y126.593 E24.04771
G1 X104.430 Y126.593 E24.14301
G1 X104.430 Y126.443 E24.15661
G1 X104.131 Y126.443 E24.18380
G1 X104.131 Y124.031 E24.40315
G1 X103.682 Y124.480 E24.46090
G1 X103.682 Y124.031 E24.50171
G1 X103.383 Y124.330 E24.54019
G1 X103.383 Y124.031 E24.56741
G1 X100.034 Y127.380 E24.99810
G1 X100.034 Y127.640 E25.02173
G1 X99.624 Y127.640 E25.05898
G1 X99.474 Y127.790 E25.07822
G1 X97.829 Y127.790 E25.22786
G1 X97.380 Y128.239 E25.28559
G1 X95.883 Y128.239 E25.42165
G1 X95.734 Y128.388 E25.44089
G1 X95.584 Y128.388 E25.45450
G1 X95.434 Y128.538 E25.47374
G1 X95.135 Y128.538 E25.50095
G1 X94.686 Y128.987 E25.55868
G1 X93.660 Y128.987 E25.65204
G1 X94.224 Y129.612 F7800.000
G1 F1800
G1 X94.224 Y130.632 E25.74479
G1 X92.701 Y132.155 E25.94073
G1 X77.770 Y132.155 E27.29838
G1 X77.770 Y131.888 E27.32268
G1 X79.298 Y130.360 E27.51921
G1 X78.368 Y130.360 E27.60376
G1 X78.368 Y128.115 E27.80784
G1 X78.219 Y128.115 E27.82145
G1 X78.219 Y127.966 E27.83506
G1 X78.069 Y127.966 E27.84866
G1 X78.069 Y125.903 E28.03623
G1 X78.219 Y125.753 E28.05547
G1 X78.219 Y124.075 E28.20805
G1 X78.069 Y124.075 E28.22165
G1 X78.069 Y123.808 E28.24595
G1 X78.219 Y123.659 E28.26519
G1 X78.219 Y123.509 E28.27880
G1 X78.368 Y123.359 E28.29804
G1 X78.368 Y123.060 E28.32525
G1 X78.518 Y122.910 E28.34449
G1 X78.518 Y122.462 E28.38531
G1 X78.668 Y122.312 E28.40455
G1 X78.668 Y121.863 E28.44537
G1 X78.817 Y121.713 E28.46461
G1 X78.817 Y121.564 E28.47821
G1 X80.346 Y120.035 E28.67475
G1 X79.298 Y120.035 E28.76999
G1 X79.565 Y119.768 E28.80434
G1 X79.565 Y119.319 E28.84517
G1 X79.715 Y119.170 E28.86441
G1 X79.715 Y118.870 E28.89163
G1 X79.865 Y118.721 E28.91087
G1 X79.865 Y118.272 E28.95169
G1 X80.014 Y118.122 E28.97094
G1 X80.014 Y115.878 E29.17501
G1 X80.164 Y115.728 E29.19425
G1 X80.164 Y113.334 E29.41193
G1 X81.692 Y111.806 E29.60847
G1 X80.314 Y111.806 E29.73383
G1 X80.314 Y111.090 E29.79894
G1 X80.463 Y110.940 E29.81818
G1 X80.463 Y110.641 E29.84540
G1 X80.613 Y110.491 E29.86464
G1 X80.613 Y106.900 E30.19118
G1 X80.762 Y106.750 E30.21042
G1 X80.762 Y106.302 E30.25123
G1 X80.912 Y106.152 E30.27048
G1 X80.912 Y105.553 E30.32490
G1 X82.440 Y104.025 E30.52143
G1 X81.959 Y104.025 E30.56516
G1 X81.959 Y102.112 E30.73912
G1 X82.109 Y101.962 E30.75836
G1 X82.109 Y101.663 E30.78558
G1 X82.259 Y101.513 E30.80482
G1 X82.259 Y99.686 E30.97100
G1 X82.109 Y99.686 E30.98460
G1 X82.109 Y97.292 E31.20229
G1 X81.959 Y97.292 E31.21590
G1 X81.959 Y96.993 E31.24311
G1 X81.810 Y96.993 E31.25672
G1 X81.810 Y96.843 E31.27032
G1 X81.660 Y96.843 E31.28393
G1 X81.660 Y96.693 E31.29753
G1 X81.511 Y96.693 E31.31114
G1 X81.511 Y96.244 E31.35196
G1 X81.361 Y96.244 E31.36555
G1 X81.361 Y96.095 E31.37915
G1 X80.912 Y96.095 E31.41999
G1 X80.912 Y95.796 E31.44720
G1 X80.613 Y95.796 E31.47440
G1 X80.613 Y95.646 E31.48800
G1 X80.463 Y95.646 E31.50162
G1 X80.463 Y95.496 E31.51523
G1 X80.196 Y95.496 E31.53953
G1 X80.613 Y95.079 E31.59313
G1 X80.613 Y94.930 E31.60672
G1 X80.762 Y94.780 E31.62595
G1 X80.762 Y94.453 E31.65569
G1 X81.089 Y94.453 E31.68540
G1 X81.239 Y94.304 E31.70464
G1 X81.538 Y94.304 E31.73185
G1 X81.688 Y94.154 E31.75109
G1 X81.837 Y94.154 E31.76470
G1 X82.708 Y93.284 E31.87662
G1 X82.708 Y93.134 E31.89022
G1 X83.007 Y92.835 E31.92871
G1 X83.007 Y91.307 E32.06768
G1 X82.857 Y91.307 E32.08129
G1 X82.857 Y86.551 E32.51374
G1 X84.386 Y85.022 E32.71028
G1 X82.857 Y85.022 E32.84925
G1 X82.857 Y73.655 E33.88287
G1 X94.673 Y73.655 E34.95730
G1 X94.673 Y73.805 E34.97091
G1 X102.454 Y73.805 E35.67839
G1 X102.454 Y73.954 E35.69200
G1 X107.841 Y73.954 E36.18181
G1 X107.841 Y74.104 E36.19542
G1 X112.180 Y74.104 E36.58995
G1 X112.180 Y74.254 E36.60356
G1 X115.771 Y74.254 E36.93013
G1 X115.771 Y74.403 E36.94373
G1 X119.063 Y74.403 E37.24305
G1 X119.063 Y74.553 E37.25665
