; generated by Slic3r 1.3.0-dev on 2017-08-18 at 21:52:35

; external perimeters extrusion width = 0.40mm (1.14mm^3/s)
; perimeters extrusion width = 0.68mm (3.95mm^3/s)
; infill extrusion width = 1.20mm (9.43mm^3/s)
; solid infill extrusion width = 0.68mm (1.32mm^3/s)
; top infill extrusion width = 0.68mm (0.99mm^3/s)
; support material extrusion width = 0.40mm (2.27mm^3/s)

M107
M190 S66 ; set bed temperature and wait for it to be reached
M104 S215 ; set temperature
G28 ; home all axes
G1 Z5 F5000 ; lift nozzle

; Filament gcode

M109 S215 ; set temperature and wait for it to be reached
G21 ; set units to millimeters
G90 ; use absolute coordinates
M82 ; use absolute distances for extrusion
G92 E0
G1 Z0.350 F7800.000
G1 E-2.00000 F2400.00000
G92 E0
G1 X85.004 Y83.680 F7800.000
G1 E2.00000 F2400.00000
G1 F1800
G1 X84.804 Y83.876 E2.02545
G1 X84.806 Y85.494 E2.17254
G1 X84.693 Y85.615 E2.18758
G1 X84.647 Y86.273 E2.24752
G1 X84.650 Y87.921 E2.39740
G1 X85.004 Y87.921 E2.42951
G1 X85.004 Y83.680 E2.81513
G1 X85.591 Y83.102 E2.89010
G1 X86.253 Y83.076 E2.95035
G1 X86.253 Y87.921 E3.39084
G1 X87.503 Y87.921 E3.50448
G1 X87.503 Y83.076 E3.94497
G1 X88.753 Y83.074 E4.05861
G1 X88.753 Y87.921 E4.49936
G1 E2.49936 F2400.00000
G92 E0
G1 X91.252 Y89.346 F7800.000
G1 E2.00000 F2400.00000
G1 F1800
G1 X91.252 Y97.921 E2.77973
G1 X92.502 Y97.921 E2.89337
G1 X92.502 Y89.346 E3.67310
G1 X93.752 Y89.346 E3.78675
G1 X93.752 Y97.921 E4.56648
G1 X95.002 Y97.921 E4.68012
G1 X95.002 Y89.346 E5.45985
G1 X96.252 Y89.346 E5.57349
G1 X96.252 Y97.921 E6.35322
G1 X97.501 Y97.921 E6.46687
G1 X97.501 Y89.346 E7.24660
G1 X98.751 Y89.346 E7.36024
G1 X98.751 Y97.921 E8.13997
G1 E6.13997 F2400.00000
G92 E0
G1 X101.251 Y99.346 F7800.000
G1 E2.00000 F2400.00000
G1 F1800
G1 X101.251 Y107.921 E2.77973
G1 X102.500 Y107.921 E2.89337
G1 X102.500 Y99.346 E3.67310
G1 X103.750 Y99.346 E3.78675
G1 X103.750 Y107.921 E4.56648
G1 X105.000 Y107.921 E4.68012
G1 X105.000 Y99.346 E5.45985
G1 X106.250 Y99.346 E5.57349
G1 X106.250 Y107.921 E6.35322
G1 X107.500 Y107.921 E6.46687
G1 X107.500 Y99.346 E7.24660
G1 X108.749 Y99.346 E7.36024
G1 X108.749 Y107.921 E8.13997
G1 E6.13997 F2400.00000
G92 E0
G1 X111.249 Y109.346 F7800.000
G1 E2.00000 F2400.00000
G1 F1800
G1 X111.249 Y117.921 E2.77973
G1 X112.499 Y117.921 E2.89337
G1 X112.499 Y109.346 E3.67310
G1 X113.748 Y109.346 E3.78675
G1 X113.748 Y117.921 E4.56648
G1 X114.998 Y117.921 E4.68012
G1 X114.998 Y109.346 E5.45985
G1 X116.248 Y109.346 E5.57349
G1 X116.248 Y117.921 E6.35322
G1 X117.253 Y117.921 E6.44462
G1 X117.391 Y117.786 E6.46214
G1 X117.498 Y117.777 E6.47188
G1 X117.498 Y109.346 E7.23853
G1 X118.748 Y109.346 E7.35217
G1 X118.748 Y116.693 E8.02023
G1 E6.02023 F2400.00000
G92 E0
G1 X114.998 Y120.073 F7800.000
G1 E2.00000 F2400.00000
G1 F1800
G1 X114.998 Y119.146 E2.08435
G1 X113.748 Y119.146 E2.19799
G1 X113.748 Y121.769 E2.43649
G1 X113.274 Y122.174 E2.49322
G1 X113.276 Y123.147 E2.58164
G1 X112.936 Y123.487 E2.62537
G1 X112.936 Y123.617 E2.63724
G1 X112.750 Y123.803 E2.66113
G1 X112.750 Y123.998 E2.67889
G1 X112.612 Y124.139 E2.69674
G1 X112.598 Y125.115 E2.78553
G1 X113.586 Y125.343 E2.87773
G1 X112.804 Y126.296 E2.98984
G1 X113.748 Y126.543 E3.07863
G1 X113.748 Y126.982 E3.11851
G1 X112.499 Y128.423 E3.29202
G1 X112.499 Y119.146 E4.13566
G1 X111.249 Y119.146 E4.24930
G1 X111.249 Y129.724 E5.21120
G1 X110.684 Y130.279 E5.28323
G1 X110.548 Y130.293 E5.29560
G1 X109.999 Y130.827 E5.36524
G1 X109.999 Y129.146 E5.51810
G1 X108.749 Y129.146 E5.63174
G1 X108.749 Y130.960 E5.79676
G1 X107.500 Y130.962 E5.91040
G1 X107.500 Y129.146 E6.07557
G1 X106.250 Y129.146 E6.18921
G1 X106.250 Y130.812 E6.34073
G1 X105.000 Y130.813 E6.45437
G1 X105.000 Y129.146 E6.60594
G1 X103.750 Y129.146 E6.71958
G1 X103.750 Y130.645 E6.85595
G1 X102.500 Y130.568 E6.96982
G1 X102.500 Y129.146 E7.09912
G1 X101.251 Y129.146 E7.21276
G1 X101.251 Y130.520 E7.33770
G1 X100.616 Y130.529 E7.39539
G1 X100.612 Y130.347 E7.41190
G1 X100.001 Y130.348 E7.46744
G1 X100.001 Y129.146 E7.57677
G1 X98.751 Y129.146 E7.69041
G1 X98.751 Y130.359 E7.80070
G1 X97.501 Y130.360 E7.91434
G1 X97.501 Y129.146 E8.02476
G1 X96.252 Y129.146 E8.13840
G1 X96.252 Y130.200 E8.23424
G1 X95.002 Y130.205 E8.34788
G1 X95.002 Y129.146 E8.44424
G1 X93.752 Y129.146 E8.55788
G1 X93.752 Y130.041 E8.63928
G1 X93.379 Y130.045 E8.67317
G1 X92.502 Y130.045 E8.75292
G1 X92.502 Y129.146 E8.83467
G1 X91.252 Y129.146 E8.94831
G1 X91.252 Y130.047 E9.03025
G1 X90.003 Y130.048 E9.14389
G1 X90.003 Y129.146 E9.22598
G1 X88.753 Y129.146 E9.33962
G1 X88.753 Y129.891 E9.40736
G1 X87.503 Y129.891 E9.52101
G1 X87.503 Y129.146 E9.58879
G1 X86.253 Y129.146 E9.70244
G1 X86.253 Y129.894 E9.77051
G1 X85.004 Y129.896 E9.88415
G1 X85.004 Y129.146 E9.95236
G1 X83.754 Y129.146 E10.06600
G1 X83.754 Y129.901 E10.13466
G1 X83.609 Y129.901 E10.14784
G1 X82.504 Y129.895 E10.24831
G1 X82.504 Y129.146 E10.31640
G1 X81.254 Y129.146 E10.43004
G1 X81.254 Y129.894 E10.49809
G1 X80.004 Y129.892 E10.61173
G1 X80.004 Y129.146 E10.67955
G1 X78.755 Y129.146 E10.79319
G1 X78.755 Y129.891 E10.86100
G1 X77.505 Y129.892 E10.97465
G1 X77.505 Y129.146 E11.04253
G1 X76.255 Y129.146 E11.15617
G1 X76.255 Y129.884 E11.22328
G1 X75.005 Y129.883 E11.33692
G1 X75.005 Y129.146 E11.40399
G1 X75.005 Y127.308 F7800.000
G1 F1800
G1 X74.877 Y127.478 E11.42340
G1 X74.606 Y127.921 E11.47057
G1 X75.005 Y127.921 E11.50684
G1 X75.005 Y127.308 E11.56260
G1 X75.177 Y127.079 E11.58859
G1 X75.432 Y126.617 E11.63655
G1 X75.432 Y126.227 E11.67203
G1 X75.589 Y126.071 E11.69215
G1 X75.589 Y125.290 E11.76318
G1 X76.255 Y124.624 E11.84881
G1 X76.255 Y127.921 E12.14862
G1 X77.505 Y127.921 E12.26226
G1 X77.505 Y122.449 E12.75981
G1 X77.622 Y122.331 E12.77491
G1 X77.622 Y122.165 E12.79010
G1 X78.416 Y121.370 E12.89221
G1 X78.755 Y121.370 E12.92296
G1 X78.755 Y127.921 E13.51858
G1 E11.51858 F2400.00000
G92 E0
G1 X81.254 Y119.346 F7800.000
G1 E2.00000 F2400.00000
G1 F1800
G1 X81.254 Y127.921 E2.77973
G1 X82.504 Y127.921 E2.89337
G1 X82.504 Y119.346 E3.67310
G1 X83.754 Y119.346 E3.78675
G1 X83.754 Y127.921 E4.56648
G1 X85.004 Y127.921 E4.68012
G1 X85.004 Y119.346 E5.45985
G1 X86.253 Y119.346 E5.57349
G1 X86.253 Y127.921 E6.35322
G1 X87.503 Y127.921 E6.46687
G1 X87.503 Y119.346 E7.24660
G1 X88.753 Y119.346 E7.36024
G1 X88.753 Y127.921 E8.13997
G1 E6.13997 F2400.00000
G92 E0
G1 X91.252 Y119.346 F7800.000
G1 E2.00000 F2400.00000
G1 F1800
G1 X91.252 Y127.921 E2.77973
G1 X92.502 Y127.921 E2.89337
G1 X92.502 Y119.346 E3.67310
G1 X93.752 Y119.346 E3.78675
G1 X93.752 Y127.921 E4.56648
G1 X95.002 Y127.921 E4.68012
G1 X95.002 Y119.346 E5.45985
G1 X96.252 Y119.346 E5.57349
G1 X96.252 Y127.921 E6.35322
G1 X97.501 Y127.921 E6.46687
G1 X97.501 Y119.346 E7.24660
G1 X98.751 Y119.346 E7.36024
G1 X98.751 Y127.921 E8.13997
G1 E6.13997 F2400.00000
G92 E0
G1 X101.251 Y119.346 F7800.000
G1 E2.00000 F2400.00000
G1 F1800
G1 X101.251 Y127.921 E2.77973
G1 X102.500 Y127.921 E2.89337
G1 X102.500 Y119.346 E3.67310
G1 X103.750 Y119.346 E3.78675
G1 X103.750 Y127.921 E4.56648
G1 X105.000 Y127.921 E4.68012
G1 X105.000 Y119.346 E5.45985
G1 X106.250 Y119.346 E5.57349
G1 X106.250 Y127.921 E6.35322
G1 X107.500 Y127.921 E6.46687
G1 X107.500 Y119.346 E7.24660
G1 X108.749 Y119.346 E7.36024
G1 X108.749 Y127.921 E8.13997
G1 E6.13997 F2400.00000
G92 E0
G1 X108.749 Y117.921 F7800.000
G1 E2.00000 F2400.00000
G1 F1800
G1 X108.749 Y109.346 E2.77973
G1 X107.500 Y109.346 E2.89337
G1 X107.500 Y117.921 E3.67310
G1 X106.250 Y117.921 E3.78675
G1 X106.250 Y109.346 E4.56648
G1 X105.000 Y109.346 E4.68012
G1 X105.000 Y117.921 E5.45985
G1 X103.750 Y117.921 E5.57349
G1 X103.750 Y109.346 E6.35322
G1 X102.500 Y109.346 E6.46687
G1 X102.500 Y117.921 E7.24660
G1 X101.251 Y117.921 E7.36024
G1 X101.251 Y109.346 E8.13997
G1 E6.13997 F2400.00000
G92 E0
G1 X98.751 Y107.921 F7800.000
G1 E2.00000 F2400.00000
G1 F1800
G1 X98.751 Y99.346 E2.77973
G1 X97.501 Y99.346 E2.89337
G1 X97.501 Y107.921 E3.67310
G1 X96.252 Y107.921 E3.78675
G1 X96.252 Y99.346 E4.56648
G1 X95.002 Y99.346 E4.68012
G1 X95.002 Y107.921 E5.45985
G1 X93.752 Y107.921 E5.57349
G1 X93.752 Y99.346 E6.35322
G1 X92.502 Y99.346 E6.46687
G1 X92.502 Y107.921 E7.24660
G1 X91.252 Y107.921 E7.36024
G1 X91.252 Y99.346 E8.13997
G1 E6.13997 F2400.00000
G92 E0
G1 X88.753 Y97.921 F7800.000
G1 E2.00000 F2400.00000
G1 F1800
G1 X88.753 Y89.346 E2.77973
G1 X87.503 Y89.346 E2.89337
G1 X87.503 Y97.921 E3.67310
G1 X86.253 Y97.921 E3.78675
G1 X86.253 Y89.346 E4.56648
G1 X85.004 Y89.346 E4.68012
G1 X85.004 Y97.921 E5.45985
G1 X84.655 Y97.921 E5.49158
G1 X84.649 Y89.346 E6.27131
G1 X85.004 Y89.346 E6.30354
G1 E4.30354 F2400.00000
G92 E0
G1 X91.252 Y83.068 F7800.000
G1 E2.00000 F2400.00000
G1 F1800
G1 X91.252 Y87.921 E2.44122
G1 X92.502 Y87.921 E2.55486
G1 X92.502 Y82.965 E3.00545
G1 X92.705 Y82.946 E3.02398
G1 X92.707 Y83.206 E3.04764
G1 X93.262 Y83.234 E3.09812
G1 X93.752 Y83.233 E3.14269
G1 X93.752 Y87.921 E3.56893
G1 X95.002 Y87.921 E3.68257
G1 X95.002 Y83.232 E4.10889
G1 X95.960 Y83.223 E4.19601
G1 X96.252 Y83.225 E4.22253
G1 X96.252 Y87.921 E4.64956
G1 X97.501 Y87.921 E4.76320
G1 X97.501 Y83.235 E5.18930
G1 X98.641 Y83.251 E5.29295
G1 X98.657 Y83.373 E5.30411
G1 X98.751 Y83.376 E5.31271
G1 X98.751 Y87.921 E5.72599
G1 E3.72599 F2400.00000
G92 E0
G1 X101.251 Y89.346 F7800.000
G1 E2.00000 F2400.00000
G1 F1800
G1 X101.251 Y97.921 E2.77973
G1 X102.500 Y97.921 E2.89337
G1 X102.500 Y89.346 E3.67310
G1 X103.750 Y89.346 E3.78675
G1 X103.750 Y97.921 E4.56648
G1 X105.000 Y97.921 E4.68012
G1 X105.000 Y89.346 E5.45985
G1 X106.250 Y89.346 E5.57349
G1 X106.250 Y97.921 E6.35322
G1 X107.500 Y97.921 E6.46687
G1 X107.500 Y89.346 E7.24660
G1 X108.749 Y89.346 E7.36024
G1 X108.749 Y97.921 E8.13997
G1 E6.13997 F2400.00000
G92 E0
G1 X111.249 Y99.346 F7800.000
G1 E2.00000 F2400.00000
G1 F1800
G1 X111.249 Y107.921 E2.77973
G1 X112.499 Y107.921 E2.89337
G1 X112.499 Y99.346 E3.67310
G1 X113.748 Y99.346 E3.78675
G1 X113.748 Y107.921 E4.56648
G1 X114.998 Y107.921 E4.68012
G1 X114.998 Y99.346 E5.45985
G1 X116.248 Y99.346 E5.57349
G1 X116.248 Y107.921 E6.35322
G1 X117.498 Y107.921 E6.46687
G1 X117.498 Y99.346 E7.24660
G1 X118.748 Y99.346 E7.36024
G1 X118.748 Y107.921 E8.13997
G1 E6.13997 F2400.00000
G92 E0
G1 X121.247 Y109.346 F7800.000
G1 E2.00000 F2400.00000
G1 F1800
G1 X121.247 Y113.651 E2.39151
G1 X121.473 Y113.651 E2.41207
G1 X121.592 Y113.532 E2.42738
G1 X122.110 Y113.531 E2.47448
G1 X122.405 Y113.291 E2.50903
G1 X122.497 Y113.268 E2.51767
G1 X122.497 Y109.346 E2.87435
G1 X123.747 Y109.346 E2.98799
G1 X123.747 Y112.834 E3.30518
G1 E1.30518 F2400.00000
G92 E0
G1 X123.747 Y107.921 F7800.000
G1 E2.00000 F2400.00000
G1 F1800
G1 X123.747 Y105.741 E2.19821
G1 X123.871 Y105.749 E2.20957
G1 X123.882 Y107.047 E2.32768
G1 X124.117 Y107.047 E2.34907
G1 X124.117 Y107.252 E2.36767
G1 X124.410 Y107.252 E2.39429
G1 X124.410 Y107.338 E2.40213
G1 X124.439 Y107.339 E2.40476
G1 X124.448 Y107.680 E2.43579
G1 X124.569 Y107.681 E2.44679
G1 X124.579 Y107.921 E2.46864
G1 X123.747 Y107.921 E2.54429
G1 E0.54429 F2400.00000
G92 E0
G1 X128.746 Y101.450 F7800.000
G1 E2.00000 F2400.00000
G1 F1800
G1 X128.746 Y99.346 E2.19138
G1 X127.496 Y99.346 E2.30503
G1 X127.496 Y103.107 E2.64700
G1 X126.700 Y103.106 E2.71936
G1 X126.246 Y103.560 E2.77775
G1 X126.246 Y99.346 E3.16096
G1 X124.996 Y99.346 E3.27460
G1 X124.996 Y103.966 E3.69470
G1 X124.733 Y104.228 E3.72855
G1 X124.507 Y103.932 E3.76243
G1 X123.747 Y104.653 E3.85775
G1 X123.747 Y99.346 E4.34037
G1 X122.497 Y99.346 E4.45401
G1 X122.497 Y107.921 E5.23374
G1 X121.247 Y107.921 E5.34738
G1 X121.247 Y99.346 E6.12711
G1 E4.12711 F2400.00000
G92 E0
G1 X118.748 Y97.921 F7800.000
G1 E2.00000 F2400.00000
G1 F1800
G1 X118.748 Y89.346 E2.77973
G1 X117.498 Y89.346 E2.89337
G1 X117.498 Y97.921 E3.67310
G1 X116.248 Y97.921 E3.78675
G1 X116.248 Y89.346 E4.56648
G1 X114.998 Y89.346 E4.68012
G1 X114.998 Y97.921 E5.45985
G1 X113.748 Y97.921 E5.57349
G1 X113.748 Y89.346 E6.35322
G1 X112.499 Y89.346 E6.46687
G1 X112.499 Y97.921 E7.24660
G1 X111.249 Y97.921 E7.36024
G1 X111.249 Y89.346 E8.13997
G1 E6.13997 F2400.00000
G92 E0
G1 X108.749 Y87.921 F7800.000
G1 E2.00000 F2400.00000
G1 F1800
G1 X108.749 Y83.711 E2.38277
G1 X107.500 Y83.728 E2.49642
G1 X107.500 Y87.921 E2.87768
G1 X106.250 Y87.921 E2.99132
G1 X106.250 Y83.563 E3.38754
G1 X105.000 Y83.547 E3.50119
G1 X105.000 Y87.921 E3.89894
G1 X103.750 Y87.921 E4.01258
G1 X103.750 Y83.577 E4.40757
G1 X103.297 Y83.630 E4.44907
G1 X103.296 Y83.429 E4.46735
G1 X102.500 Y83.423 E4.53972
G1 X102.500 Y87.921 E4.94866
G1 X101.251 Y87.921 E5.06231
G1 X101.251 Y83.417 E5.47185
G1 E3.47185 F2400.00000
G92 E0
G1 X111.249 Y83.878 F7800.000
G1 E2.00000 F2400.00000
G1 F1800
G1 X111.117 Y83.876 E2.01204
G1 X111.114 Y83.712 E2.02696
G1 X111.037 Y83.712 E2.03396
G1 X111.037 Y87.921 E2.41665
G1 X111.249 Y87.921 E2.43588
G1 X111.249 Y83.878 E2.80353
G1 X112.499 Y83.887 E2.91717
G1 X112.499 Y87.921 E3.28399
G1 X113.748 Y87.921 E3.39763
G1 X113.748 Y83.953 E3.75838
G1 X114.613 Y84.029 E3.83727
G1 X114.998 Y84.031 E3.87232
G1 X114.998 Y87.921 E4.22598
G1 X116.248 Y87.921 E4.33962
G1 X116.248 Y84.132 E4.68418
G1 X116.556 Y84.209 E4.71305
G1 X117.498 Y84.216 E4.79870
G1 X117.498 Y87.921 E5.13556
G1 X118.748 Y87.921 E5.24920
G1 X118.748 Y84.235 E5.58434
G1 X119.613 Y84.233 E5.66299
G1 X119.613 Y84.549 E5.69174
G1 X119.997 Y84.685 E5.72884
G1 X119.997 Y87.921 E6.02308
G1 X121.247 Y87.921 E6.13672
G1 X121.247 Y85.302 E6.37487
G1 X121.767 Y85.748 E6.43715
G1 X122.309 Y86.103 E6.49611
G1 X122.497 Y86.133 E6.51341
G1 X122.497 Y87.921 E6.67598
G1 X123.747 Y87.921 E6.78962
G1 X123.747 Y86.165 E6.94927
G1 X124.813 Y84.838 E7.10404
G1 X124.996 Y84.824 E7.12080
G1 X124.996 Y87.921 E7.40239
G1 X126.246 Y87.921 E7.51603
G1 X126.246 Y84.728 E7.80634
G1 X127.083 Y84.664 E7.88263
G1 X127.239 Y86.441 E8.04485
G1 X127.350 Y87.349 E8.12805
G1 X127.496 Y87.525 E8.14881
G1 X127.496 Y87.921 E8.18480
G1 E6.18480 F2400.00000
G92 E0
G1 X131.245 Y89.346 F7800.000
G1 E2.00000 F2400.00000
G1 F1800
G1 X131.037 Y89.346 E2.01891
G1 X131.037 Y96.491 E2.66860
G1 X131.245 Y96.535 E2.68792
G1 X131.245 Y89.346 E3.34161
G1 X132.495 Y89.346 E3.45525
G1 X132.495 Y93.683 E3.84967
G1 X132.670 Y93.628 E3.86637
G1 X133.298 Y94.518 E3.96542
G1 X133.745 Y93.506 E4.06594
G1 X133.745 Y89.346 E4.44427
G1 X134.995 Y89.346 E4.55791
G1 X134.995 Y90.057 E4.62264
G1 E2.62264 F2400.00000
G92 E0
G1 X133.745 Y88.121 F7800.000
G1 E2.00000 F2400.00000
G1 F1800
G1 X133.745 Y86.784 E2.12155
G1 X134.082 Y86.689 E2.15337
G1 X134.882 Y88.121 E2.30250
G1 X133.745 Y88.121 E2.40592
G1 X132.495 Y88.121 F7800.000
G1 F1800
G1 X132.495 Y85.930 E2.60510
G1 X132.164 Y85.039 E2.69159
G1 X131.245 Y85.095 E2.77528
G1 X131.245 Y88.121 E3.05045
G1 X130.837 Y88.121 E3.08754
G1 X130.837 Y85.119 E3.36045
G1 X131.245 Y85.095 E3.39762
G1 E1.39762 F2400.00000
G92 E0
G1 X134.995 Y92.522 F7800.000
G1 E2.00000 F2400.00000
G1 F1800
G1 X135.236 Y92.469 E2.02243
G1 X134.995 Y90.748 E2.18052
G1 X134.995 Y92.522 E2.34190
G1 E0.34190 F2400.00000
G92 E0
G1 X131.245 Y98.575 F7800.000
G1 E2.00000 F2400.00000
G1 F1800
G1 X131.866 Y97.917 E2.08226
G1 X131.245 Y97.786 E2.13997
G1 X131.245 Y98.575 E2.21172
G1 E0.21172 F2400.00000
G92 E0
G1 X128.746 Y97.921 F7800.000
G1 E2.00000 F2400.00000
G1 F1800
G1 X128.746 Y89.346 E2.77973
G1 X127.496 Y89.346 E2.89337
G1 X127.496 Y97.921 E3.67310
G1 X126.246 Y97.921 E3.78675
G1 X126.246 Y89.346 E4.56648
G1 X124.996 Y89.346 E4.68012
G1 X124.996 Y97.921 E5.45985
G1 X123.747 Y97.921 E5.57349
G1 X123.747 Y89.346 E6.35322
G1 X122.497 Y89.346 E6.46687
G1 X122.497 Y97.921 E7.24660
G1 X121.247 Y97.921 E7.36024
G1 X121.247 Y89.346 E8.13997
G1 E6.13997 F2400.00000
G92 E0
G1 X91.252 Y109.346 F7800.000
G1 E2.00000 F2400.00000
G1 F1800
G1 X91.252 Y117.921 E2.77973
G1 X92.502 Y117.921 E2.89337
G1 X92.502 Y109.346 E3.67310
G1 X93.752 Y109.346 E3.78675
G1 X93.752 Y117.921 E4.56648
G1 X95.002 Y117.921 E4.68012
G1 X95.002 Y109.346 E5.45985
G1 X96.252 Y109.346 E5.57349
G1 X96.252 Y117.921 E6.35322
G1 X97.501 Y117.921 E6.46687
G1 X97.501 Y109.346 E7.24660
