; generated by Slic3r 1.3.0-dev on 2017-08-18 at 21:53:18

; external perimeters extrusion width = 0.40mm (1.14mm^3/s)
; perimeters extrusion width = 0.68mm (3.95mm^3/s)
; infill extrusion width = 1.20mm (9.43mm^3/s)
; solid infill extrusion width = 0.68mm (1.32mm^3/s)
; top infill extrusion width = 0.68mm (0.99mm^3/s)
; support material extrusion width = 0.40mm (2.27mm^3/s)

M107
M190 S66 ; set bed temperature and wait for it to be reached
M104 S215 ; set temperature
G28 ; home all axes
G1 Z5 F5000 ; lift nozzle

; Filament gcode

M109 S215 ; set temperature and wait for it to be reached
G21 ; set units to millimeters
G90 ; use absolute coordinates
M82 ; use absolute distances for extrusion
G92 E0
G1 Z0.350 F7800.000
G1 E-2.00000 F2400.00000
G92 E0
G1 X84.878 Y81.320 F7800.000
G1 E2.00000 F2400.00000
G1 F1800
G1 X87.174 Y79.820 E2.24936
G1 X107.214 Y72.046 E4.20391
G1 X109.611 Y71.597 E4.42556
G1 X110.311 Y71.633 E4.48931
G1 X121.454 Y72.784 E5.50794
G1 X123.660 Y73.411 E5.71649
G1 X125.520 Y74.753 E5.92503
G1 X126.811 Y76.649 E6.13357
G1 X127.395 Y79.566 E6.40415
G1 X125.907 Y130.761 E11.06120
G1 X125.445 Y133.007 E11.26975
G1 X124.156 Y135.059 E11.49004
G1 X122.849 Y136.461 E11.66434
G1 X120.971 Y137.778 E11.87289
G1 X118.173 Y138.402 E12.13362
G1 X117.565 Y138.403 E12.18885
G1 X117.067 Y138.384 E12.23420
G1 X99.618 Y137.089 E13.82518
G1 X98.600 Y136.980 E13.91831
G1 X96.399 Y136.336 E14.12685
G1 X94.954 Y135.368 E14.28495
G1 X93.598 Y134.175 E14.44922
G1 X92.930 Y133.495 E14.53586
G1 X92.226 Y132.539 E14.64379
G1 X91.596 Y131.502 E14.75417
G1 X91.350 Y131.058 E14.80031
G1 X88.240 Y124.926 E15.42550
G1 X88.024 Y124.454 E15.47275
G1 X86.814 Y121.517 E15.76156
G1 X86.656 Y121.094 E15.80259
G1 X85.559 Y117.812 E16.11729
G1 X85.282 Y116.646 E16.22620
G1 X85.222 Y116.198 E16.26738
G1 X82.631 Y89.506 E18.70582
G1 X82.600 Y88.860 E18.76461
G1 X82.627 Y88.255 E18.81972
G1 X82.868 Y85.560 E19.06574
G1 X83.897 Y82.565 E19.35370
G1 X83.991 Y82.419 E19.36952
G1 X84.841 Y81.366 E19.49251
G1 E17.49251 F2400.00000
G92 E0
G1 X115.274 Y126.399 F7800.000
G1 E2.00000 F2400.00000
G1 F1800
G1 X117.512 Y126.439 E2.20355
G1 X117.512 Y127.574 E2.30677
G1 X115.258 Y129.832 E2.59694
G1 X114.915 Y129.832 E2.62814
G1 X114.914 Y129.746 E2.63600
G1 X113.797 Y129.746 E2.73752
G1 X113.797 Y129.660 E2.74537
G1 X112.752 Y129.660 E2.84041
G1 X112.751 Y129.573 E2.84827
G1 X111.638 Y129.573 E2.94947
G1 X111.638 Y129.487 E2.95733
G1 X110.519 Y129.487 E3.05912
G1 X110.519 Y129.400 E3.06697
G1 X109.308 Y129.400 E3.17707
G1 X109.308 Y129.314 E3.18492
G1 X108.100 Y129.314 E3.29472
G1 X108.100 Y129.228 E3.30258
G1 X106.891 Y129.228 E3.41257
G1 X106.890 Y129.141 E3.42042
G1 X105.682 Y129.141 E3.53033
G1 X105.682 Y129.055 E3.53818
G1 X104.386 Y129.055 E3.65602
G1 X104.386 Y128.969 E3.66387
G1 X103.089 Y128.969 E3.78183
G1 X103.088 Y128.882 E3.78969
G1 X102.762 Y128.882 E3.81941
G1 X103.798 Y127.846 E3.95270
G1 X101.363 Y127.846 E4.17413
G1 X101.363 Y127.759 E4.18199
G1 X101.017 Y127.759 E4.21340
G1 X101.017 Y127.154 E4.26843
G1 X100.240 Y127.154 E4.33912
G1 X100.240 Y126.982 E4.35478
G1 X99.710 Y126.982 E4.40296
G1 X99.847 Y126.025 E4.49083
G1 X99.248 Y125.607 E4.55724
G1 X99.764 Y124.748 E4.64829
G1 X98.944 Y124.325 E4.73214
G1 X98.944 Y122.317 E4.91467
G1 X98.685 Y122.317 E4.93826
G1 X97.348 Y121.426 E5.08442
G1 X97.483 Y121.290 E5.10183
G1 X96.810 Y120.411 E5.20256
G1 X96.732 Y119.947 E5.24528
G1 X96.440 Y119.752 E5.27728
G1 X96.440 Y118.427 E5.39776
G1 X96.353 Y118.427 E5.40563
G1 X96.353 Y118.344 E5.41319
G1 X96.267 Y118.344 E5.42104
G1 X96.267 Y117.998 E5.45246
G1 X96.180 Y117.998 E5.46032
G1 X96.180 Y117.826 E5.47601
G1 X95.662 Y117.826 E5.52314
G1 X95.662 Y116.957 E5.60213
G1 X96.437 Y115.478 E5.75392
G1 X95.431 Y115.311 E5.84661
G1 X95.874 Y114.023 E5.97045
G1 X95.144 Y114.024 E6.03690
G1 X95.144 Y112.906 E6.13856
G1 X95.317 Y112.906 E6.15428
G1 X95.317 Y110.500 E6.37306
G1 X97.320 Y108.497 E6.63065
G1 X95.199 Y108.497 E6.82347
G1 X96.167 Y107.028 E6.98340
G1 X95.846 Y107.028 E7.01260
G1 X95.578 Y105.421 E7.16076
G1 X96.093 Y105.068 E7.21752
G1 X96.094 Y103.676 E7.34418
G1 X96.267 Y103.503 E7.36636
G1 X96.267 Y102.972 E7.41465
G1 X97.476 Y102.972 E7.52460
G1 X97.476 Y100.433 E7.75545
G1 X97.217 Y100.260 E7.78374
G1 X97.217 Y100.110 E7.79739
G1 X96.958 Y99.893 E7.82816
G1 X96.958 Y98.994 E7.90991
G1 X96.613 Y98.994 E7.94120
G1 X96.613 Y98.477 E7.98827
G1 X96.526 Y98.477 E7.99625
G1 X96.526 Y97.362 E8.09757
G1 X96.103 Y97.548 E8.13956
G1 X95.922 Y97.272 E8.16956
G1 X95.922 Y96.749 E8.21715
G1 X95.333 Y96.749 E8.27072
G1 X96.018 Y96.063 E8.35888
G1 X95.616 Y95.873 E8.39937
G1 X96.424 Y94.762 E8.52423
G1 X94.582 Y94.762 E8.69167
G1 X94.107 Y94.052 E8.76935
G1 X94.107 Y92.862 E8.87760
G1 X93.329 Y92.862 E8.94832
G1 X93.329 Y92.776 E8.95617
G1 X93.071 Y92.776 E8.97971
G1 X93.071 Y92.516 E9.00327
G1 X92.984 Y92.516 E9.01112
G1 X92.984 Y91.622 E9.09244
G1 X92.555 Y91.336 E9.13939
G1 X92.555 Y91.061 E9.16433
G1 X92.699 Y90.918 E9.18279
G1 X92.230 Y89.510 E9.31773
G1 X92.207 Y89.484 E9.32089
G1 X92.207 Y88.613 E9.40004
G1 X91.830 Y88.303 E9.44445
G1 X91.813 Y87.856 E9.48512
G1 X93.413 Y87.856 E9.63054
G1 X93.413 Y87.942 E9.63838
G1 X95.054 Y87.942 E9.78761
G1 X95.054 Y88.028 E9.79546
G1 X96.522 Y88.028 E9.92898
G1 X96.522 Y88.115 E9.93683
G1 X97.991 Y88.115 E10.07038
G1 X97.991 Y88.202 E10.07833
G1 X99.459 Y88.201 E10.21185
G1 X99.459 Y88.287 E10.21965
G1 X99.805 Y88.287 E10.25108
G1 X99.805 Y88.374 E10.25893
G1 X100.668 Y88.374 E10.33747
G1 X100.668 Y88.460 E10.34533
G1 X102.050 Y88.460 E10.47100
G1 X102.050 Y88.546 E10.47885
G1 X103.433 Y88.546 E10.60453
G1 X103.433 Y88.633 E10.61238
G1 X104.728 Y88.633 E10.73017
G1 X104.728 Y88.766 E10.74228
G1 X107.562 Y88.684 E11.00012
G1 X109.051 Y88.059 E11.14693
G1 X109.051 Y86.576 E11.28172
G1 X111.144 Y84.483 E11.55089
G1 X108.660 Y84.483 E11.77676
G1 X109.467 Y83.434 E11.89713
G1 X109.148 Y83.338 E11.92743
G1 X109.325 Y82.688 E11.98870
G1 X109.382 Y82.668 E11.99417
G1 X109.405 Y82.604 E12.00033
G1 X109.469 Y82.587 E12.00636
G1 X109.887 Y81.636 E12.10076
G1 X110.464 Y81.636 E12.15326
G1 X110.809 Y83.132 E12.29285
G1 X112.672 Y82.048 E12.48881
G1 X112.672 Y82.413 E12.52203
G1 X113.536 Y82.428 E12.60058
G1 X113.536 Y82.673 E12.62283
G1 X115.238 Y82.673 E12.77758
G1 X115.325 Y83.750 E12.87583
G1 X117.081 Y82.730 E13.06047
G1 X117.081 Y84.849 E13.25315
G1 X118.722 Y83.207 E13.46420
G1 X118.722 Y83.778 E13.51608
G1 X118.635 Y83.864 E13.52719
G1 X118.635 Y84.471 E13.58239
G1 X118.549 Y84.558 E13.59351
G1 X118.549 Y85.507 E13.67979
G1 X118.463 Y85.593 E13.69090
G1 X118.463 Y85.768 E13.70676
G1 X118.376 Y85.855 E13.71797
G1 X118.376 Y86.630 E13.78846
G1 X118.290 Y86.717 E13.79954
G1 X118.290 Y87.494 E13.87020
G1 X118.204 Y87.580 E13.88132
G1 X118.204 Y87.752 E13.89698
G1 X118.117 Y87.839 E13.90809
G1 X118.117 Y88.789 E13.99451
G1 X118.031 Y88.876 E14.00562
G1 X118.031 Y89.135 E14.02918
G1 X117.944 Y89.221 E14.04029
G1 X117.944 Y89.913 E14.10319
G1 X117.858 Y89.999 E14.11431
G1 X117.858 Y91.040 E14.20896
G1 X117.685 Y91.300 E14.23729
G1 X117.685 Y92.071 E14.30747
G1 X117.599 Y92.158 E14.31857
G1 X117.599 Y92.503 E14.34999
G1 X117.512 Y92.590 E14.36110
G1 X117.512 Y93.195 E14.41614
G1 X117.426 Y93.282 E14.42725
G1 X117.426 Y94.323 E14.52197
G1 X117.253 Y94.583 E14.55031
G1 X117.253 Y95.354 E14.62044
G1 X117.167 Y95.440 E14.63155
G1 X117.167 Y95.872 E14.67085
G1 X117.081 Y95.959 E14.68196
G1 X117.081 Y96.478 E14.72914
G1 X116.994 Y96.564 E14.74026
G1 X116.994 Y102.799 E15.30715
G1 X117.081 Y102.799 E15.31500
G1 X117.081 Y105.811 E15.58896
G1 X114.883 Y108.032 E15.87298
G1 X117.167 Y108.053 E16.08063
G1 X117.167 Y111.322 E16.37790
G1 X116.152 Y112.683 E16.53224
G1 X117.252 Y113.056 E16.63792
G1 X117.253 Y115.728 E16.88083
G1 X116.242 Y117.084 E17.03468
G1 X116.516 Y117.178 E17.06098
G1 X115.013 Y118.692 E17.25499
G1 X117.340 Y118.693 E17.46660
G1 X117.340 Y120.047 E17.58973
G1 X116.329 Y121.402 E17.74346
G1 X117.426 Y121.778 E17.84893
G1 X117.426 Y124.213 E18.07039
G1 X115.316 Y126.357 E18.34387
G1 X116.741 Y125.800 F7800.000
G1 F1800
G1 X118.137 Y125.825 E18.47089
G1 X118.137 Y127.833 E18.65344
G1 X116.801 Y129.171 E18.82540
G1 X118.224 Y129.195 E18.95478
G1 X118.224 Y130.078 E19.03509
G1 X118.101 Y130.201 E19.05091
G1 X117.750 Y130.630 E19.10129
G1 X116.459 Y130.630 E19.21869
G1 X116.459 Y130.544 E19.22655
G1 X115.423 Y130.544 E19.32074
G1 X115.423 Y130.457 E19.32860
G1 X114.294 Y130.457 E19.43127
G1 X114.293 Y130.371 E19.43913
G1 X113.174 Y130.371 E19.54086
G1 X113.174 Y130.284 E19.54871
G1 X112.132 Y130.284 E19.64342
G1 X112.132 Y130.198 E19.65128
G1 X111.015 Y130.198 E19.75282
G1 X111.015 Y130.112 E19.76068
G1 X109.894 Y130.112 E19.86259
G1 X109.894 Y130.025 E19.87045
G1 X108.684 Y130.025 E19.98049
G1 X108.684 Y129.939 E19.98834
G1 X107.475 Y129.939 E20.09820
G1 X107.475 Y129.853 E20.10606
G1 X106.266 Y129.853 E20.21603
G1 X106.266 Y129.766 E20.22389
G1 X105.057 Y129.766 E20.33382
G1 X105.057 Y129.680 E20.34167
G1 X103.761 Y129.680 E20.45950
G1 X103.761 Y129.593 E20.46735
G1 X102.465 Y129.593 E20.58525
G1 X102.464 Y129.507 E20.59311
G1 X101.253 Y129.507 E20.70326
G1 X102.290 Y128.471 E20.83655
G1 X100.738 Y128.471 E20.97762
G1 X100.738 Y128.384 E20.98548
G1 X100.393 Y128.384 E21.01690
G1 X100.393 Y127.779 E21.07192
G1 X99.615 Y127.779 E21.14261
G1 X99.615 Y127.607 E21.15828
G1 X99.097 Y127.607 E21.20539
G1 X99.097 Y126.855 E21.27375
G1 X99.174 Y126.317 E21.32316
G1 X98.718 Y125.998 E21.37373
G1 X98.563 Y125.534 E21.41824
G1 X98.885 Y124.997 E21.47511
G1 X98.319 Y124.705 E21.53300
G1 X98.319 Y122.942 E21.69332
G1 X97.776 Y122.942 E21.74277
G1 X97.995 Y122.608 E21.77909
G1 X96.917 Y121.890 E21.89688
G1 X96.635 Y121.843 E21.92286
G1 X96.282 Y121.607 E21.96146
G1 X96.654 Y121.235 E22.00928
G1 X96.219 Y120.667 E22.07439
G1 X96.160 Y120.317 E22.10664
G1 X95.815 Y120.086 E22.14444
G1 X95.815 Y119.052 E22.23850
G1 X95.728 Y119.052 E22.24637
G1 X95.728 Y118.969 E22.25393
G1 X95.642 Y118.969 E22.26179
G1 X95.642 Y118.623 E22.29321
G1 X95.555 Y118.623 E22.30106
G1 X95.555 Y118.451 E22.31676
G1 X95.037 Y118.451 E22.36389
G1 X95.037 Y117.799 E22.42314
G1 X94.502 Y117.824 E22.47182
G1 X95.483 Y115.953 E22.66389
G1 X94.786 Y115.837 E22.72806
G1 X94.789 Y115.597 E22.74985
G1 X94.671 Y115.597 E22.76054
G1 X94.998 Y114.649 E22.85179
G1 X94.216 Y114.649 E22.92295
G1 X94.244 Y114.095 E22.97345
G1 X94.519 Y114.095 E22.99845
G1 X94.519 Y112.281 E23.16338
G1 X94.692 Y112.281 E23.17911
G1 X94.692 Y110.241 E23.36459
G1 X95.811 Y109.121 E23.50854
G1 X94.346 Y109.121 E23.64176
G1 X94.346 Y108.655 E23.68415
G1 X95.007 Y107.653 E23.79331
G1 X94.778 Y107.653 E23.81411
G1 X94.778 Y106.234 E23.94314
G1 X95.080 Y106.234 E23.97063
G1 X94.896 Y105.130 E24.07237
G1 X95.469 Y104.739 E24.13543
G1 X95.469 Y103.417 E24.25565
G1 X95.642 Y103.244 E24.27781
G1 X95.642 Y102.821 E24.31632
G1 X96.006 Y102.347 E24.37067
G1 X96.851 Y102.347 E24.44748
G1 X96.851 Y100.767 E24.59112
G1 X96.592 Y100.595 E24.61940
G1 X96.592 Y100.402 E24.63692
G1 X96.333 Y100.185 E24.66769
G1 X96.333 Y99.619 E24.71911
G1 X95.989 Y99.619 E24.75041
G1 X95.989 Y99.101 E24.79751
G1 X95.901 Y99.101 E24.80548
G1 X95.901 Y98.320 E24.87658
G1 X95.771 Y98.377 E24.88951
G1 X95.555 Y98.233 E24.91304
G1 X95.555 Y98.006 E24.93370
G1 X95.274 Y97.818 E24.96449
G1 X95.429 Y97.661 E24.98463
G1 X95.297 Y97.459 E25.00654
G1 X95.297 Y97.374 E25.01431
G1 X95.241 Y97.374 E25.01943
G1 X94.972 Y96.966 E25.06381
G1 X94.864 Y96.642 E25.09487
G1 X94.864 Y96.334 E25.12289
G1 X94.950 Y96.249 E25.13387
G1 X94.667 Y96.115 E25.16227
G1 X95.197 Y95.387 E25.24409
G1 X94.249 Y95.387 E25.33028
G1 X93.482 Y94.242 E25.45556
G1 X93.482 Y93.487 E25.52426
G1 X92.705 Y93.487 E25.59496
G1 X92.705 Y93.400 E25.60282
G1 X92.446 Y93.400 E25.62636
G1 X92.446 Y93.141 E25.64993
G1 X92.359 Y93.141 E25.65777
G1 X92.359 Y91.956 E25.76551
G1 X91.929 Y91.669 E25.81256
G1 X91.930 Y91.155 E25.85938
G1 X91.579 Y91.155 E25.89135
G1 X91.984 Y90.749 E25.94349
G1 X91.676 Y89.825 E26.03210
G1 X91.582 Y89.716 E26.04516
G1 X91.582 Y88.908 E26.11860
G1 X91.216 Y88.607 E26.16174
G1 X91.198 Y88.131 E26.20500
G1 X91.088 Y88.131 E26.21502
G1 X91.067 Y87.849 E26.24077
G1 X91.580 Y87.144 E26.32000
G1 X92.396 Y87.144 E26.39423
G1 X92.396 Y87.231 E26.40212
G1 X94.037 Y87.231 E26.55135
G1 X94.037 Y87.317 E26.55920
G1 X95.679 Y87.317 E26.70843
G1 X95.679 Y87.403 E26.71628
G1 X97.147 Y87.403 E26.84980
G1 X97.147 Y87.490 E26.85765
G1 X98.616 Y87.490 E26.99119
G1 X98.616 Y87.577 E26.99913
G1 X100.084 Y87.576 E27.13264
G1 X100.084 Y87.662 E27.14047
G1 X100.430 Y87.662 E27.17189
G1 X100.430 Y87.749 E27.17975
G1 X101.293 Y87.749 E27.25829
G1 X101.293 Y87.835 E27.26615
G1 X102.675 Y87.835 E27.39181
G1 X102.675 Y87.922 E27.39967
G1 X104.058 Y87.922 E27.52535
G1 X104.058 Y88.008 E27.53320
G1 X105.353 Y88.008 E27.65099
G1 X105.353 Y88.123 E27.66143
G1 X107.428 Y88.063 E27.85019
G1 X108.426 Y87.643 E27.94863
G1 X108.426 Y86.317 E28.06921
G1 X109.635 Y85.108 E28.22474
G1 X108.390 Y85.108 E28.33800
G1 X108.084 Y84.944 E28.36953
G1 X108.174 Y84.820 E28.38342
G1 X108.068 Y84.711 E28.39732
G1 X108.079 Y84.585 E28.40880
G1 X107.854 Y84.507 E28.43052
G1 X108.419 Y83.772 E28.51482
G1 X107.934 Y83.626 E28.56081
G1 X108.112 Y83.130 E28.60871
G1 X107.898 Y83.115 E28.62817
G1 X108.079 Y82.773 E28.66334
G1 X108.290 Y82.566 E28.69021
G1 X108.711 Y82.566 E28.72851
G1 X108.808 Y82.210 E28.76204
G1 X108.896 Y82.178 E28.77059
G1 X108.930 Y82.086 E28.77956
G1 X109.017 Y82.062 E28.78772
G1 X109.338 Y81.332 E28.86023
G1 X109.358 Y81.011 E28.88947
G1 X109.894 Y81.011 E28.93826
G1 X109.894 Y79.975 E29.03251
G1 X110.376 Y79.975 E29.07633
G1 X110.671 Y80.859 E29.16113
G1 X111.024 Y81.284 E29.21131
G1 X111.228 Y82.165 E29.29361
G1 X112.469 Y81.443 E29.42418
G1 X112.868 Y81.443 E29.46050
G1 X112.868 Y81.529 E29.46833
G1 X113.297 Y81.529 E29.50732
G1 X113.297 Y81.789 E29.53088
G1 X113.646 Y81.789 E29.56259
G1 X113.646 Y81.809 E29.56444
G1 X114.161 Y81.843 E29.61138
G1 X114.161 Y82.048 E29.62996
G1 X115.814 Y82.048 E29.78031
G1 X115.868 Y82.712 E29.84086
G1 X117.308 Y81.875 E29.99232
G1 X117.705 Y81.875 E30.02845
G1 X117.705 Y83.340 E30.16167
G1 X119.207 Y81.838 E30.35482
G1 X119.606 Y81.888 E30.39133
G1 X119.606 Y82.137 E30.41402
G1 X119.519 Y82.224 E30.42513
G1 X119.519 Y82.569 E30.45654
G1 X119.433 Y82.656 E30.46765
G1 X119.433 Y83.606 E30.55407
G1 X119.347 Y83.693 E30.56519
G1 X119.347 Y84.037 E30.59653
G1 X119.260 Y84.124 E30.60763
G1 X119.260 Y84.730 E30.66275
G1 X119.174 Y84.816 E30.67387
G1 X119.174 Y85.766 E30.76019
G1 X119.088 Y85.852 E30.77130
G1 X119.088 Y86.026 E30.78710
G1 X119.001 Y86.113 E30.79830
G1 X119.001 Y86.889 E30.86884
G1 X118.915 Y86.975 E30.87993
G1 X118.915 Y87.752 E30.95060
G1 X118.828 Y87.839 E30.96171
G1 X118.828 Y88.011 E30.97739
G1 X118.742 Y88.098 E30.98850
G1 X118.742 Y89.048 E31.07491
G1 X118.656 Y89.134 E31.08602
G1 X118.656 Y89.394 E31.10959
G1 X118.569 Y89.480 E31.12070
G1 X118.569 Y90.171 E31.18357
G1 X118.483 Y90.258 E31.19469
G1 X118.483 Y91.230 E31.28304
G1 X118.310 Y91.489 E31.31137
G1 X118.310 Y92.330 E31.38788
G1 X118.224 Y92.417 E31.39899
G1 X118.224 Y92.762 E31.43041
G1 X118.137 Y92.849 E31.44151
G1 X118.137 Y93.454 E31.49653
G1 X118.051 Y93.540 E31.50764
G1 X118.051 Y94.512 E31.59604
G1 X117.878 Y94.772 E31.62438
G1 X117.878 Y95.613 E31.70086
G1 X117.792 Y95.699 E31.71196
G1 X117.792 Y96.131 E31.75125
G1 X117.705 Y96.218 E31.76237
G1 X117.705 Y96.736 E31.80952
G1 X117.619 Y96.823 E31.82064
G1 X117.619 Y102.174 E32.30722
G1 X117.705 Y102.174 E32.31508
G1 X117.705 Y106.068 E32.66920
G1 X116.367 Y107.421 E32.84220
G1 X117.792 Y107.434 E32.97176
G1 X117.792 Y111.530 E33.34418
G1 X117.167 Y112.368 E33.43920
G1 X117.878 Y112.609 E33.50752
G1 X117.878 Y115.935 E33.80997
G1 X117.255 Y116.770 E33.90470
G1 X117.662 Y116.909 E33.94380
G1 X116.513 Y118.067 E34.09217
G1 X117.965 Y118.068 E34.22417
G1 X117.965 Y120.254 E34.42297
G1 X117.342 Y121.088 E34.51762
G1 X118.051 Y121.331 E34.58576
G1 X118.051 Y124.469 E34.87108
