; generated by Slic3r 1.3.0-dev on 2017-08-18 at 22:00:02

; external perimeters extrusion width = 0.40mm (1.14mm^3/s)
; perimeters extrusion width = 0.68mm (3.95mm^3/s)
; infill extrusion width = 1.20mm (9.43mm^3/s)
; solid infill extrusion width = 0.68mm (1.32mm^3/s)
; top infill extrusion width = 0.68mm (0.99mm^3/s)
; support material extrusion width = 0.40mm (2.27mm^3/s)

M107
M190 S66 ; set bed temperature and wait for it to be reached
M104 S215 ; set temperature
G28 ; home all axes
G1 Z5 F5000 ; lift nozzle

; Filament gcode

M109 S215 ; set temperature and wait for it to be reached
G21 ; set units to millimeters
G90 ; use absolute coordinates
M82 ; use absolute distances for extrusion
G92 E0
G1 Z0.350 F7800.000
G1 E-2.00000 F2400.00000
G92 E0
G1 X62.905 Y86.401 F7800.000
G1 E2.00000 F2400.00000
G1 F1800
G1 X65.015 Y85.425 E2.21139
G1 X66.232 Y85.224 E2.32350
G1 X119.643 Y81.445 E7.19228
G1 X121.261 Y81.529 E7.33965
G1 X126.438 Y82.442 E7.81763
G1 X128.593 Y83.226 E8.02617
G1 X129.910 Y84.222 E8.17630
G1 X141.043 Y95.069 E9.58971
G1 X141.533 Y95.601 E9.65543
G1 X148.627 Y104.210 E10.66978
G1 X149.801 Y106.334 E10.89047
G1 X149.980 Y106.965 E10.95008
G1 X150.086 Y107.435 E10.99388
G1 X150.234 Y108.385 E11.08133
G1 X150.279 Y108.903 E11.12858
G1 X150.277 Y110.083 E11.23592
G1 X150.122 Y111.764 E11.38944
G1 X150.059 Y112.253 E11.43426
G1 X149.905 Y113.175 E11.51921
G1 X149.726 Y114.074 E11.60261
G1 X149.194 Y115.650 E11.75381
G1 X148.878 Y116.301 E11.81965
G1 X148.482 Y117.005 E11.89305
G1 X143.163 Y125.239 E12.78443
G1 X142.000 Y126.596 E12.94694
G1 X141.212 Y127.207 E13.03764
G1 X140.847 Y127.448 E13.07738
G1 X138.744 Y128.363 E13.28592
G1 X135.995 Y128.438 E13.53602
G1 X86.554 Y119.346 E18.10699
G1 X85.529 Y119.102 E18.20281
G1 X82.952 Y117.807 E18.46507
G1 X65.475 Y103.523 E20.51750
G1 X64.983 Y103.078 E20.57782
G1 X63.922 Y101.995 E20.71566
G1 X61.795 Y99.563 E21.00942
G1 X61.237 Y98.832 E21.09302
G1 X60.938 Y98.382 E21.14220
G1 X60.483 Y97.569 E21.22690
G1 X60.309 Y97.200 E21.26398
G1 X59.678 Y94.372 E21.52751
G1 X59.678 Y93.764 E21.58280
G1 X59.710 Y93.119 E21.64152
G1 X59.883 Y91.360 E21.80218
G1 X60.500 Y89.151 E22.01073
G1 X62.299 Y86.869 E22.27497
G1 X62.857 Y86.437 E22.33914
G1 E20.33914 F2400.00000
G92 E0
G1 X133.451 Y118.979 F7800.000
G1 E2.00000 F2400.00000
G1 F1800
G1 X132.680 Y118.980 E2.07012
G1 X132.682 Y118.829 E2.08383
G1 X131.904 Y118.829 E2.15449
G1 X131.905 Y118.381 E2.19519
G1 X133.650 Y118.381 E2.35390
G1 X133.470 Y118.922 E2.40571
G1 E0.40571 F2400.00000
G92 E0
G1 X134.186 Y112.299 F7800.000
G1 E2.00000 F2400.00000
G1 F1800
G1 X132.484 Y112.294 E2.15475
G1 X131.196 Y111.006 E2.32044
G1 X131.961 Y110.240 E2.41881
G1 X132.654 Y111.214 E2.52749
G1 X133.640 Y111.241 E2.61712
G1 X134.469 Y111.138 E2.69316
G1 X136.013 Y111.867 E2.84841
G1 X135.975 Y109.831 E3.03362
G1 X136.454 Y109.829 E3.07720
G1 X136.454 Y109.925 E3.08593
G1 X136.912 Y110.001 E3.12810
G1 X136.913 Y110.471 E3.17080
G1 X136.826 Y110.471 E3.17870
G1 X136.424 Y112.015 E3.32382
G1 X136.229 Y112.601 E3.37998
G1 X136.203 Y112.903 E3.40751
G1 X134.446 Y112.902 E3.56732
G1 X134.419 Y112.824 E3.57481
G1 X134.185 Y112.774 E3.59658
G1 X134.186 Y112.359 E3.63433
G1 E1.63433 F2400.00000
G92 E0
G1 X126.521 Y111.604 F7800.000
G1 E2.00000 F2400.00000
G1 F1800
G1 X130.701 Y109.976 E2.40791
G1 X130.824 Y110.243 E2.43464
G1 X130.178 Y113.474 E2.73431
G1 X129.745 Y114.451 E2.83146
G1 X129.554 Y114.808 E2.86823
G1 X129.160 Y115.348 E2.92907
G1 X129.160 Y118.312 E3.19854
G1 X128.728 Y118.258 E3.23814
G1 X128.732 Y117.916 E3.26924
G1 X128.121 Y117.916 E3.32475
G1 X128.123 Y117.765 E3.33853
G1 X127.345 Y117.765 E3.40929
G1 X127.345 Y117.637 E3.42096
G1 X126.585 Y117.625 E3.49012
G1 X126.585 Y117.479 E3.50347
G1 X125.826 Y117.473 E3.57246
G1 X125.826 Y117.370 E3.58182
G1 X124.460 Y117.317 E3.70615
G1 X124.460 Y117.004 E3.73461
G1 X123.712 Y117.004 E3.80263
G1 X123.713 Y116.898 E3.81233
G1 X122.194 Y116.854 E3.95055
G1 X122.197 Y116.547 E3.97854
G1 X121.431 Y116.548 E4.04819
G1 X121.432 Y116.440 E4.05797
G1 X119.897 Y116.397 E4.19759
G1 X119.897 Y116.093 E4.22523
G1 X119.157 Y116.093 E4.29254
G1 X119.158 Y115.969 E4.30383
G1 X118.378 Y115.956 E4.37479
G1 X118.378 Y115.798 E4.38909
G1 X117.640 Y115.796 E4.45621
G1 X117.642 Y115.671 E4.46751
G1 X116.402 Y115.644 E4.58022
G1 X116.402 Y115.354 E4.60660
G1 X115.795 Y115.348 E4.66188
G1 X115.794 Y115.208 E4.67466
G1 X114.608 Y115.188 E4.78257
G1 X114.619 Y115.088 E4.79175
G1 X113.664 Y115.115 E4.87858
G1 X113.664 Y114.878 E4.90019
G1 X112.906 Y114.878 E4.96911
G1 X112.906 Y114.726 E4.98292
G1 X111.338 Y114.726 E5.12547
G1 X110.473 Y114.565 E5.20548
G1 X110.472 Y114.281 E5.23137
G1 X109.199 Y114.272 E5.34720
G1 X108.493 Y114.106 E5.41310
G1 X108.492 Y113.814 E5.43965
G1 X107.737 Y113.814 E5.50823
G1 X107.737 Y113.662 E5.52205
G1 X106.365 Y113.662 E5.64685
G1 X106.364 Y113.510 E5.66068
G1 X105.458 Y113.510 E5.74308
G1 X105.457 Y113.358 E5.75689
G1 X104.700 Y113.358 E5.82572
G1 X104.700 Y113.255 E5.83509
G1 X103.027 Y113.207 E5.98731
G1 X103.026 Y112.902 E6.01503
G1 X102.116 Y112.902 E6.09786
G1 X102.115 Y112.750 E6.11167
G1 X101.204 Y112.750 E6.19451
G1 X101.204 Y112.598 E6.20834
G1 X100.445 Y112.598 E6.27742
G1 X100.445 Y112.446 E6.29123
G1 X98.920 Y112.446 E6.42989
G1 X98.919 Y112.294 E6.44369
G1 X97.570 Y112.294 E6.56636
G1 X96.616 Y112.200 E6.65350
G1 X96.614 Y112.111 E6.66152
G1 X95.717 Y112.067 E6.74319
G1 X95.715 Y111.839 E6.76389
G1 X94.818 Y111.839 E6.84548
G1 X94.817 Y111.686 E6.85936
G1 X93.302 Y111.686 E6.99710
G1 X93.302 Y111.534 E7.01091
G1 X91.854 Y111.534 E7.14254
G1 X91.478 Y110.640 E7.23075
G1 X90.485 Y111.231 E7.33578
G1 X89.350 Y111.230 E7.43901
G1 X89.350 Y111.081 E7.45264
G1 X88.744 Y111.080 E7.50774
G1 X88.744 Y110.620 E7.54953
G1 X89.943 Y108.483 E7.77233
G1 X87.984 Y108.379 E7.95066
G1 X87.984 Y108.191 E7.96777
G1 X87.355 Y108.191 E8.02499
G1 X87.279 Y107.735 E8.06706
G1 X87.040 Y107.735 E8.08877
G1 X87.038 Y107.038 E8.15216
G1 X86.768 Y107.027 E8.17671
G1 X86.769 Y105.788 E8.28936
G1 X86.337 Y105.857 E8.32905
G1 X86.447 Y105.134 E8.39552
G1 X84.446 Y105.305 E8.57813
G1 X83.130 Y105.304 E8.69783
G1 X82.964 Y105.194 E8.71590
G1 X82.849 Y104.459 E8.78357
G1 X82.720 Y104.373 E8.79767
G1 X82.810 Y103.329 E8.89292
G1 X82.209 Y103.329 E8.94751
G1 X82.209 Y101.383 E9.12444
G1 X80.272 Y102.871 E9.34660
G1 X80.013 Y102.871 E9.37007
G1 X79.950 Y101.416 E9.50250
G1 X78.866 Y101.968 E9.61308
G1 X78.866 Y101.609 E9.64570
G1 X77.691 Y100.630 E9.78478
G1 X77.400 Y100.622 E9.81121
G1 X76.892 Y100.538 E9.85812
G1 X76.693 Y100.405 E9.87987
G1 X77.703 Y98.921 E10.04317
G1 X74.993 Y98.921 E10.28959
G1 X74.912 Y98.647 E10.31558
G1 X74.910 Y98.009 E10.37358
G1 X73.934 Y98.009 E10.46233
G1 X73.373 Y97.634 E10.52370
G1 X72.627 Y97.577 E10.59175
G1 X72.626 Y97.402 E10.60769
G1 X71.235 Y97.401 E10.73409
G1 X71.484 Y96.562 E10.81371
G1 X70.809 Y96.442 E10.87603
G1 X70.808 Y96.033 E10.91322
G1 X70.204 Y96.033 E10.96815
G1 X70.204 Y94.661 E11.09297
G1 X69.939 Y94.484 E11.12191
G1 X70.020 Y94.218 E11.14721
G1 X70.955 Y94.218 E11.23229
G1 X70.955 Y94.485 E11.25661
G1 X71.126 Y94.474 E11.27213
G1 X71.118 Y94.522 E11.27660
G1 X72.475 Y94.522 E11.40004
G1 X72.475 Y94.674 E11.41388
G1 X73.539 Y94.674 E11.51059
G1 X73.539 Y94.826 E11.52442
G1 X75.061 Y94.826 E11.66285
G1 X75.267 Y94.857 E11.68180
G1 X75.273 Y94.997 E11.69461
G1 X75.970 Y95.038 E11.75811
G1 X75.970 Y95.282 E11.78024
G1 X76.274 Y95.282 E11.80788
G1 X76.274 Y95.434 E11.82170
G1 X77.185 Y95.434 E11.90451
G1 X77.185 Y95.576 E11.91747
G1 X77.460 Y95.637 E11.94310
G1 X77.534 Y95.737 E11.95445
G1 X77.919 Y95.737 E11.98944
G1 X78.501 Y95.865 E12.04362
G1 X78.833 Y97.302 E12.17776
G1 X79.403 Y96.953 E12.23851
G1 X80.540 Y96.953 E12.34195
G1 X80.836 Y97.055 E12.37038
G1 X80.837 Y97.553 E12.41564
G1 X82.033 Y97.642 E12.52467
G1 X82.873 Y98.699 E12.64740
G1 X83.241 Y98.473 E12.68670
G1 X84.937 Y98.473 E12.84084
G1 X84.937 Y98.625 E12.85466
G1 X86.000 Y98.625 E12.95140
G1 X86.000 Y98.777 E12.96522
G1 X87.520 Y98.777 E13.10339
G1 X87.520 Y98.929 E13.11721
G1 X89.040 Y98.929 E13.25538
G1 X89.040 Y99.081 E13.26920
G1 X89.952 Y99.081 E13.35214
G1 X89.952 Y99.233 E13.36596
G1 X91.471 Y99.233 E13.50413
G1 X91.471 Y99.385 E13.51795
G1 X92.991 Y99.385 E13.65615
G1 X92.991 Y99.663 E13.68142
G1 X96.714 Y99.380 E14.02093
G1 X96.750 Y99.100 E14.04661
G1 X97.419 Y98.889 E14.11037
G1 X99.509 Y96.801 E14.37902
G1 X100.134 Y96.801 E14.43579
G1 X100.134 Y96.953 E14.44960
G1 X100.893 Y96.953 E14.51869
G1 X100.893 Y97.105 E14.53251
G1 X101.805 Y97.105 E14.61543
G1 X101.805 Y97.247 E14.62833
G1 X102.717 Y97.253 E14.71126
G1 X102.717 Y97.338 E14.71902
G1 X104.793 Y97.417 E14.90794
G1 X105.757 Y97.605 E14.99717
G1 X105.757 Y97.956 E15.02904
G1 X108.537 Y97.802 E15.28228
G1 X109.230 Y97.500 E15.35099
G1 X109.557 Y97.257 E15.38800
G1 X109.839 Y97.257 E15.41367
G1 X110.146 Y96.953 E15.45299
G1 X110.234 Y96.953 E15.46092
G1 X111.173 Y96.117 E15.57525
G1 X111.447 Y95.896 E15.60729
G1 X111.957 Y95.691 E15.65727
G1 X112.689 Y95.105 E15.74254
G1 X113.334 Y94.634 E15.81518
G1 X114.110 Y93.983 E15.90730
G1 X114.619 Y93.907 E15.95405
G1 X114.976 Y93.394 E16.01089
G1 X115.118 Y93.306 E16.02604
G1 X115.319 Y93.306 E16.04435
G1 X116.219 Y92.649 E16.14566
G1 X116.335 Y92.546 E16.15972
G1 X116.515 Y92.546 E16.17616
G1 X117.171 Y91.903 E16.25974
G1 X117.630 Y91.718 E16.30465
G1 X118.234 Y91.179 E16.37834
G1 X118.451 Y91.179 E16.39809
G1 X119.227 Y90.488 E16.49256
G1 X119.470 Y90.382 E16.51661
G1 X120.055 Y89.995 E16.58040
G1 X120.222 Y90.245 E16.60776
G1 X120.345 Y90.272 E16.61922
G1 X120.345 Y90.437 E16.63422
G1 X120.804 Y90.528 E16.67678
G1 X120.804 Y90.715 E16.69381
G1 X121.409 Y90.760 E16.74898
G1 X121.409 Y91.027 E16.77321
G1 X123.714 Y91.027 E16.98277
G1 X122.202 Y93.003 E17.20903
G1 X123.800 Y93.003 E17.35428
G1 X123.583 Y93.757 E17.42565
G1 X124.165 Y93.750 E17.47854
G1 X124.177 Y94.371 E17.53500
G1 X124.640 Y94.371 E17.57706
G1 X124.728 Y95.434 E17.67407
G1 X125.349 Y95.434 E17.73050
G1 X125.392 Y95.581 E17.74444
G1 X125.770 Y96.148 E17.80645
G1 X126.002 Y96.322 E17.83283
G1 X126.069 Y96.522 E17.85194
G1 X126.346 Y96.799 E17.88757
G1 X126.551 Y97.866 E17.98634
G1 X127.209 Y97.865 E18.04615
G1 X127.533 Y98.232 E18.09066
G1 X127.715 Y98.254 E18.10727
G1 X127.993 Y98.486 E18.14020
G1 X128.095 Y98.634 E18.15655
G1 X128.172 Y99.010 E18.19153
G1 X128.718 Y99.193 E18.24391
G1 X128.955 Y99.575 E18.28481
G1 X129.282 Y99.684 E18.31614
G1 X129.768 Y100.349 E18.39104
G1 X129.768 Y100.432 E18.39860
G1 X130.984 Y100.854 E18.51563
G1 X130.984 Y101.637 E18.58684
G1 X130.252 Y102.140 E18.66760
G1 X129.893 Y102.702 E18.72828
G1 X128.701 Y105.692 E19.02094
G1 X132.199 Y105.192 E19.34229
G1 X132.199 Y105.366 E19.35805
G1 X132.839 Y105.472 E19.41701
G1 X132.239 Y106.073 E19.49423
G1 X131.722 Y106.110 E19.54135
G1 X131.617 Y106.215 E19.55489
G1 X131.160 Y106.215 E19.59641
G1 X131.000 Y106.375 E19.61698
G1 X129.867 Y106.361 E19.72005
G1 X128.772 Y107.310 E19.85176
G1 X126.549 Y111.551 E20.28717
G1 X127.849 Y110.416 F7800.000
G1 F1800
G1 X130.851 Y109.247 E20.58011
G1 X131.053 Y109.246 E20.59844
G1 X131.374 Y109.943 E20.66824
G1 X132.329 Y108.989 E20.79100
G1 X132.458 Y109.862 E20.87123
G1 X132.983 Y110.598 E20.95344
G1 X133.609 Y110.615 E21.01044
G1 X134.572 Y110.495 E21.09867
G1 X135.370 Y110.872 E21.17886
G1 X135.343 Y109.461 E21.30715
G1 X136.009 Y108.806 E21.39207
G1 X136.004 Y109.206 E21.42845
G1 X137.079 Y109.201 E21.52623
G1 X137.079 Y109.395 E21.54392
G1 X137.536 Y109.471 E21.58598
G1 X137.537 Y110.214 E21.65353
G1 X137.991 Y110.261 E21.69503
G1 X138.011 Y111.095 E21.77090
G1 X137.309 Y111.095 E21.83470
G1 X137.023 Y112.193 E21.93780
G1 X136.845 Y112.728 E21.98909
G1 X136.809 Y113.153 E22.02786
G1 X136.464 Y113.498 E22.07221
G1 X136.484 Y114.568 E22.16958
G1 X135.838 Y114.138 E22.24017
G1 X135.838 Y113.527 E22.29567
G1 X133.995 Y113.527 E22.46323
G1 X133.940 Y113.361 E22.47916
G1 X133.559 Y113.280 E22.51451
G1 X133.560 Y112.922 E22.54703
G1 X132.225 Y112.918 E22.66845
G1 X131.143 Y111.836 E22.80760
G1 X130.777 Y113.664 E22.97715
G1 X130.307 Y114.726 E23.08270
G1 X130.084 Y115.141 E23.12556
G1 X129.785 Y115.552 E23.17179
G1 X129.785 Y117.756 E23.37225
G1 X134.051 Y117.756 E23.76016
G1 X134.294 Y117.514 E23.79139
G1 X134.546 Y117.670 E23.81837
G1 X133.960 Y119.428 E23.98691
G1 X135.411 Y119.428 E24.11883
G1 X135.411 Y120.214 E24.19027
G1 X134.774 Y120.214 E24.24816
G1 X134.774 Y120.094 E24.25907
G1 X133.406 Y120.048 E24.38352
G1 X133.406 Y119.766 E24.40916
G1 X132.646 Y119.762 E24.47825
G1 X132.646 Y119.605 E24.49261
G1 X132.048 Y119.605 E24.54703
G1 X132.050 Y119.454 E24.56081
G1 X131.279 Y119.454 E24.63086
G1 X131.279 Y119.336 E24.64158
G1 X129.911 Y119.287 E24.76607
G1 X129.911 Y118.998 E24.79238
G1 X129.305 Y118.998 E24.84750
G1 X129.305 Y118.959 E24.85101
G1 X128.096 Y118.810 E24.96178
G1 X128.099 Y118.541 E24.98617
G1 X127.489 Y118.542 E25.04164
G1 X127.491 Y118.390 E25.05545
G1 X126.720 Y118.390 E25.12557
G1 X126.720 Y118.252 E25.13809
G1 X125.960 Y118.241 E25.20723
G1 X125.960 Y118.099 E25.22016
G1 X125.201 Y118.093 E25.28918
G1 X125.201 Y117.971 E25.30031
G1 X123.834 Y117.918 E25.42470
G1 X123.834 Y117.629 E25.45095
G1 X123.082 Y117.630 E25.51939
G1 X123.083 Y117.505 E25.53073
G1 X121.562 Y117.462 E25.66906
G1 X121.565 Y117.172 E25.69537
G1 X120.801 Y117.173 E25.76486
G1 X120.802 Y117.048 E25.77628
G1 X119.273 Y117.005 E25.91540
G1 X119.273 Y116.718 E25.94149
G1 X118.525 Y116.718 E26.00950
G1 X118.526 Y116.583 E26.02180
G1 X117.753 Y116.569 E26.09210
G1 X117.753 Y116.421 E26.10561
G1 X117.007 Y116.418 E26.17350
G1 X117.009 Y116.282 E26.18583
G1 X115.778 Y116.256 E26.29779
G1 X115.778 Y115.973 E26.32346
G1 X115.170 Y115.968 E26.37873
G1 X115.170 Y115.823 E26.39192
G1 X113.913 Y115.802 E26.50624
G1 X113.920 Y115.733 E26.51252
G1 X113.041 Y115.759 E26.59250
G1 X113.040 Y115.503 E26.61577
G1 X112.282 Y115.503 E26.68475
G1 X112.281 Y115.351 E26.69857
G1 X110.611 Y115.351 E26.85051
G1 X110.611 Y115.226 E26.86180
G1 X109.849 Y115.085 E26.93221
G1 X109.849 Y114.901 E26.94894
G1 X109.124 Y114.896 E27.01486
G1 X107.871 Y114.601 E27.13191
G1 X107.870 Y114.439 E27.14670
G1 X107.114 Y114.439 E27.21547
G1 X107.113 Y114.287 E27.22929
G1 X105.743 Y114.287 E27.35389
G1 X105.742 Y114.135 E27.36772
G1 X104.834 Y114.135 E27.45031
G1 X104.834 Y113.983 E27.46412
G1 X104.075 Y113.983 E27.53307
G1 X104.075 Y113.862 E27.54405
G1 X102.403 Y113.814 E27.69618
G1 X102.403 Y113.527 E27.72229
G1 X101.491 Y113.527 E27.80514
G1 X101.491 Y113.375 E27.81896
G1 X100.580 Y113.375 E27.90182
G1 X100.580 Y113.223 E27.91564
G1 X99.820 Y113.223 E27.98472
G1 X99.820 Y113.071 E27.99853
G1 X98.297 Y113.071 E28.13699
G1 X98.297 Y112.919 E28.15080
G1 X96.933 Y112.919 E28.27482
G1 X96.933 Y112.859 E28.28029
G1 X96.003 Y112.767 E28.36522
G1 X96.002 Y112.707 E28.37069
G1 X95.099 Y112.662 E28.45287
G1 X95.097 Y112.464 E28.47087
G1 X94.195 Y112.463 E28.55293
G1 X94.194 Y112.311 E28.56678
G1 X92.678 Y112.311 E28.70467
G1 X92.678 Y112.159 E28.71849
G1 X91.439 Y112.159 E28.83107
G1 X91.181 Y111.544 E28.89175
G1 X90.395 Y112.011 E28.97482
G1 X90.395 Y111.855 E28.98897
G1 X88.726 Y111.855 E29.14071
G1 X88.726 Y111.705 E29.15442
G1 X88.119 Y111.704 E29.20958
G1 X88.119 Y110.457 E29.32295
G1 X88.906 Y109.054 E29.46924
G1 X87.359 Y108.972 E29.61006
G1 X87.359 Y108.816 E29.62424
G1 X86.826 Y108.816 E29.67278
G1 X86.749 Y108.360 E29.71485
G1 X86.417 Y108.360 E29.74509
G1 X86.415 Y107.638 E29.81070
G1 X86.208 Y107.630 E29.82952
G1 X86.144 Y107.352 E29.85550
G1 X86.144 Y106.520 E29.93107
G1 X85.808 Y106.574 E29.96200
G1 X85.616 Y106.446 E29.98294
G1 X85.710 Y105.824 E30.04015
G1 X83.870 Y105.982 E30.20807
G1 X83.862 Y105.930 E30.21289
G1 X82.940 Y105.929 E30.29668
G1 X82.402 Y105.570 E30.35551
G1 X82.272 Y104.825 E30.42429
G1 X82.066 Y104.688 E30.44679
G1 X82.129 Y103.953 E30.51378
G1 X81.584 Y103.953 E30.56329
G1 X81.584 Y102.650 E30.68174
G1 X80.484 Y103.496 E30.80792
G1 X79.415 Y103.496 E30.90508
G1 X79.368 Y102.413 E31.00359
