; generated by Slic3r 1.3.0-dev on 2017-08-18 at 22:02:14

; external perimeters extrusion width = 0.40mm (1.14mm^3/s)
; perimeters extrusion width = 0.68mm (3.95mm^3/s)
; infill extrusion width = 1.20mm (9.43mm^3/s)
; solid infill extrusion width = 0.68mm (1.32mm^3/s)
; top infill extrusion width = 0.68mm (0.99mm^3/s)
; support material extrusion width = 0.40mm (2.27mm^3/s)

M107
M190 S66 ; set bed temperature and wait for it to be reached
M104 S215 ; set temperature
G28 ; home all axes
G1 Z5 F5000 ; lift nozzle

; Filament gcode

M109 S215 ; set temperature and wait for it to be reached
G21 ; set units to millimeters
G90 ; use absolute coordinates
M82 ; use absolute distances for extrusion
G92 E0
G1 Z0.350 F7800.000
G1 E-2.00000 F2400.00000
G92 E0
G1 X71.267 Y85.353 F7800.000
G1 E2.00000 F2400.00000
G1 F1800
G1 X73.020 Y83.874 E2.20854
G1 X75.052 Y83.104 E2.40619
G1 X75.725 Y82.969 E2.46854
G1 X76.474 Y82.863 E2.53733
G1 X82.972 Y82.322 E3.13025
G1 X90.330 Y81.777 E3.80112
G1 X96.823 Y81.372 E4.39272
G1 X108.659 Y80.699 E5.47069
G1 X111.915 Y80.557 E5.76702
G1 X120.816 Y80.288 E6.57679
G1 X133.648 Y80.285 E7.74361
G1 X135.907 Y80.682 E7.95215
G1 X137.895 Y81.825 E8.16070
G1 X139.375 Y83.578 E8.36924
G1 X140.167 Y85.730 E8.57778
G1 X140.273 Y86.910 E8.68549
G1 X140.273 Y88.793 E8.85671
G1 X140.228 Y89.567 E8.92722
G1 X139.946 Y91.955 E9.14586
G1 X138.063 Y106.077 E10.44138
G1 X136.447 Y117.933 E11.52937
G1 X136.284 Y118.745 E11.60467
G1 X135.332 Y122.278 E11.93737
G1 X133.626 Y125.219 E12.24660
G1 X133.491 Y125.354 E12.26390
G1 X131.769 Y126.595 E12.45688
G1 X131.500 Y126.729 E12.48422
G1 X128.863 Y127.421 E12.73218
G1 X82.001 Y129.715 E16.99835
G1 X79.176 Y129.715 E17.25526
G1 X76.917 Y129.318 E17.46380
G1 X74.929 Y128.175 E17.67234
G1 X73.450 Y126.422 E17.88089
G1 X72.592 Y123.822 E18.12987
G1 X72.443 Y122.466 E18.25393
G1 X69.887 Y93.683 E20.88145
G1 X69.750 Y92.033 E21.03197
G1 X69.727 Y91.483 E21.08205
G1 X69.727 Y89.600 E21.25327
G1 X70.124 Y87.341 E21.46181
G1 X71.237 Y85.405 E21.66490
G1 E19.66490 F2400.00000
G92 E0
G1 X126.155 Y110.837 F7800.000
G1 E2.00000 F2400.00000
G1 F1800
G1 X127.879 Y110.837 E2.15680
G1 X127.879 Y117.586 E2.77049
G1 X127.745 Y117.720 E2.78779
G1 X127.745 Y118.393 E2.84893
G1 X127.610 Y118.527 E2.86623
G1 X127.610 Y118.796 E2.89069
G1 X127.476 Y118.931 E2.90799
G1 X127.476 Y119.065 E2.92022
G1 X127.337 Y119.204 E2.93807
G1 X121.016 Y119.204 E3.51286
G1 X120.881 Y119.338 E3.53016
G1 X116.308 Y119.338 E3.94598
G1 X116.173 Y119.473 E3.96329
G1 X112.272 Y119.473 E4.31802
G1 X112.138 Y119.607 E4.33531
G1 X106.893 Y119.607 E4.81225
G1 X106.758 Y119.742 E4.82954
G1 X105.951 Y119.742 E4.90290
G1 X105.817 Y119.876 E4.92020
G1 X103.262 Y119.876 E5.15254
G1 X103.127 Y120.011 E5.16985
G1 X99.630 Y120.011 E5.48785
G1 X99.495 Y120.145 E5.50514
G1 X98.419 Y120.145 E5.60298
G1 X98.285 Y120.280 E5.62028
G1 X94.787 Y120.280 E5.93831
G1 X94.653 Y120.414 E5.95560
G1 X92.771 Y120.414 E6.12677
G1 X92.636 Y120.549 E6.14406
G1 X90.618 Y120.549 E6.32756
G1 X90.484 Y120.683 E6.34485
G1 X88.735 Y120.683 E6.50382
G1 X88.601 Y120.818 E6.52111
G1 X88.197 Y120.818 E6.55779
G1 X88.063 Y120.952 E6.57509
G1 X86.449 Y120.952 E6.72185
G1 X86.314 Y121.087 E6.73915
G1 X84.700 Y121.087 E6.88593
G1 X84.566 Y121.221 E6.90322
G1 X82.010 Y121.221 E7.13559
G1 X81.876 Y121.356 E7.15289
G1 X81.472 Y121.356 E7.18957
G1 X81.338 Y121.490 E7.20687
G1 X80.776 Y121.490 E7.25797
G1 X80.776 Y120.280 E7.36804
G1 X80.641 Y120.280 E7.38026
G1 X80.641 Y118.666 E7.52704
G1 X80.507 Y118.666 E7.53927
G1 X80.507 Y117.186 E7.67378
G1 X80.372 Y117.186 E7.68601
G1 X80.372 Y115.707 E7.82054
G1 X80.238 Y115.707 E7.83277
G1 X80.238 Y114.093 E7.97955
G1 X80.103 Y114.093 E7.99177
G1 X80.103 Y112.613 E8.12629
G1 X79.969 Y112.613 E8.13852
G1 X79.969 Y111.134 E8.27307
G1 X79.834 Y111.134 E8.28530
G1 X79.834 Y108.847 E8.49319
G1 X79.700 Y108.847 E8.50542
G1 X79.700 Y108.041 E8.57880
G1 X79.565 Y108.041 E8.59103
G1 X79.565 Y106.561 E8.72556
G1 X79.431 Y106.561 E8.73779
G1 X79.431 Y105.081 E8.87233
G1 X79.296 Y105.081 E8.88456
G1 X79.296 Y103.602 E9.01908
G1 X79.162 Y103.602 E9.03131
G1 X79.162 Y101.988 E9.17808
G1 X79.027 Y101.988 E9.19030
G1 X79.027 Y100.508 E9.32483
G1 X78.893 Y100.508 E9.33706
G1 X78.893 Y99.029 E9.47159
G1 X78.758 Y99.029 E9.48382
G1 X78.758 Y97.549 E9.61835
G1 X78.624 Y97.549 E9.63058
G1 X78.624 Y95.935 E9.77734
G1 X78.489 Y95.935 E9.78957
G1 X78.489 Y94.456 E9.92410
G1 X78.355 Y94.456 E9.93634
G1 X78.355 Y92.977 E10.07085
G1 X78.220 Y92.977 E10.08308
G1 X78.220 Y91.497 E10.21762
G1 X78.086 Y91.497 E10.22984
G1 X78.086 Y91.065 E10.26912
G1 X79.166 Y91.065 E10.36738
G1 X79.301 Y90.931 E10.38467
G1 X80.780 Y90.931 E10.51916
G1 X80.915 Y90.796 E10.53646
G1 X82.394 Y90.796 E10.67095
G1 X82.528 Y90.662 E10.68826
G1 X84.008 Y90.662 E10.82277
G1 X84.142 Y90.527 E10.84008
G1 X85.757 Y90.527 E10.98688
G1 X85.891 Y90.393 E11.00417
G1 X87.639 Y90.393 E11.16312
G1 X87.774 Y90.258 E11.18043
G1 X89.523 Y90.258 E11.33946
G1 X89.657 Y90.124 E11.35675
G1 X91.271 Y90.124 E11.50351
G1 X91.406 Y89.989 E11.52080
G1 X93.423 Y89.989 E11.70422
G1 X93.557 Y89.855 E11.72152
G1 X95.575 Y89.855 E11.90500
G1 X95.710 Y89.720 E11.92229
G1 X97.727 Y89.720 E12.10573
G1 X97.862 Y89.586 E12.12303
G1 X100.147 Y89.586 E12.33086
G1 X100.282 Y89.451 E12.34818
G1 X102.703 Y89.451 E12.56832
G1 X102.838 Y89.317 E12.58562
G1 X105.258 Y89.317 E12.80573
G1 X105.393 Y89.182 E12.82304
G1 X108.353 Y89.182 E13.09217
G1 X108.487 Y89.048 E13.10947
G1 X111.043 Y89.048 E13.34182
G1 X111.177 Y88.913 E13.35912
G1 X112.657 Y88.913 E13.49364
G1 X112.791 Y88.779 E13.51094
G1 X116.825 Y88.779 E13.87775
G1 X116.960 Y88.644 E13.89507
G1 X121.534 Y88.644 E14.31095
G1 X121.668 Y88.510 E14.32825
G1 X131.914 Y88.510 E15.25992
G1 X131.914 Y88.803 E15.28657
G1 X129.517 Y91.200 E15.59480
G1 X131.266 Y91.200 E15.75379
G1 X130.973 Y91.493 E15.79148
G1 X130.973 Y91.627 E15.80371
G1 X130.838 Y91.762 E15.82101
G1 X130.838 Y92.031 E15.84546
G1 X130.704 Y92.165 E15.86275
G1 X130.704 Y93.241 E15.96060
G1 X130.435 Y93.510 E15.99519
G1 X130.435 Y93.779 E16.01965
G1 X130.300 Y93.914 E16.03695
G1 X130.300 Y96.873 E16.30601
G1 X128.182 Y98.991 E16.57837
G1 X130.031 Y98.995 E16.74651
G1 X130.031 Y100.908 E16.92039
G1 X127.629 Y103.310 E17.22929
G1 X128.572 Y103.308 E17.31499
G1 X127.634 Y104.246 E17.43557
G1 X129.897 Y104.246 E17.64133
G1 X129.897 Y104.539 E17.66798
G1 X129.762 Y104.674 E17.68528
G1 X129.762 Y104.942 E17.70972
G1 X129.628 Y105.077 E17.72702
G1 X129.628 Y105.346 E17.75148
G1 X129.493 Y105.480 E17.76877
G1 X129.493 Y105.884 E17.80547
G1 X129.359 Y106.019 E17.82277
G1 X129.359 Y106.288 E17.84723
G1 X129.224 Y106.422 E17.86452
G1 X129.224 Y106.561 E17.87715
G1 X128.686 Y106.561 E17.92608
G1 X128.686 Y108.036 E18.06021
G1 X126.155 Y110.568 E18.38573
G1 X126.424 Y110.568 E18.41019
G1 X126.197 Y110.794 E18.43933
G1 X127.663 Y110.212 F7800.000
G1 F1800
G1 X128.639 Y110.212 E18.52800
G1 X128.639 Y110.716 E18.57385
G1 X128.504 Y110.850 E18.59115
G1 X128.504 Y116.937 E19.14457
G1 X128.639 Y116.937 E19.15680
G1 X128.639 Y117.441 E19.20265
G1 X128.504 Y117.575 E19.21995
G1 X128.504 Y117.844 E19.24441
G1 X128.370 Y117.979 E19.26170
G1 X128.370 Y118.651 E19.32285
G1 X128.235 Y118.786 E19.34015
G1 X128.235 Y119.055 E19.36461
G1 X128.101 Y119.189 E19.38190
G1 X128.101 Y119.324 E19.39413
G1 X127.966 Y119.458 E19.41143
G1 X127.966 Y119.829 E19.44511
G1 X121.274 Y119.829 E20.05359
G1 X121.140 Y119.963 E20.07089
G1 X116.567 Y119.963 E20.48671
G1 X116.432 Y120.098 E20.50401
G1 X112.531 Y120.098 E20.85872
G1 X112.397 Y120.232 E20.87601
G1 X107.152 Y120.232 E21.35297
G1 X107.017 Y120.367 E21.37026
G1 X106.210 Y120.367 E21.44363
G1 X106.076 Y120.501 E21.46092
G1 X103.520 Y120.501 E21.69328
G1 X103.386 Y120.636 E21.71058
G1 X99.889 Y120.636 E22.02857
G1 X99.754 Y120.770 E22.04587
G1 X98.678 Y120.770 E22.14371
G1 X98.544 Y120.905 E22.16100
G1 X95.046 Y120.905 E22.47902
G1 X94.912 Y121.039 E22.49630
G1 X93.029 Y121.039 E22.66749
G1 X92.895 Y121.174 E22.68479
G1 X90.877 Y121.174 E22.86827
G1 X90.743 Y121.308 E22.88556
G1 X88.994 Y121.308 E23.04454
G1 X88.860 Y121.443 E23.06183
G1 X88.456 Y121.443 E23.09852
G1 X88.322 Y121.577 E23.11581
G1 X86.708 Y121.577 E23.26258
G1 X86.573 Y121.712 E23.27987
G1 X84.959 Y121.712 E23.42665
G1 X84.825 Y121.846 E23.44394
G1 X82.269 Y121.846 E23.67631
G1 X82.135 Y121.981 E23.69360
G1 X81.731 Y121.981 E23.73029
G1 X81.597 Y122.115 E23.74758
G1 X80.151 Y122.115 E23.87905
G1 X80.151 Y120.905 E23.98911
G1 X80.016 Y120.905 E24.00134
G1 X80.016 Y119.291 E24.14812
G1 X79.882 Y119.291 E24.16034
G1 X79.882 Y117.811 E24.29486
G1 X79.747 Y117.811 E24.30709
G1 X79.747 Y116.332 E24.44162
G1 X79.613 Y116.332 E24.45385
G1 X79.613 Y114.718 E24.60062
G1 X79.478 Y114.718 E24.61285
G1 X79.478 Y113.238 E24.74737
G1 X79.344 Y113.238 E24.75960
G1 X79.344 Y111.759 E24.89415
G1 X79.209 Y111.759 E24.90638
G1 X79.209 Y109.472 E25.11427
G1 X79.075 Y109.472 E25.12650
G1 X79.075 Y108.665 E25.19988
G1 X78.940 Y108.665 E25.21211
G1 X78.940 Y107.186 E25.34664
G1 X78.806 Y107.186 E25.35887
G1 X78.806 Y105.706 E25.49341
G1 X78.671 Y105.706 E25.50564
G1 X78.671 Y104.227 E25.64015
G1 X78.537 Y104.227 E25.65239
G1 X78.537 Y102.613 E25.79915
G1 X78.402 Y102.613 E25.81138
G1 X78.402 Y101.133 E25.94591
G1 X78.268 Y101.133 E25.95814
G1 X78.268 Y99.654 E26.09267
G1 X78.133 Y99.654 E26.10490
G1 X78.133 Y98.174 E26.23943
G1 X77.999 Y98.174 E26.25166
G1 X77.999 Y96.560 E26.39842
G1 X77.864 Y96.560 E26.41064
G1 X77.864 Y95.081 E26.54518
G1 X77.730 Y95.081 E26.55741
G1 X77.730 Y93.601 E26.69193
G1 X77.595 Y93.601 E26.70416
G1 X77.595 Y92.122 E26.83869
G1 X77.461 Y92.122 E26.85092
G1 X77.461 Y90.440 E27.00384
G1 X78.908 Y90.440 E27.13538
G1 X79.042 Y90.306 E27.15267
G1 X80.521 Y90.306 E27.28718
G1 X80.656 Y90.171 E27.30448
G1 X82.135 Y90.171 E27.43897
G1 X82.270 Y90.037 E27.45628
G1 X83.749 Y90.037 E27.59079
G1 X83.884 Y89.902 E27.60810
G1 X85.498 Y89.902 E27.75488
G1 X85.632 Y89.768 E27.77218
G1 X87.380 Y89.768 E27.93114
G1 X87.515 Y89.633 E27.94844
G1 X89.264 Y89.633 E28.10746
G1 X89.398 Y89.499 E28.12476
G1 X91.012 Y89.499 E28.27151
G1 X91.147 Y89.364 E28.28881
G1 X93.164 Y89.364 E28.47224
G1 X93.299 Y89.230 E28.48954
G1 X95.316 Y89.230 E28.67300
G1 X95.451 Y89.095 E28.69030
G1 X97.468 Y89.095 E28.87374
G1 X97.603 Y88.961 E28.89104
G1 X99.889 Y88.961 E29.09890
G1 X100.023 Y88.826 E29.11621
G1 X102.444 Y88.826 E29.33634
G1 X102.579 Y88.692 E29.35365
G1 X105.000 Y88.692 E29.57376
G1 X105.135 Y88.557 E29.59108
G1 X108.094 Y88.557 E29.86018
G1 X108.228 Y88.423 E29.87747
G1 X110.784 Y88.423 E30.10983
G1 X110.918 Y88.288 E30.12712
G1 X112.398 Y88.288 E30.26165
G1 X112.532 Y88.154 E30.27895
G1 X116.567 Y88.154 E30.64579
G1 X116.701 Y88.019 E30.66310
G1 X121.275 Y88.019 E31.07896
G1 X121.409 Y87.885 E31.09625
G1 X132.539 Y87.885 E32.10828
G1 X132.539 Y89.061 E32.21529
G1 X131.026 Y90.575 E32.40988
G1 X132.505 Y90.575 E32.54441
G1 X131.867 Y91.213 E32.62655
G1 X131.867 Y91.482 E32.65101
G1 X131.598 Y91.751 E32.68561
G1 X131.598 Y91.886 E32.69784
G1 X131.463 Y92.020 E32.71513
G1 X131.463 Y92.289 E32.73959
G1 X131.329 Y92.424 E32.75688
G1 X131.329 Y93.500 E32.85473
G1 X131.060 Y93.769 E32.88932
G1 X131.060 Y94.038 E32.91378
G1 X130.925 Y94.172 E32.93108
G1 X130.925 Y97.131 E33.20014
G1 X129.687 Y98.369 E33.35934
G1 X130.656 Y98.372 E33.44746
G1 X130.656 Y101.166 E33.70156
G1 X129.140 Y102.683 E33.89656
G1 X130.082 Y102.682 E33.98228
G1 X129.143 Y103.621 E34.10311
G1 X130.522 Y103.621 E34.22849
G1 X130.522 Y104.798 E34.33550
G1 X130.387 Y104.932 E34.35279
G1 X130.387 Y105.201 E34.37725
G1 X130.253 Y105.336 E34.39454
G1 X130.253 Y105.605 E34.41900
G1 X130.118 Y105.739 E34.43629
G1 X130.118 Y106.143 E34.47299
G1 X129.984 Y106.277 E34.49029
G1 X129.984 Y106.546 E34.51475
G1 X129.849 Y106.681 E34.53204
G1 X129.849 Y106.815 E34.54428
G1 X129.715 Y106.950 E34.56157
G1 X129.715 Y107.186 E34.58303
G1 X129.311 Y107.186 E34.61971
G1 X129.311 Y108.295 E34.72056
G1 X127.663 Y109.943 E34.93245
G1 X127.932 Y109.943 E34.95690
G1 X127.706 Y110.169 E34.98604
G1 X129.172 Y109.587 F7800.000
G1 F1800
G1 X129.667 Y109.587 E35.03105
G1 X129.667 Y109.899 E35.05942
G1 X129.398 Y110.168 E35.09401
G1 X129.398 Y110.437 E35.11847
G1 X129.263 Y110.571 E35.13577
G1 X129.263 Y110.975 E35.17246
G1 X129.129 Y111.109 E35.18975
G1 X129.129 Y112.546 E35.32037
G1 X129.263 Y112.546 E35.33260
G1 X129.263 Y113.127 E35.38543
G1 X129.129 Y113.261 E35.40273
G1 X129.129 Y116.312 E35.68011
G1 X129.263 Y116.312 E35.69234
G1 X129.263 Y116.715 E35.72903
G1 X129.398 Y116.715 E35.74126
G1 X129.398 Y117.296 E35.79409
G1 X129.263 Y117.431 E35.81138
G1 X129.263 Y117.700 E35.83585
G1 X129.129 Y117.834 E35.85314
G1 X129.129 Y118.103 E35.87760
G1 X128.994 Y118.238 E35.89490
G1 X128.994 Y118.910 E35.95605
G1 X128.860 Y119.045 E35.97334
G1 X128.860 Y119.314 E35.99780
G1 X128.725 Y119.448 E36.01510
G1 X128.725 Y119.583 E36.02733
G1 X128.591 Y119.717 E36.04462
G1 X128.591 Y120.255 E36.09354
G1 X128.393 Y120.454 E36.11907
G1 X121.533 Y120.454 E36.74279
G1 X121.398 Y120.588 E36.76009
G1 X116.826 Y120.588 E37.17591
G1 X116.691 Y120.723 E37.19321
G1 X112.790 Y120.723 E37.54790
G1 X112.656 Y120.857 E37.56518
G1 X107.410 Y120.857 E38.04215
G1 X107.276 Y120.992 E38.05944
G1 X106.469 Y120.992 E38.13282
G1 X106.335 Y121.126 E38.15012
G1 X103.779 Y121.126 E38.38248
G1 X103.645 Y121.261 E38.39978
G1 X100.148 Y121.261 E38.71776
G1 X100.013 Y121.395 E38.73506
G1 X98.937 Y121.395 E38.83290
G1 X98.803 Y121.530 E38.85019
G1 X95.305 Y121.530 E39.16819
G1 X95.171 Y121.664 E39.18548
G1 X93.288 Y121.664 E39.35669
G1 X93.154 Y121.799 E39.37399
G1 X91.136 Y121.799 E39.55745
G1 X91.001 Y121.933 E39.57474
G1 X89.253 Y121.933 E39.73373
G1 X89.119 Y122.068 E39.75102
G1 X88.715 Y122.068 E39.78771
G1 X88.581 Y122.202 E39.80501
G1 X86.967 Y122.202 E39.95177
G1 X86.832 Y122.337 E39.96906
G1 X85.218 Y122.337 E40.11583
G1 X85.084 Y122.471 E40.13312
G1 X82.528 Y122.471 E40.36550
G1 X82.394 Y122.606 E40.38279
G1 X81.990 Y122.606 E40.41948
G1 X81.856 Y122.740 E40.43677
G1 X79.526 Y122.740 E40.64860
G1 X79.526 Y121.530 E40.75866
G1 X79.392 Y121.530 E40.77089
G1 X79.392 Y119.916 E40.91766
G1 X79.257 Y119.916 E40.92989
G1 X79.257 Y118.436 E41.06441
G1 X79.123 Y118.436 E41.07664
G1 X79.123 Y116.957 E41.21117
G1 X78.988 Y116.957 E41.22340
G1 X78.988 Y115.343 E41.37017
G1 X78.854 Y115.343 E41.38240
G1 X78.854 Y113.863 E41.51692
G1 X78.719 Y113.863 E41.52915
G1 X78.719 Y112.384 E41.66370
G1 X78.585 Y112.384 E41.67593
G1 X78.585 Y110.097 E41.88382
G1 X78.450 Y110.097 E41.89605
G1 X78.450 Y109.290 E41.96943
G1 X78.316 Y109.290 E41.98165
G1 X78.316 Y107.811 E42.11619
G1 X78.181 Y107.811 E42.12842
G1 X78.181 Y106.331 E42.26296
G1 X78.047 Y106.331 E42.27519
G1 X78.047 Y104.852 E42.40970
G1 X77.912 Y104.852 E42.42193
G1 X77.912 Y103.238 E42.56870
G1 X77.778 Y103.238 E42.58093
G1 X77.778 Y101.758 E42.71546
G1 X77.643 Y101.758 E42.72769
G1 X77.643 Y100.279 E42.86221
G1 X77.509 Y100.279 E42.87445
G1 X77.509 Y98.799 E43.00898
G1 X77.374 Y98.799 E43.02121
G1 X77.374 Y97.185 E43.16797
G1 X77.240 Y97.185 E43.18019
G1 X77.240 Y95.706 E43.31473
G1 X77.105 Y95.706 E43.32696
G1 X77.105 Y94.226 E43.46148
G1 X76.971 Y94.226 E43.47371
G1 X76.971 Y92.747 E43.60824
G1 X76.836 Y92.747 E43.62047
G1 X76.836 Y91.133 E43.76723
G1 X76.702 Y91.133 E43.77946
G1 X76.702 Y89.950 E43.88703
G1 X77.034 Y89.950 E43.91730
G1 X77.169 Y89.815 E43.93460
G1 X78.649 Y89.815 E44.06915
G1 X78.783 Y89.681 E44.08644
G1 X80.262 Y89.681 E44.22095
G1 X80.397 Y89.546 E44.23825
G1 X81.876 Y89.546 E44.37276
G1 X82.011 Y89.412 E44.39007
G1 X83.490 Y89.412 E44.52458
G1 X83.625 Y89.277 E44.54189
G1 X85.239 Y89.277 E44.68866
G1 X85.373 Y89.143 E44.70595
G1 X87.122 Y89.143 E44.86492
G1 X87.256 Y89.008 E44.88223
G1 X89.005 Y89.008 E45.04123
G1 X89.139 Y88.874 E45.05852
G1 X90.753 Y88.874 E45.20528
G1 X90.888 Y88.739 E45.22258
G1 X92.905 Y88.739 E45.40602
G1 X93.040 Y88.605 E45.42332
G1 X95.057 Y88.605 E45.60677
G1 X95.192 Y88.470 E45.62407
G1 X97.209 Y88.470 E45.80751
