; generated by Slic3r 1.3.0-dev on 2017-08-18 at 22:04:11

; external perimeters extrusion width = 0.40mm (1.14mm^3/s)
; perimeters extrusion width = 0.68mm (3.95mm^3/s)
; infill extrusion width = 1.20mm (9.43mm^3/s)
; solid infill extrusion width = 0.68mm (1.32mm^3/s)
; top infill extrusion width = 0.68mm (0.99mm^3/s)
; support material extrusion width = 0.40mm (2.27mm^3/s)

M107
M190 S66 ; set bed temperature and wait for it to be reached
M104 S215 ; set temperature
G28 ; home all axes
G1 Z5 F5000 ; lift nozzle

; Filament gcode

M109 S215 ; set temperature and wait for it to be reached
G21 ; set units to millimeters
G90 ; use absolute coordinates
M82 ; use absolute distances for extrusion
G92 E0
G1 Z0.350 F7800.000
G1 E-2.00000 F2400.00000
G92 E0
G1 X65.059 Y95.792 F7800.000
G1 E2.00000 F2400.00000
G1 F1800
G1 X80.802 Y83.594 E3.81095
G1 X82.831 Y82.524 E4.01950
G1 X84.038 Y82.257 E4.13191
G1 X85.173 Y82.115 E4.23588
G1 X90.120 Y81.793 E4.68668
G1 X95.271 Y81.507 E5.15584
G1 X101.308 Y81.219 E5.70539
G1 X108.474 Y80.933 E6.35750
G1 X112.910 Y80.790 E6.76109
G1 X118.300 Y80.648 E7.25135
G1 X141.026 Y80.646 E9.31779
G1 X143.285 Y81.043 E9.52634
G1 X145.273 Y82.186 E9.73488
G1 X146.752 Y83.939 E9.94342
G1 X147.545 Y86.091 E10.15196
G1 X147.651 Y87.413 E10.27252
G1 X147.348 Y89.393 E10.45474
G1 X140.681 Y110.669 E12.48201
G1 X138.590 Y116.368 E13.03401
G1 X137.058 Y118.762 E13.29247
G1 X136.302 Y119.475 E13.38701
G1 X133.891 Y121.461 E13.67104
G1 X132.642 Y122.272 E13.80646
G1 X128.387 Y124.400 E14.23904
G1 X127.031 Y124.901 E14.37050
G1 X125.915 Y125.156 E14.47460
G1 X116.270 Y126.716 E15.36299
G1 X115.612 Y126.789 E15.42323
G1 X73.345 Y129.342 E19.27351
G1 X70.960 Y129.354 E19.49040
G1 X68.701 Y128.957 E19.69894
G1 X66.276 Y127.414 E19.96031
G1 X66.134 Y127.272 E19.97854
G1 X64.817 Y125.395 E20.18709
G1 X64.220 Y123.187 E20.39499
G1 X62.375 Y102.462 E22.28701
G1 X62.349 Y101.880 E22.34001
G1 X62.349 Y101.170 E22.40449
G1 X62.746 Y98.912 E22.61304
G1 X64.290 Y96.486 E22.87446
G1 X65.013 Y95.831 E22.96321
G1 E20.96321 F2400.00000
G92 E0
G1 X126.094 Y115.314 F7800.000
G1 E2.00000 F2400.00000
G1 F1800
G1 X126.094 Y115.882 E2.05159
G1 X125.612 Y115.882 E2.09537
G1 X125.322 Y116.172 E2.13271
G1 X125.322 Y114.470 E2.28747
G1 X123.059 Y116.733 E2.57841
G1 X121.776 Y116.733 E2.69512
G1 X121.776 Y116.591 E2.70802
G1 X121.634 Y116.591 E2.72091
G1 X121.634 Y116.307 E2.74670
G1 X121.492 Y116.307 E2.75959
G1 X121.492 Y116.165 E2.77249
G1 X121.351 Y116.165 E2.78539
G1 X121.351 Y116.023 E2.79828
G1 X120.925 Y116.023 E2.83698
G1 X120.925 Y115.882 E2.84988
G1 X118.379 Y115.882 E3.08138
G1 X117.812 Y116.449 E3.15435
G1 X116.733 Y116.449 E3.25246
G1 X116.733 Y117.158 E3.31692
G1 X116.536 Y117.158 E3.33484
G1 X116.393 Y117.300 E3.35314
G1 X116.109 Y117.300 E3.37897
G1 X115.826 Y117.584 E3.41542
G1 X115.684 Y117.584 E3.42830
G1 X115.542 Y117.725 E3.44655
G1 X115.400 Y117.725 E3.45944
G1 X115.258 Y117.868 E3.47780
G1 X115.115 Y117.868 E3.49073
G1 X114.408 Y118.576 E3.58177
G1 X111.997 Y118.576 E3.80098
G1 X111.855 Y118.718 E3.81922
G1 X107.883 Y118.718 E4.18037
G1 X107.741 Y118.860 E4.19861
G1 X104.195 Y118.860 E4.52107
G1 X104.053 Y119.002 E4.53929
G1 X101.075 Y119.002 E4.81010
G1 X100.933 Y119.144 E4.82834
G1 X98.097 Y119.144 E5.08629
G1 X97.955 Y119.286 E5.10453
G1 X95.402 Y119.286 E5.33667
G1 X95.260 Y119.427 E5.35490
G1 X92.849 Y119.427 E5.57416
G1 X92.707 Y119.569 E5.59240
G1 X90.437 Y119.569 E5.79876
G1 X90.296 Y119.711 E5.81700
G1 X88.310 Y119.711 E5.99756
G1 X88.168 Y119.853 E6.01579
G1 X86.041 Y119.853 E6.20924
G1 X85.899 Y119.995 E6.22747
G1 X84.906 Y119.995 E6.31777
G1 X84.764 Y120.137 E6.33600
G1 X83.346 Y120.137 E6.46492
G1 X83.204 Y120.278 E6.48317
G1 X81.361 Y120.278 E6.65078
G1 X81.219 Y120.420 E6.66904
G1 X79.375 Y120.420 E6.83673
G1 X79.233 Y120.562 E6.85497
G1 X77.673 Y120.562 E6.99685
G1 X77.531 Y120.704 E7.01509
G1 X75.829 Y120.704 E7.16985
G1 X75.687 Y120.846 E7.18809
G1 X74.127 Y120.846 E7.32992
G1 X73.985 Y120.988 E7.34817
G1 X72.418 Y120.988 E7.49069
G1 X72.418 Y119.428 E7.63255
G1 X72.276 Y119.428 E7.64544
G1 X72.276 Y117.867 E7.78731
G1 X72.134 Y117.867 E7.80021
G1 X72.134 Y116.165 E7.95497
G1 X71.992 Y116.165 E7.96787
G1 X71.992 Y114.605 E8.10973
G1 X71.850 Y114.605 E8.12263
G1 X71.850 Y113.045 E8.26450
G1 X71.709 Y113.045 E8.27739
G1 X71.709 Y111.485 E8.41926
G1 X71.567 Y111.485 E8.43216
G1 X71.567 Y109.783 E8.58692
G1 X71.425 Y109.783 E8.59982
G1 X71.425 Y108.223 E8.74168
G1 X71.283 Y108.223 E8.75458
G1 X71.283 Y106.662 E8.89645
G1 X71.141 Y106.662 E8.90934
G1 X71.141 Y105.102 E9.05121
G1 X70.999 Y105.102 E9.06410
G1 X70.999 Y103.400 E9.21887
G1 X70.858 Y103.400 E9.23176
G1 X70.858 Y102.487 E9.31484
G1 X71.480 Y102.487 E9.37146
G1 X71.622 Y102.345 E9.38971
G1 X73.182 Y102.345 E9.53155
G1 X73.324 Y102.203 E9.54980
G1 X74.884 Y102.203 E9.69168
G1 X75.026 Y102.061 E9.70992
G1 X76.728 Y102.061 E9.86467
G1 X76.870 Y101.919 E9.88292
G1 X78.430 Y101.919 E10.02474
G1 X78.572 Y101.777 E10.04299
G1 X80.416 Y101.777 E10.21068
G1 X80.558 Y101.636 E10.22892
G1 X82.260 Y101.636 E10.38366
G1 X82.402 Y101.494 E10.40190
G1 X84.387 Y101.494 E10.58245
G1 X84.529 Y101.352 E10.60070
G1 X87.027 Y101.352 E10.82780
G1 X87.027 Y97.160 E11.20901
G1 X86.885 Y97.160 E11.22191
G1 X86.885 Y95.032 E11.41537
G1 X86.743 Y95.032 E11.42826
G1 X86.743 Y92.905 E11.62172
G1 X86.601 Y92.905 E11.63461
G1 X86.601 Y90.777 E11.82807
G1 X86.459 Y90.777 E11.84096
G1 X86.459 Y90.486 E11.86741
G1 X86.657 Y90.289 E11.89278
G1 X88.784 Y90.289 E12.08626
G1 X88.926 Y90.147 E12.10450
G1 X91.054 Y90.147 E12.29794
G1 X91.195 Y90.005 E12.31617
G1 X93.606 Y90.005 E12.53538
G1 X93.748 Y89.863 E12.55363
G1 X96.160 Y89.863 E12.77289
G1 X96.301 Y89.722 E12.79113
G1 X98.996 Y89.722 E13.03614
G1 X99.138 Y89.580 E13.05438
G1 X102.116 Y89.580 E13.32520
G1 X102.258 Y89.438 E13.34345
G1 X105.379 Y89.438 E13.62722
G1 X105.521 Y89.296 E13.64546
G1 X109.208 Y89.296 E13.98077
G1 X109.350 Y89.154 E13.99902
G1 X113.605 Y89.154 E14.38588
G1 X113.747 Y89.012 E14.40413
G1 X118.995 Y89.012 E14.88131
G1 X119.137 Y88.871 E14.89956
G1 X136.880 Y88.871 E16.51295
G1 X136.312 Y89.439 E16.58604
G1 X137.365 Y89.439 E16.68187
G1 X136.412 Y91.344 E16.87561
G1 X135.738 Y91.344 E16.93691
G1 X135.738 Y93.274 E17.11241
G1 X135.541 Y93.472 E17.13781
G1 X134.746 Y93.472 E17.21012
G1 X134.746 Y95.685 E17.41141
G1 X132.767 Y97.664 E17.66587
G1 X134.887 Y97.664 E17.85871
G1 X134.887 Y97.955 E17.88513
G1 X132.483 Y100.359 E18.19436
G1 X134.470 Y100.359 E18.37508
G1 X132.070 Y102.770 E18.68440
G1 X132.902 Y102.770 E18.76000
G1 X132.902 Y104.890 E18.95279
G1 X132.320 Y106.054 E19.07104
G1 X130.639 Y107.734 E19.28719
G1 X132.192 Y107.734 E19.42840
G1 X131.405 Y108.790 E19.54814
G1 X131.200 Y108.790 E19.56679
G1 X131.200 Y109.869 E19.66488
G1 X131.058 Y110.010 E19.68310
G1 X131.058 Y110.436 E19.72182
G1 X128.654 Y112.841 E20.03099
G1 X129.930 Y112.841 E20.14705
G1 X128.789 Y113.982 E20.29385
G1 X128.789 Y114.124 E20.30675
G1 X128.165 Y114.747 E20.38690
G1 X127.370 Y114.747 E20.45918
G1 X127.370 Y115.314 E20.51075
G1 X126.154 Y115.314 E20.62137
G1 X126.719 Y115.939 F7800.000
G1 F1800
G1 X126.719 Y116.368 E20.66039
G1 X126.580 Y116.507 E20.67816
G1 X125.871 Y116.507 E20.74265
G1 X125.446 Y116.932 E20.79736
G1 X124.697 Y116.932 E20.86545
G1 X124.697 Y115.979 E20.95213
G1 X123.318 Y117.358 E21.12943
G1 X121.151 Y117.358 E21.32648
G1 X121.151 Y117.216 E21.33939
G1 X121.009 Y117.216 E21.35228
G1 X121.009 Y116.932 E21.37807
G1 X120.867 Y116.932 E21.39097
G1 X120.867 Y116.790 E21.40386
G1 X120.726 Y116.790 E21.41676
G1 X120.726 Y116.648 E21.42966
G1 X120.300 Y116.648 E21.46835
G1 X120.300 Y116.506 E21.48125
G1 X118.638 Y116.506 E21.63240
G1 X118.070 Y117.074 E21.70536
G1 X117.358 Y117.074 E21.77019
G1 X117.358 Y117.499 E21.80888
G1 X117.219 Y117.499 E21.82143
G1 X116.936 Y117.783 E21.85789
G1 X116.794 Y117.783 E21.87078
G1 X116.652 Y117.925 E21.88906
G1 X116.368 Y117.925 E21.91488
G1 X116.085 Y118.209 E21.95133
G1 X115.943 Y118.208 E21.96422
G1 X115.801 Y118.350 E21.98246
G1 X115.659 Y118.350 E21.99536
G1 X115.517 Y118.493 E22.01367
G1 X115.375 Y118.493 E22.02660
G1 X114.666 Y119.201 E22.11768
G1 X112.256 Y119.201 E22.33691
G1 X112.114 Y119.343 E22.35515
G1 X108.142 Y119.343 E22.71629
G1 X108.000 Y119.485 E22.73453
G1 X104.454 Y119.485 E23.05697
G1 X104.312 Y119.627 E23.07520
G1 X101.334 Y119.627 E23.34602
G1 X101.192 Y119.769 E23.36426
G1 X98.355 Y119.769 E23.62221
G1 X98.214 Y119.911 E23.64044
G1 X95.661 Y119.911 E23.87258
G1 X95.519 Y120.052 E23.89082
G1 X93.108 Y120.052 E24.11008
G1 X92.966 Y120.194 E24.12831
G1 X90.696 Y120.194 E24.33467
G1 X90.555 Y120.336 E24.35291
G1 X88.569 Y120.336 E24.53347
G1 X88.427 Y120.478 E24.55170
G1 X86.300 Y120.478 E24.74515
G1 X86.158 Y120.620 E24.76339
G1 X85.165 Y120.620 E24.85368
G1 X85.023 Y120.762 E24.87191
G1 X83.605 Y120.762 E25.00085
G1 X83.463 Y120.903 E25.01910
G1 X81.620 Y120.903 E25.18673
G1 X81.477 Y121.045 E25.20498
G1 X79.633 Y121.045 E25.37266
G1 X79.492 Y121.187 E25.39090
G1 X77.931 Y121.187 E25.53277
G1 X77.790 Y121.329 E25.55101
G1 X76.088 Y121.329 E25.70577
G1 X75.946 Y121.471 E25.72401
G1 X74.386 Y121.471 E25.86585
G1 X74.244 Y121.613 E25.88410
G1 X72.683 Y121.613 E26.02599
G1 X72.542 Y121.754 E26.04422
G1 X71.935 Y121.754 E26.09941
G1 X71.935 Y121.613 E26.11230
G1 X71.793 Y121.613 E26.12519
G1 X71.793 Y120.052 E26.26706
G1 X71.651 Y120.052 E26.27996
G1 X71.651 Y118.492 E26.42182
G1 X71.509 Y118.492 E26.43472
G1 X71.509 Y116.790 E26.58948
G1 X71.367 Y116.790 E26.60238
G1 X71.367 Y115.230 E26.74425
G1 X71.226 Y115.230 E26.75714
G1 X71.226 Y113.670 E26.89901
G1 X71.084 Y113.670 E26.91191
G1 X71.084 Y112.110 E27.05377
G1 X70.942 Y112.110 E27.06667
G1 X70.942 Y110.408 E27.22143
G1 X70.800 Y110.408 E27.23433
G1 X70.800 Y108.848 E27.37620
G1 X70.658 Y108.848 E27.38909
G1 X70.658 Y107.287 E27.53096
G1 X70.516 Y107.287 E27.54385
G1 X70.516 Y105.727 E27.68572
G1 X70.375 Y105.727 E27.69861
G1 X70.375 Y104.025 E27.85338
G1 X70.233 Y104.025 E27.86628
G1 X70.233 Y102.465 E28.00814
G1 X70.091 Y102.465 E28.02104
G1 X70.091 Y101.862 E28.07589
G1 X71.222 Y101.862 E28.17871
G1 X71.364 Y101.720 E28.19695
G1 X72.924 Y101.720 E28.33880
G1 X73.065 Y101.578 E28.35705
G1 X74.626 Y101.578 E28.49891
G1 X74.768 Y101.436 E28.51716
G1 X76.469 Y101.436 E28.67191
G1 X76.611 Y101.294 E28.69016
G1 X78.171 Y101.294 E28.83200
G1 X78.313 Y101.153 E28.85024
G1 X80.157 Y101.153 E29.01792
G1 X80.299 Y101.011 E29.03616
G1 X82.001 Y101.011 E29.19090
G1 X82.143 Y100.869 E29.20915
G1 X84.128 Y100.869 E29.38969
G1 X84.270 Y100.727 E29.40794
G1 X86.402 Y100.727 E29.60175
G1 X86.402 Y97.784 E29.86932
G1 X86.260 Y97.784 E29.88222
G1 X86.260 Y95.657 E30.07567
G1 X86.118 Y95.657 E30.08857
G1 X86.118 Y93.529 E30.28202
G1 X85.976 Y93.529 E30.29492
G1 X85.976 Y91.402 E30.48837
G1 X85.834 Y91.402 E30.50127
G1 X85.834 Y89.806 E30.64640
G1 X86.256 Y89.806 E30.68474
G1 X86.398 Y89.664 E30.70298
G1 X88.526 Y89.664 E30.89644
G1 X88.667 Y89.522 E30.91468
G1 X90.795 Y89.522 E31.10813
G1 X90.937 Y89.380 E31.12637
G1 X93.348 Y89.380 E31.34559
G1 X93.490 Y89.238 E31.36384
G1 X95.901 Y89.238 E31.58309
G1 X96.043 Y89.097 E31.60133
G1 X98.737 Y89.097 E31.84634
G1 X98.879 Y88.955 E31.86459
G1 X101.857 Y88.955 E32.13541
G1 X102.000 Y88.813 E32.15366
G1 X105.120 Y88.813 E32.43741
G1 X105.262 Y88.671 E32.45565
G1 X108.950 Y88.671 E32.79097
G1 X109.091 Y88.529 E32.80921
G1 X113.346 Y88.529 E33.19609
G1 X113.488 Y88.387 E33.21434
G1 X118.736 Y88.387 E33.69151
G1 X118.878 Y88.246 E33.70976
G1 X138.389 Y88.246 E35.48386
G1 X137.821 Y88.814 E35.55689
G1 X138.207 Y88.813 E35.59204
G1 X138.207 Y89.728 E35.67515
G1 X137.766 Y90.035 E35.72403
G1 X136.799 Y91.969 E35.92070
G1 X136.363 Y91.969 E35.96030
G1 X136.363 Y93.533 E36.10251
G1 X135.800 Y94.097 E36.17498
G1 X135.370 Y94.097 E36.21401
G1 X135.370 Y95.944 E36.38201
G1 X134.275 Y97.039 E36.52283
G1 X135.512 Y97.039 E36.63530
G1 X135.512 Y98.214 E36.74208
G1 X133.991 Y99.734 E36.93765
G1 X135.087 Y99.734 E37.03724
G1 X135.087 Y100.626 E37.11828
G1 X133.574 Y102.145 E37.31327
G1 X134.803 Y102.145 E37.42504
G1 X134.803 Y102.547 E37.46159
G1 X134.649 Y102.652 E37.47856
G1 X134.600 Y102.749 E37.48838
G1 X134.523 Y102.749 E37.49539
G1 X134.381 Y102.890 E37.51363
G1 X133.668 Y102.890 E37.57846
G1 X133.668 Y103.600 E37.64295
G1 X133.527 Y103.600 E37.65584
G1 X133.527 Y105.038 E37.78662
G1 X132.834 Y106.424 E37.92751
G1 X132.148 Y107.110 E38.01570
G1 X133.243 Y107.110 E38.11527
G1 X133.243 Y107.371 E38.13906
G1 X132.466 Y108.412 E38.25717
G1 X132.844 Y108.541 E38.29347
G1 X132.108 Y109.277 E38.38809
G1 X132.108 Y109.415 E38.40065
G1 X131.825 Y109.415 E38.42644
G1 X131.825 Y110.128 E38.49126
G1 X131.683 Y110.269 E38.50948
G1 X131.683 Y110.695 E38.54819
G1 X130.162 Y112.216 E38.74373
G1 X131.115 Y112.216 E38.83039
G1 X131.115 Y112.539 E38.85979
G1 X129.413 Y114.241 E39.07866
G1 X129.413 Y114.383 E39.09156
G1 X128.704 Y115.092 E39.18273
G1 X128.704 Y115.372 E39.20821
G1 X127.995 Y115.372 E39.27270
G1 X127.995 Y115.939 E39.32428
G1 X126.779 Y115.939 E39.43489
G1 X127.343 Y116.564 F7800.000
G1 F1800
G1 X127.343 Y116.990 E39.47358
G1 X126.981 Y116.990 E39.50653
G1 X126.839 Y117.131 E39.52477
G1 X126.130 Y117.131 E39.58926
G1 X125.705 Y117.557 E39.64397
G1 X125.358 Y117.557 E39.67551
G1 X125.358 Y118.124 E39.72710
G1 X124.072 Y118.124 E39.84401
G1 X124.072 Y117.487 E39.90192
G1 X123.221 Y118.338 E40.01135
G1 X123.221 Y117.982 E40.04372
G1 X121.024 Y117.982 E40.24350
G1 X120.526 Y118.480 E40.30752
G1 X120.526 Y117.841 E40.36569
G1 X120.384 Y117.841 E40.37859
G1 X120.384 Y117.557 E40.40438
G1 X120.243 Y117.557 E40.41728
G1 X120.243 Y117.415 E40.43017
G1 X120.101 Y117.415 E40.44307
G1 X120.101 Y117.273 E40.45597
G1 X119.675 Y117.273 E40.49466
G1 X119.675 Y117.131 E40.50756
G1 X118.897 Y117.131 E40.57835
G1 X118.329 Y117.699 E40.65132
G1 X117.982 Y117.699 E40.68286
G1 X117.982 Y117.982 E40.70865
G1 X117.762 Y117.982 E40.72870
G1 X117.620 Y118.124 E40.74694
G1 X117.478 Y118.124 E40.75983
G1 X117.195 Y118.408 E40.79631
G1 X117.053 Y118.408 E40.80920
G1 X116.911 Y118.550 E40.82745
G1 X116.627 Y118.550 E40.85327
G1 X116.344 Y118.833 E40.88973
G1 X116.202 Y118.833 E40.90262
G1 X116.060 Y118.975 E40.92086
G1 X115.918 Y118.975 E40.93376
G1 X115.776 Y119.117 E40.95202
G1 X115.634 Y119.117 E40.96495
G1 X115.146 Y119.606 E41.02774
G1 X115.146 Y119.826 E41.04778
G1 X112.514 Y119.826 E41.28706
G1 X112.372 Y119.968 E41.30530
G1 X108.401 Y119.968 E41.66643
G1 X108.259 Y120.110 E41.68467
G1 X104.713 Y120.110 E42.00710
G1 X104.571 Y120.252 E42.02532
G1 X101.593 Y120.252 E42.29616
G1 X101.451 Y120.394 E42.31440
G1 X98.614 Y120.394 E42.57234
G1 X98.472 Y120.535 E42.59058
G1 X95.919 Y120.535 E42.82272
G1 X95.778 Y120.677 E42.84096
G1 X93.366 Y120.677 E43.06021
G1 X93.225 Y120.819 E43.07845
G1 X90.955 Y120.819 E43.28481
G1 X90.813 Y120.961 E43.30304
G1 X88.828 Y120.961 E43.48360
G1 X88.686 Y121.103 E43.50184
G1 X86.558 Y121.103 E43.69530
G1 X86.417 Y121.245 E43.71353
G1 X85.424 Y121.245 E43.80381
G1 X85.282 Y121.386 E43.82204
G1 X83.864 Y121.386 E43.95100
G1 X83.722 Y121.528 E43.96925
G1 X81.878 Y121.528 E44.13690
G1 X81.736 Y121.670 E44.15515
G1 X79.892 Y121.670 E44.32280
G1 X79.750 Y121.812 E44.34104
G1 X78.190 Y121.812 E44.48291
G1 X78.048 Y121.954 E44.50115
G1 X76.346 Y121.954 E44.65591
G1 X76.205 Y122.096 E44.67415
G1 X74.644 Y122.096 E44.81601
G1 X74.503 Y122.237 E44.83425
G1 X72.942 Y122.237 E44.97613
G1 X72.801 Y122.379 E44.99436
G1 X71.310 Y122.379 E45.12991
G1 X71.310 Y122.238 E45.14280
G1 X71.168 Y122.238 E45.15569
G1 X71.168 Y120.677 E45.29756
G1 X71.026 Y120.677 E45.31046
G1 X71.026 Y119.117 E45.45232
G1 X70.884 Y119.117 E45.46522
G1 X70.884 Y117.415 E45.61998
G1 X70.742 Y117.415 E45.63288
G1 X70.742 Y115.855 E45.77475
G1 X70.601 Y115.855 E45.78764
G1 X70.601 Y114.295 E45.92951
G1 X70.459 Y114.295 E45.94241
G1 X70.459 Y112.735 E46.08427
G1 X70.317 Y112.735 E46.09717
G1 X70.317 Y111.033 E46.25193
G1 X70.175 Y111.033 E46.26483
G1 X70.175 Y109.472 E46.40670
