; generated by Slic3r 1.3.0-dev on 2017-08-18 at 22:05:19

; external perimeters extrusion width = 0.40mm (1.14mm^3/s)
; perimeters extrusion width = 0.68mm (3.95mm^3/s)
; infill extrusion width = 1.20mm (9.43mm^3/s)
; solid infill extrusion width = 0.68mm (1.32mm^3/s)
; top infill extrusion width = 0.68mm (0.99mm^3/s)
; support material extrusion width = 0.40mm (2.27mm^3/s)

M107
M190 S66 ; set bed temperature and wait for it to be reached
M104 S215 ; set temperature
G28 ; home all axes
G1 Z5 F5000 ; lift nozzle

; Filament gcode

M109 S215 ; set temperature and wait for it to be reached
G21 ; set units to millimeters
G90 ; use absolute coordinates
M82 ; use absolute distances for extrusion
G92 E0
G1 Z0.350 F7800.000
G1 E-2.00000 F2400.00000
G92 E0
G1 X94.442 Y85.563 F7800.000
G1 E2.00000 F2400.00000
G1 F1800
G1 X95.390 Y84.800 E2.11064
G1 X97.401 Y83.698 E2.31918
G1 X99.529 Y83.345 E2.51529
G1 X99.780 Y83.345 E2.53809
G1 X100.606 Y83.396 E2.61334
G1 X101.274 Y83.480 E2.67452
G1 X101.953 Y83.601 E2.73726
G1 X109.421 Y85.338 E3.43446
G1 X110.394 Y85.611 E3.52633
G1 X110.892 Y85.772 E3.57395
G1 X113.198 Y87.104 E3.81609
G1 X114.068 Y87.880 E3.92213
G1 X116.483 Y90.132 E4.22239
G1 X117.865 Y91.963 E4.43094
G1 X118.495 Y93.860 E4.61269
G1 X118.782 Y95.910 E4.80091
G1 X118.844 Y96.814 E4.88330
G1 X118.844 Y97.147 E4.91365
G1 X118.783 Y98.091 E4.99964
G1 X118.298 Y100.011 E5.17973
G1 X108.897 Y122.412 E7.38869
G1 X107.448 Y124.557 E7.62406
G1 X106.706 Y125.201 E7.71346
G1 X104.694 Y126.302 E7.92200
G1 X102.917 Y126.643 E8.08656
G1 X100.754 Y126.403 E8.28437
G1 X99.232 Y125.972 E8.42824
G1 X96.352 Y124.283 E8.73187
G1 X95.917 Y123.832 E8.78879
G1 X95.250 Y123.081 E8.88017
G1 X94.046 Y121.129 E9.08871
G1 X93.677 Y119.831 E9.21141
G1 X91.674 Y108.481 E10.25943
G1 X91.582 Y107.661 E10.33442
G1 X91.165 Y99.343 E11.09172
G1 X91.162 Y98.370 E11.18017
G1 X91.189 Y97.837 E11.22873
G1 X91.762 Y90.771 E11.87338
G1 X92.080 Y89.210 E12.01816
G1 X92.164 Y88.960 E12.04216
G1 X92.601 Y87.941 E12.14303
G1 X92.800 Y87.568 E12.18142
G1 X94.404 Y85.609 E12.41165
G1 E10.41165 F2400.00000
G92 E0
G1 X102.941 Y114.178 F7800.000
G1 E2.00000 F2400.00000
G1 F1800
G1 X102.709 Y114.409 E2.02980
G1 X102.164 Y114.409 E2.07938
G1 X102.681 Y113.551 E2.17048
G1 X102.647 Y113.531 E2.17412
G1 X102.843 Y113.241 E2.20597
G1 X103.108 Y113.323 E2.23116
G1 X103.108 Y113.797 E2.27434
G1 X103.025 Y113.749 E2.28310
G1 X103.025 Y113.844 E2.29170
G1 X102.941 Y113.927 E2.30243
G1 X102.941 Y114.118 E2.31974
G1 E0.31974 F2400.00000
G92 E0
G1 X103.199 Y110.556 F7800.000
G1 E2.00000 F2400.00000
G1 F1800
G1 X102.787 Y110.017 E2.06166
G1 X103.883 Y108.400 E2.23928
G1 X102.385 Y108.400 E2.37549
G1 X102.385 Y108.066 E2.40584
G1 X102.302 Y108.066 E2.41343
G1 X102.302 Y107.899 E2.42861
G1 X102.218 Y107.899 E2.43624
G1 X102.218 Y107.732 E2.45142
G1 X101.885 Y107.732 E2.48171
G1 X101.885 Y107.566 E2.49684
G1 X101.634 Y107.566 E2.51963
G1 X101.634 Y107.482 E2.52730
G1 X101.506 Y107.482 E2.53891
G1 X101.528 Y106.898 E2.59202
G1 X101.300 Y106.898 E2.61275
G1 X101.300 Y106.731 E2.62793
G1 X101.212 Y106.731 E2.63600
G1 X101.211 Y106.647 E2.64361
G1 X100.716 Y106.647 E2.68863
G1 X100.716 Y106.484 E2.70352
G1 X100.387 Y106.483 E2.73342
G1 X100.388 Y106.196 E2.75950
G1 X100.554 Y106.065 E2.77873
G1 X100.549 Y104.980 E2.87733
G1 X102.007 Y102.975 E3.10277
G1 X101.476 Y102.975 E3.15103
G1 X102.728 Y101.723 E3.31203
G1 X101.393 Y101.723 E3.43341
G1 X102.478 Y100.639 E3.57291
G1 X99.976 Y100.639 E3.80041
G1 X101.979 Y98.636 E4.05798
G1 X99.631 Y98.636 E4.27149
G1 X99.631 Y98.026 E4.32695
G1 X100.517 Y96.874 E4.45910
G1 X99.965 Y96.555 E4.51710
G1 X99.965 Y96.009 E4.56673
G1 X101.960 Y93.795 E4.83771
G1 X100.309 Y93.795 E4.98782
G1 X101.702 Y92.404 E5.16678
G1 X102.023 Y92.404 E5.19601
G1 X102.023 Y92.488 E5.20360
G1 X102.274 Y92.488 E5.22637
G1 X102.274 Y92.571 E5.23393
G1 X102.607 Y92.571 E5.26428
G1 X102.607 Y92.655 E5.27189
G1 X102.941 Y92.655 E5.30224
G1 X102.941 Y92.738 E5.30983
G1 X103.192 Y92.738 E5.33261
G1 X103.192 Y92.822 E5.34021
G1 X103.859 Y92.822 E5.40089
G1 X103.859 Y92.905 E5.40847
G1 X104.193 Y92.905 E5.43885
G1 X104.193 Y92.989 E5.44644
G1 X104.443 Y92.989 E5.46921
G1 X104.443 Y93.072 E5.47680
G1 X104.777 Y93.072 E5.50715
G1 X104.777 Y93.156 E5.51474
G1 X105.111 Y93.156 E5.54510
G1 X105.111 Y93.239 E5.55272
G1 X105.361 Y93.239 E5.57549
G1 X105.361 Y93.323 E5.58304
G1 X105.695 Y93.323 E5.61340
G1 X105.695 Y93.406 E5.62099
G1 X106.029 Y93.406 E5.65134
G1 X106.029 Y93.488 E5.65882
G1 X106.947 Y93.489 E5.74229
G1 X106.947 Y93.662 E5.75804
G1 X107.198 Y93.661 E5.78082
G1 X107.198 Y93.905 E5.80294
G1 X107.281 Y93.905 E5.81052
G1 X107.281 Y94.157 E5.83347
G1 X107.391 Y94.157 E5.84349
G1 X107.394 Y94.324 E5.85867
G1 X107.615 Y94.324 E5.87871
G1 X107.615 Y94.845 E5.92609
G1 X108.217 Y94.698 E5.98242
G1 X108.363 Y94.981 E6.01139
G1 X108.711 Y96.487 E6.15191
G1 X109.366 Y96.032 E6.22444
G1 X109.366 Y96.494 E6.26645
G1 X109.757 Y96.494 E6.30204
G1 X108.624 Y98.051 E6.47711
G1 X107.701 Y98.051 E6.56110
G1 X107.698 Y99.294 E6.67415
G1 X107.514 Y99.591 E6.70591
G1 X105.732 Y101.373 E6.93506
G1 X106.825 Y101.596 E7.03651
G1 X106.803 Y102.221 E7.09337
G1 X106.697 Y102.327 E7.10706
G1 X106.697 Y102.495 E7.12232
G1 X106.613 Y102.579 E7.13306
G1 X106.613 Y102.828 E7.15569
G1 X106.530 Y102.911 E7.16643
G1 X106.530 Y103.078 E7.18160
G1 X106.363 Y103.245 E7.20305
G1 X106.363 Y103.495 E7.22583
G1 X106.279 Y103.579 E7.23657
G1 X106.279 Y103.750 E7.25217
G1 X106.195 Y103.836 E7.26309
G1 X106.195 Y104.080 E7.28532
G1 X106.113 Y104.163 E7.29596
G1 X106.113 Y104.330 E7.31117
G1 X106.029 Y104.414 E7.32191
G1 X106.029 Y104.663 E7.34462
G1 X105.946 Y104.747 E7.35535
G1 X105.946 Y104.914 E7.37054
G1 X105.779 Y105.081 E7.39201
G1 X105.779 Y105.247 E7.40715
G1 X105.695 Y105.331 E7.41787
G1 X105.695 Y105.582 E7.44068
G1 X105.612 Y105.665 E7.45141
G1 X105.612 Y105.915 E7.47418
G1 X105.528 Y105.999 E7.48491
G1 X105.528 Y106.166 E7.50010
G1 X105.445 Y106.249 E7.51084
G1 X105.445 Y106.517 E7.53516
G1 X105.424 Y106.539 E7.53794
G1 X105.399 Y106.789 E7.56080
G1 X105.222 Y107.057 E7.59001
G1 X105.111 Y107.168 E7.60423
G1 X105.111 Y107.413 E7.62652
G1 X105.021 Y107.501 E7.63799
G1 X105.023 Y107.756 E7.66114
G1 X104.944 Y107.835 E7.67130
G1 X104.944 Y108.002 E7.68646
G1 X104.861 Y108.085 E7.69719
G1 X104.861 Y108.336 E7.71997
G1 X104.777 Y108.419 E7.73070
G1 X104.777 Y108.586 E7.74588
G1 X104.610 Y108.753 E7.76736
G1 X104.610 Y108.920 E7.78252
G1 X104.527 Y109.003 E7.79326
G1 X104.527 Y109.367 E7.82629
G1 X104.466 Y109.732 E7.85996
G1 X104.286 Y109.912 E7.88310
G1 X104.285 Y109.968 E7.88819
G1 X104.163 Y110.048 E7.90145
G1 X104.142 Y110.473 E7.94014
G1 X104.026 Y110.589 E7.95507
G1 X104.026 Y110.756 E7.97025
G1 X103.943 Y110.839 E7.98098
G1 X103.943 Y111.090 E8.00375
G1 X103.859 Y111.173 E8.01448
G1 X103.859 Y111.879 E8.07869
G1 X102.940 Y110.912 E8.20005
G1 X103.163 Y110.605 E8.23456
G1 X102.419 Y110.565 F7800.000
G1 F1800
G1 X102.071 Y110.109 E8.28672
G1 X102.053 Y109.986 E8.29801
G1 X102.705 Y109.025 E8.40361
G1 X101.760 Y109.025 E8.48948
G1 X101.760 Y108.691 E8.51984
G1 X101.677 Y108.691 E8.52743
G1 X101.677 Y108.524 E8.54261
G1 X101.593 Y108.524 E8.55022
G1 X101.593 Y108.357 E8.56540
G1 X101.260 Y108.357 E8.59571
G1 X101.260 Y108.191 E8.61086
G1 X101.009 Y108.191 E8.63364
G1 X101.009 Y108.106 E8.64130
G1 X100.858 Y108.106 E8.65508
G1 X100.880 Y107.523 E8.70819
G1 X100.675 Y107.523 E8.72675
G1 X100.675 Y107.356 E8.74193
G1 X100.589 Y107.356 E8.74981
G1 X100.588 Y107.272 E8.75741
G1 X100.091 Y107.272 E8.80261
G1 X100.091 Y107.107 E8.81762
G1 X99.761 Y107.107 E8.84768
G1 X99.757 Y105.899 E8.95752
G1 X99.928 Y105.764 E8.97728
G1 X99.923 Y104.779 E9.06686
G1 X100.780 Y103.600 E9.19935
G1 X100.378 Y103.600 E9.23589
G1 X100.524 Y103.453 E9.25473
G1 X100.247 Y103.321 E9.28267
G1 X101.220 Y102.348 E9.40780
G1 X99.885 Y102.348 E9.52918
G1 X100.970 Y101.263 E9.66868
G1 X99.590 Y101.263 E9.79408
G1 X99.590 Y100.763 E9.83961
G1 X99.507 Y100.763 E9.84720
G1 X99.507 Y100.224 E9.89618
G1 X100.471 Y99.261 E10.02009
G1 X99.486 Y99.261 E10.10958
G1 X98.836 Y98.803 E10.18186
G1 X99.006 Y98.633 E10.20373
G1 X99.006 Y97.813 E10.27829
G1 X99.587 Y97.058 E10.36488
G1 X99.200 Y96.835 E10.40545
G1 X99.340 Y96.671 E10.42505
G1 X99.340 Y95.769 E10.50706
G1 X100.556 Y94.420 E10.67218
G1 X99.669 Y94.420 E10.75283
G1 X99.674 Y93.546 E10.83232
G1 X101.066 Y92.156 E11.01122
G1 X99.757 Y92.062 E11.13057
G1 X99.757 Y91.611 E11.17157
G1 X99.999 Y91.279 E11.20896
G1 X100.395 Y91.279 E11.24493
G1 X100.395 Y91.362 E11.25252
G1 X100.728 Y91.362 E11.28286
G1 X100.728 Y91.446 E11.29046
G1 X101.062 Y91.446 E11.32082
G1 X101.062 Y91.529 E11.32841
G1 X101.396 Y91.529 E11.35877
G1 X101.396 Y91.613 E11.36635
G1 X101.980 Y91.613 E11.41947
G1 X101.980 Y91.696 E11.42706
G1 X102.314 Y91.696 E11.45742
G1 X102.314 Y91.780 E11.46501
G1 X102.648 Y91.780 E11.49536
G1 X102.648 Y91.863 E11.50295
G1 X102.898 Y91.863 E11.52572
G1 X102.898 Y91.946 E11.53329
G1 X103.232 Y91.946 E11.56364
G1 X103.232 Y92.030 E11.57124
G1 X103.566 Y92.030 E11.60159
G1 X103.566 Y92.113 E11.60918
G1 X103.816 Y92.113 E11.63196
G1 X103.816 Y92.197 E11.63955
G1 X104.484 Y92.197 E11.70023
G1 X104.484 Y92.280 E11.70782
G1 X104.818 Y92.280 E11.73820
G1 X104.818 Y92.364 E11.74579
G1 X105.068 Y92.364 E11.76856
G1 X105.068 Y92.447 E11.77615
G1 X105.402 Y92.447 E11.80650
G1 X105.402 Y92.531 E11.81409
G1 X105.736 Y92.531 E11.84445
G1 X105.736 Y92.614 E11.85206
G1 X105.986 Y92.614 E11.87483
G1 X105.986 Y92.698 E11.88240
G1 X106.320 Y92.698 E11.91275
G1 X106.320 Y92.781 E11.92034
G1 X106.654 Y92.781 E11.95069
G1 X106.654 Y92.864 E11.95821
G1 X107.572 Y92.865 E12.04169
G1 X107.572 Y93.035 E12.05722
G1 X107.822 Y93.035 E12.07999
G1 X107.822 Y93.281 E12.10236
G1 X107.906 Y93.281 E12.10995
G1 X107.906 Y93.532 E12.13282
G1 X108.004 Y93.532 E12.14178
G1 X108.008 Y93.699 E12.15696
G1 X108.240 Y93.699 E12.17806
G1 X108.240 Y94.049 E12.20990
G1 X108.545 Y93.975 E12.23851
G1 X108.792 Y94.450 E12.28722
G1 X108.882 Y94.450 E12.29541
G1 X109.112 Y95.447 E12.38847
G1 X109.226 Y95.368 E12.40109
G1 X109.739 Y95.368 E12.44771
G1 X109.739 Y95.466 E12.45660
G1 X109.991 Y95.508 E12.47982
G1 X109.991 Y95.869 E12.51265
G1 X110.442 Y95.869 E12.55368
G1 X110.573 Y96.435 E12.60653
G1 X110.298 Y96.813 E12.64901
G1 X110.228 Y96.824 E12.65543
G1 X110.212 Y96.932 E12.66536
G1 X110.075 Y97.120 E12.68652
G1 X110.183 Y97.120 E12.69637
G1 X110.135 Y97.437 E12.72550
G1 X109.992 Y97.580 E12.74386
G1 X109.992 Y97.745 E12.75892
G1 X109.370 Y98.368 E12.83891
G1 X109.246 Y98.676 E12.86912
G1 X108.324 Y98.676 E12.95292
G1 X108.323 Y99.473 E13.02545
G1 X108.128 Y99.785 E13.05887
G1 X108.133 Y99.855 E13.06525
G1 X106.995 Y100.993 E13.21149
G1 X107.902 Y101.178 E13.29564
G1 X107.872 Y101.451 E13.32067
G1 X107.655 Y101.668 E13.34851
G1 X107.655 Y101.834 E13.36368
G1 X107.578 Y101.912 E13.37366
G1 X107.576 Y102.039 E13.38525
G1 X107.432 Y102.133 E13.40088
G1 X107.419 Y102.488 E13.43325
G1 X107.322 Y102.586 E13.44579
G1 X107.322 Y102.753 E13.46101
G1 X107.238 Y102.837 E13.47175
G1 X107.238 Y103.086 E13.49444
G1 X107.155 Y103.170 E13.50517
G1 X107.155 Y103.337 E13.52035
G1 X106.988 Y103.504 E13.54180
G1 X106.988 Y103.754 E13.56457
G1 X106.904 Y103.838 E13.57531
G1 X106.904 Y104.007 E13.59075
G1 X106.820 Y104.092 E13.60162
G1 X106.820 Y104.339 E13.62403
G1 X106.737 Y104.422 E13.63470
G1 X106.737 Y104.589 E13.64990
G1 X106.654 Y104.672 E13.66063
G1 X106.654 Y104.922 E13.68337
G1 X106.571 Y105.006 E13.69409
G1 X106.571 Y105.173 E13.70928
G1 X106.404 Y105.340 E13.73075
G1 X106.404 Y105.506 E13.74591
G1 X106.320 Y105.590 E13.75663
G1 X106.320 Y105.840 E13.77942
G1 X106.237 Y105.924 E13.79016
G1 X106.237 Y106.174 E13.81292
G1 X106.153 Y106.258 E13.82366
G1 X106.153 Y106.425 E13.83884
G1 X106.070 Y106.508 E13.84957
G1 X106.070 Y106.769 E13.87329
G1 X106.024 Y106.816 E13.87925
G1 X106.006 Y107.005 E13.89649
G1 X105.819 Y107.286 E13.92716
G1 X105.819 Y107.343 E13.93232
G1 X105.736 Y107.426 E13.94305
G1 X105.736 Y107.674 E13.96553
G1 X105.648 Y107.760 E13.97677
G1 X105.650 Y108.013 E13.99975
G1 X105.569 Y108.094 E14.01013
G1 X105.569 Y108.261 E14.02530
G1 X105.486 Y108.344 E14.03603
G1 X105.486 Y108.595 E14.05880
G1 X105.402 Y108.678 E14.06953
G1 X105.402 Y108.845 E14.08471
G1 X105.235 Y109.012 E14.10618
G1 X105.235 Y109.179 E14.12135
G1 X105.152 Y109.262 E14.13208
G1 X105.152 Y109.513 E14.15485
G1 X105.133 Y109.531 E14.15727
G1 X105.049 Y110.032 E14.20343
G1 X104.907 Y110.175 E14.22173
G1 X104.905 Y110.308 E14.23388
G1 X104.772 Y110.396 E14.24842
G1 X104.754 Y110.745 E14.28016
G1 X104.651 Y110.848 E14.29345
G1 X104.651 Y111.015 E14.30862
G1 X104.568 Y111.098 E14.31936
G1 X104.568 Y111.349 E14.34212
G1 X104.484 Y111.432 E14.35286
G1 X104.484 Y111.708 E14.37791
G1 X104.317 Y111.958 E14.40527
G1 X104.317 Y112.016 E14.41057
G1 X104.234 Y112.100 E14.42130
G1 X104.234 Y112.267 E14.43648
G1 X104.186 Y112.315 E14.44264
G1 X104.145 Y112.773 E14.48450
G1 X103.983 Y112.934 E14.50524
G1 X103.983 Y113.349 E14.54293
G1 X103.733 Y113.674 E14.58021
G1 X103.733 Y113.852 E14.59647
G1 X103.650 Y113.936 E14.60720
G1 X103.650 Y114.103 E14.62238
G1 X103.566 Y114.186 E14.63311
G1 X103.566 Y114.437 E14.65588
G1 X103.399 Y114.604 E14.67734
G1 X103.399 Y114.770 E14.69252
G1 X103.316 Y114.854 E14.70325
G1 X103.316 Y115.021 E14.71843
G1 X103.232 Y115.104 E14.72916
G1 X103.232 Y115.519 E14.76686
G1 X102.982 Y115.843 E14.80414
G1 X102.982 Y116.022 E14.82040
G1 X102.898 Y116.106 E14.83113
G1 X102.898 Y116.273 E14.84631
G1 X102.815 Y116.356 E14.85704
G1 X102.815 Y116.632 E14.88210
G1 X102.712 Y116.786 E14.89901
G1 X101.386 Y116.786 E15.01952
G1 X102.722 Y115.451 E15.19122
G1 X101.975 Y115.451 E15.25911
G1 X102.247 Y115.034 E15.30436
G1 X101.593 Y115.034 E15.36380
G1 X101.593 Y114.146 E15.44457
G1 X101.817 Y113.774 E15.48403
G1 X101.753 Y113.737 E15.49084
G1 X102.314 Y112.909 E15.58176
G1 X101.614 Y112.804 E15.64604
G1 X101.994 Y112.424 E15.69482
G1 X101.998 Y112.271 E15.70875
G1 X103.005 Y111.888 E15.80672
G1 X102.129 Y110.965 E15.92244
G1 X102.384 Y110.614 E15.96192
G1 X101.906 Y111.638 F7800.000
G1 F1800
G1 X101.553 Y111.266 E16.00854
G1 X101.553 Y110.694 E16.06051
G1 X101.640 Y110.574 E16.07404
G1 X101.477 Y110.360 E16.09851
G1 X101.399 Y109.837 E16.14658
G1 X101.526 Y109.650 E16.16715
G1 X101.135 Y109.650 E16.20270
G1 X101.135 Y109.316 E16.23306
G1 X101.052 Y109.316 E16.24065
G1 X101.052 Y109.149 E16.25582
G1 X100.968 Y109.149 E16.26342
G1 X100.968 Y108.982 E16.27860
G1 X100.635 Y108.982 E16.30894
G1 X100.635 Y108.815 E16.32410
G1 X100.384 Y108.815 E16.34687
G1 X100.384 Y108.731 E16.35452
G1 X100.209 Y108.731 E16.37047
G1 X100.231 Y108.148 E16.42358
G1 X100.050 Y108.148 E16.43998
G1 X100.050 Y107.981 E16.45515
G1 X99.966 Y107.981 E16.46285
G1 X99.966 Y107.897 E16.47044
G1 X99.466 Y107.897 E16.51583
G1 X99.466 Y107.731 E16.53094
G1 X99.134 Y107.730 E16.56116
G1 X99.134 Y107.647 E16.56875
G1 X98.868 Y107.647 E16.59298
G1 X98.826 Y107.397 E16.61606
G1 X98.715 Y107.397 E16.62616
G1 X98.715 Y107.057 E16.65708
G1 X98.799 Y106.973 E16.66785
G1 X98.799 Y106.260 E16.73260
G1 X99.132 Y106.260 E16.76295
G1 X99.132 Y105.596 E16.82334
G1 X99.301 Y105.463 E16.84292
G1 X99.297 Y104.577 E16.92347
G1 X99.553 Y104.225 E16.96302
G1 X98.876 Y104.225 E17.02452
G1 X99.459 Y103.639 E17.09969
G1 X99.303 Y103.565 E17.11541
G1 X99.551 Y103.224 E17.15373
G1 X99.460 Y103.224 E17.16193
G1 X99.711 Y102.973 E17.19415
G1 X99.038 Y102.973 E17.25535
G1 X99.001 Y102.723 E17.27837
G1 X98.966 Y102.723 E17.28158
G1 X98.966 Y102.384 E17.31241
G1 X99.461 Y101.888 E17.37610
G1 X98.966 Y101.888 E17.42114
G1 X98.966 Y101.388 E17.46667
G1 X98.882 Y101.388 E17.47426
G1 X98.882 Y101.054 E17.50462
G1 X98.799 Y101.054 E17.51221
G1 X98.799 Y100.886 E17.52749
G1 X98.669 Y100.886 E17.53925
G1 X98.465 Y100.777 E17.56033
G1 X98.465 Y100.383 E17.59617
G1 X98.962 Y99.885 E17.66010
G1 X98.218 Y99.885 E17.72775
G1 X98.642 Y99.431 E17.78430
G1 X98.214 Y99.130 E17.83187
G1 X98.214 Y98.541 E17.88539
