; generated by Slic3r 1.3.0-dev on 2017-08-18 at 22:06:11

; external perimeters extrusion width = 0.40mm (1.14mm^3/s)
; perimeters extrusion width = 0.68mm (3.95mm^3/s)
; infill extrusion width = 1.20mm (9.43mm^3/s)
; solid infill extrusion width = 0.68mm (1.32mm^3/s)
; top infill extrusion width = 0.68mm (0.99mm^3/s)
; support material extrusion width = 0.40mm (2.27mm^3/s)

M107
M190 S66 ; set bed temperature and wait for it to be reached
M104 S215 ; set temperature
G28 ; home all axes
G1 Z5 F5000 ; lift nozzle

; Filament gcode

M109 S215 ; set temperature and wait for it to be reached
G21 ; set units to millimeters
G90 ; use absolute coordinates
M82 ; use absolute distances for extrusion
G92 E0
G1 Z0.350 F7800.000
G1 E-2.00000 F2400.00000
G92 E0
G1 X94.988 Y91.860 F7800.000
G1 E2.00000 F2400.00000
G1 F1800
G1 X95.158 Y91.691 E2.02176
G1 X95.879 Y91.066 E2.10853
G1 X101.883 Y86.585 E2.78974
G1 X103.930 Y85.552 E2.99828
G1 X105.846 Y85.269 E3.17434
G1 X106.268 Y85.269 E3.21278
G1 X109.231 Y85.968 E3.48959
G1 X110.112 Y86.466 E3.58161
G1 X110.366 Y86.635 E3.60933
G1 X111.460 Y87.548 E3.73887
G1 X112.288 Y88.557 E3.85760
G1 X112.626 Y89.065 E3.91304
G1 X113.039 Y89.777 E3.98790
G1 X115.699 Y95.265 E4.54248
G1 X116.055 Y96.113 E4.62612
G1 X116.250 Y96.670 E4.67975
G1 X117.011 Y99.207 E4.92057
G1 X117.161 Y99.811 E4.97721
G1 X117.331 Y100.657 E5.05562
G1 X117.459 Y101.956 E5.17433
G1 X117.445 Y103.320 E5.29833
G1 X117.107 Y108.477 E5.76834
G1 X117.054 Y108.981 E5.81437
G1 X115.857 Y116.679 E6.52278
G1 X115.116 Y118.849 E6.73132
G1 X114.006 Y120.329 E6.89949
G1 X113.743 Y120.593 E6.93337
G1 X111.154 Y122.193 E7.21013
G1 X110.039 Y122.563 E7.31694
G1 X105.219 Y124.085 E7.77653
G1 X103.986 Y124.449 E7.89348
G1 X103.647 Y124.533 E7.92518
G1 X102.041 Y124.731 E8.07238
G1 X101.787 Y124.731 E8.09545
G1 X98.824 Y124.032 E8.37226
G1 X98.486 Y123.862 E8.40665
G1 X96.149 Y121.912 E8.68346
G1 X95.514 Y121.020 E8.78301
G1 X94.956 Y120.001 E8.88865
G1 X93.181 Y115.942 E9.29148
G1 X92.625 Y113.324 E9.53485
G1 X92.541 Y98.151 E10.91451
G1 X92.848 Y96.156 E11.09806
G1 X93.356 Y94.549 E11.25125
G1 X94.957 Y91.911 E11.53188
G1 E9.53188 F2400.00000
G92 E0
G1 X104.858 Y113.702 F7800.000
G1 E2.00000 F2400.00000
G1 F1800
G1 X105.450 Y113.702 E2.05384
G1 X104.845 Y114.308 E2.13170
G1 X103.809 Y114.308 E2.22583
G1 X103.809 Y114.075 E2.24703
G1 X103.576 Y114.308 E2.27701
G1 X102.859 Y114.308 E2.34226
G1 X104.056 Y113.111 E2.49623
G1 X105.450 Y113.111 E2.62297
G1 X104.900 Y113.660 E2.69363
G1 E0.69363 F2400.00000
G92 E0
G1 X103.698 Y111.311 F7800.000
G1 E2.00000 F2400.00000
G1 F1800
G1 X105.129 Y111.320 E2.13010
G1 X103.749 Y112.701 E2.30763
G1 X101.865 Y112.701 E2.47897
G1 X101.865 Y110.503 E2.67888
G1 X101.780 Y110.503 E2.68657
G1 X101.780 Y110.418 E2.69425
G1 X101.696 Y110.418 E2.70194
G1 X101.696 Y110.144 E2.72688
G1 X102.626 Y109.214 E2.84649
G1 X102.626 Y109.045 E2.86186
G1 X103.464 Y108.206 E2.96970
G1 X103.718 Y108.206 E2.99276
G1 X104.394 Y107.530 E3.07975
G1 X104.479 Y107.530 E3.08744
G1 X104.563 Y107.445 E3.09831
G1 X104.817 Y107.445 E3.12137
G1 X106.262 Y106.001 E3.30713
G1 X106.262 Y103.485 E3.53591
G1 X106.008 Y103.485 E3.55898
G1 X106.008 Y103.316 E3.57435
G1 X105.923 Y103.316 E3.58204
G1 X105.923 Y103.231 E3.58973
G1 X105.585 Y103.231 E3.62049
G1 X105.585 Y103.147 E3.62818
G1 X105.501 Y103.147 E3.63586
G1 X105.501 Y102.893 E3.65892
G1 X105.416 Y102.893 E3.66662
G1 X105.416 Y102.808 E3.67431
G1 X105.331 Y102.808 E3.68200
G1 X105.331 Y102.450 E3.71462
G1 X106.326 Y101.455 E3.84246
G1 X104.634 Y101.455 E3.99624
G1 X106.170 Y99.920 E4.19365
G1 X106.718 Y99.920 E4.24353
G1 X105.873 Y100.765 E4.35222
G1 X108.220 Y100.765 E4.56564
G1 X108.220 Y100.850 E4.57333
G1 X108.389 Y100.850 E4.58870
G1 X108.389 Y101.209 E4.62132
G1 X106.718 Y102.879 E4.83617
G1 X107.733 Y102.879 E4.92842
G1 X106.887 Y103.724 E5.03710
G1 X107.987 Y103.725 E5.13709
G1 X106.802 Y104.909 E5.28947
G1 X108.896 Y104.909 E5.47992
G1 X108.896 Y105.606 E5.54327
G1 X108.812 Y105.690 E5.55414
G1 X108.812 Y106.029 E5.58492
G1 X106.960 Y107.882 E5.82315
G1 X106.105 Y107.882 E5.90084
G1 X106.106 Y108.904 E5.99377
G1 X103.740 Y111.269 E6.29794
G1 E4.29794 F2400.00000
G92 E0
G1 X105.450 Y99.243 F7800.000
G1 E2.00000 F2400.00000
G1 F1800
G1 X106.465 Y99.243 E2.09230
G1 X105.521 Y100.187 E2.21366
G1 X103.556 Y100.187 E2.39233
G1 X103.556 Y100.103 E2.40002
G1 X103.471 Y100.103 E2.40771
G1 X103.471 Y99.933 E2.42309
G1 X103.133 Y99.933 E2.45384
G1 X103.133 Y99.764 E2.46922
G1 X103.048 Y99.764 E2.47691
G1 X103.048 Y99.680 E2.48459
G1 X102.879 Y99.680 E2.49997
G1 X102.879 Y99.511 E2.51535
G1 X102.541 Y99.511 E2.54610
G1 X102.541 Y99.342 E2.56148
G1 X102.182 Y99.342 E2.59411
G1 X104.141 Y97.382 E2.84605
G1 X105.111 Y97.383 E2.93423
G1 X104.431 Y98.062 E3.02165
G1 X106.632 Y98.061 E3.22181
G1 X105.492 Y99.201 E3.36846
G1 E1.36846 F2400.00000
G92 E0
G1 X102.893 Y97.735 F7800.000
G1 E2.00000 F2400.00000
G1 F1800
G1 X101.675 Y97.735 E2.11073
G1 X102.280 Y97.130 E2.18859
G1 X102.450 Y97.130 E2.20396
G1 X102.893 Y96.686 E2.26097
G1 X102.893 Y97.675 E2.35087
G1 X103.518 Y97.122 F7800.000
G1 F1800
G1 X105.066 Y95.575 E2.54992
G1 X105.911 Y95.575 E2.62681
G1 X105.996 Y95.490 E2.63768
G1 X106.790 Y95.490 E2.70987
G1 X105.522 Y96.758 E2.87291
G1 X106.620 Y96.758 E2.97279
G1 X105.941 Y97.436 E3.06005
G1 X107.407 Y97.435 E3.19334
G1 X107.407 Y97.519 E3.20098
G1 X107.492 Y97.519 E3.20867
G1 X107.492 Y97.688 E3.22404
G1 X107.576 Y97.688 E3.23173
G1 X107.576 Y98.001 E3.26012
G1 X106.958 Y98.619 E3.33959
G1 X107.973 Y98.619 E3.43188
G1 X107.297 Y99.295 E3.51890
G1 X108.227 Y99.295 E3.60350
G1 X107.381 Y100.141 E3.71222
G1 X108.845 Y100.141 E3.84527
G1 X108.845 Y100.225 E3.85296
G1 X109.014 Y100.225 E3.86834
G1 X109.014 Y100.394 E3.88372
G1 X109.098 Y100.394 E3.89141
G1 X109.098 Y100.563 E3.90678
G1 X109.183 Y100.563 E3.91447
G1 X109.183 Y100.817 E3.93754
G1 X109.268 Y100.817 E3.94523
G1 X109.268 Y101.214 E3.98132
G1 X108.227 Y102.254 E4.11513
G1 X109.242 Y102.254 E4.20740
G1 X108.396 Y103.100 E4.31611
G1 X109.496 Y103.100 E4.41608
G1 X108.311 Y104.284 E4.56840
G1 X109.606 Y104.284 E4.68614
G1 X109.606 Y104.681 E4.72222
G1 X109.521 Y104.765 E4.73309
G1 X109.521 Y105.865 E4.83304
G1 X109.437 Y105.949 E4.84391
G1 X109.437 Y106.287 E4.87468
G1 X108.059 Y107.666 E5.05192
G1 X108.311 Y107.666 E5.07488
G1 X108.058 Y107.920 E5.10751
G1 X108.227 Y107.920 E5.12292
G1 X107.640 Y108.507 E5.19839
G1 X106.730 Y108.507 E5.28112
G1 X106.731 Y109.162 E5.34075
G1 X105.198 Y110.696 E5.53790
G1 X106.627 Y110.704 E5.66789
G1 X105.439 Y111.894 E5.82079
G1 X106.029 Y111.894 E5.87441
G1 X105.437 Y112.486 E5.95053
G1 X106.959 Y112.486 E6.08893
G1 X106.367 Y113.078 E6.16505
G1 X107.830 Y113.078 E6.29812
G1 X107.830 Y113.162 E6.30581
G1 X108.143 Y113.162 E6.33422
G1 X106.820 Y114.484 E6.50423
G1 X106.820 Y114.400 E6.51192
G1 X106.313 Y114.907 E6.57716
G1 X106.313 Y114.569 E6.60791
G1 X105.045 Y115.837 E6.77101
G1 X105.045 Y114.992 E6.84790
G1 X103.582 Y116.455 E7.03607
G1 X103.497 Y116.455 E7.04376
G1 X103.185 Y116.767 E7.08393
G1 X103.185 Y115.583 E7.19157
G1 X102.398 Y116.370 E7.29276
G1 X101.773 Y116.370 E7.34957
G1 X103.210 Y114.933 E7.53442
G1 X101.747 Y114.933 E7.66747
G1 X101.747 Y114.536 E7.70357
G1 X102.618 Y113.664 E7.81562
G1 X102.111 Y113.664 E7.86175
G1 X102.449 Y113.326 E7.90524
G1 X100.986 Y113.326 E8.03830
G1 X100.986 Y112.845 E8.08209
G1 X101.240 Y112.591 E8.11470
G1 X101.240 Y111.128 E8.24775
G1 X101.155 Y111.128 E8.25544
G1 X101.155 Y111.043 E8.26313
G1 X101.071 Y111.043 E8.27082
G1 X101.071 Y110.620 E8.30926
G1 X100.986 Y110.620 E8.31695
G1 X100.986 Y110.282 E8.34771
G1 X100.589 Y110.282 E8.38380
G1 X101.091 Y109.780 E8.44840
G1 X101.176 Y109.780 E8.45609
G1 X102.001 Y108.955 E8.56215
G1 X102.001 Y108.701 E8.58521
G1 X102.360 Y108.342 E8.63138
G1 X102.444 Y108.342 E8.63907
G1 X103.205 Y107.581 E8.73693
G1 X103.459 Y107.581 E8.76000
G1 X104.135 Y106.905 E8.84698
G1 X104.220 Y106.905 E8.85467
G1 X104.305 Y106.820 E8.86555
G1 X104.558 Y106.820 E8.88861
G1 X105.637 Y105.742 E9.02729
G1 X105.637 Y104.110 E9.17572
G1 X105.383 Y104.110 E9.19879
G1 X105.383 Y103.941 E9.21416
G1 X105.298 Y103.941 E9.22185
G1 X105.298 Y103.856 E9.22954
G1 X104.960 Y103.856 E9.26030
G1 X104.960 Y103.771 E9.26798
G1 X104.876 Y103.771 E9.27567
G1 X104.876 Y103.518 E9.29873
G1 X104.791 Y103.518 E9.30643
G1 X104.791 Y103.433 E9.31412
G1 X104.707 Y103.433 E9.32180
G1 X104.707 Y103.264 E9.33718
G1 X104.537 Y103.264 E9.35256
G1 X104.537 Y103.095 E9.36794
G1 X104.199 Y103.095 E9.39869
G1 X104.199 Y103.010 E9.40638
G1 X103.887 Y103.010 E9.43479
G1 X104.817 Y102.080 E9.55439
G1 X103.126 Y102.080 E9.70817
G1 X104.394 Y100.812 E9.87127
G1 X102.931 Y100.812 E10.00432
G1 X102.931 Y100.727 E10.01201
G1 X102.846 Y100.727 E10.01970
G1 X102.846 Y100.558 E10.03508
G1 X102.508 Y100.558 E10.06583
G1 X102.508 Y100.389 E10.08121
G1 X102.424 Y100.389 E10.08890
G1 X102.424 Y100.305 E10.09659
G1 X102.254 Y100.305 E10.11196
G1 X102.254 Y100.136 E10.12734
G1 X101.916 Y100.136 E10.15810
G1 X101.916 Y99.966 E10.17347
G1 X101.578 Y99.966 E10.20423
G1 X101.578 Y99.882 E10.21192
G1 X101.324 Y99.882 E10.23498
G1 X101.324 Y99.797 E10.24267
G1 X101.240 Y99.797 E10.25036
G1 X101.240 Y99.400 E10.28646
G1 X102.027 Y98.614 E10.38763
G1 X101.773 Y98.614 E10.41070
G1 X102.027 Y98.360 E10.44332
G1 X100.648 Y98.360 E10.56868
G1 X100.648 Y97.878 E10.61246
G1 X102.022 Y96.505 E10.78912
G1 X102.191 Y96.505 E10.80449
G1 X102.529 Y96.166 E10.84798
G1 X102.952 Y96.166 E10.88643
G1 X103.205 Y95.913 E10.91905
G1 X103.518 Y95.913 E10.94745
G1 X103.518 Y97.062 E11.05199
G1 X104.143 Y95.614 F7800.000
G1 F1800
G1 X104.807 Y94.950 E11.13739
G1 X105.652 Y94.950 E11.21427
G1 X105.737 Y94.865 E11.22515
G1 X105.991 Y94.865 E11.24821
G1 X106.280 Y94.576 E11.28545
G1 X106.280 Y93.320 E11.39966
G1 X106.196 Y93.320 E11.40735
G1 X106.196 Y92.920 E11.44365
G1 X106.595 Y92.920 E11.47995
G1 X106.595 Y93.005 E11.48764
G1 X106.679 Y93.005 E11.49533
G1 X106.679 Y93.089 E11.50302
G1 X106.764 Y93.089 E11.51070
G1 X106.764 Y93.259 E11.52608
G1 X106.848 Y93.259 E11.53377
G1 X106.848 Y93.681 E11.57221
G1 X106.933 Y93.681 E11.57990
G1 X106.933 Y93.935 E11.60297
G1 X107.018 Y93.935 E11.61066
G1 X107.018 Y94.189 E11.63372
G1 X107.102 Y94.189 E11.64141
G1 X107.102 Y94.865 E11.70292
G1 X107.187 Y94.865 E11.71061
G1 X107.187 Y95.119 E11.73367
G1 X107.271 Y95.119 E11.74136
G1 X107.271 Y95.457 E11.77212
G1 X107.356 Y95.457 E11.77981
G1 X107.356 Y95.808 E11.81168
G1 X107.030 Y96.133 E11.85357
G1 X107.609 Y96.133 E11.90625
G1 X107.609 Y96.303 E11.92163
G1 X107.694 Y96.303 E11.92932
G1 X107.694 Y96.568 E11.95349
G1 X107.452 Y96.810 E11.98464
G1 X108.032 Y96.810 E12.03743
G1 X108.032 Y96.894 E12.04510
G1 X108.117 Y96.894 E12.05279
G1 X108.117 Y97.064 E12.06817
G1 X108.201 Y97.064 E12.07585
G1 X108.201 Y97.148 E12.08354
G1 X108.286 Y97.148 E12.09123
G1 X108.286 Y97.233 E12.09892
G1 X108.370 Y97.233 E12.10661
G1 X108.370 Y97.402 E12.12199
G1 X108.540 Y97.402 E12.13736
G1 X108.540 Y97.486 E12.14505
G1 X108.624 Y97.486 E12.15274
G1 X108.624 Y97.837 E12.18461
G1 X108.467 Y97.994 E12.20478
G1 X109.047 Y97.994 E12.25749
G1 X109.047 Y98.078 E12.26518
G1 X109.131 Y98.078 E12.27287
G1 X109.131 Y98.344 E12.29706
G1 X108.805 Y98.670 E12.33898
G1 X109.385 Y98.670 E12.39169
G1 X109.385 Y98.755 E12.39938
G1 X109.651 Y98.755 E12.42357
G1 X108.890 Y99.516 E12.52143
G1 X109.470 Y99.516 E12.57413
G1 X109.470 Y99.600 E12.58182
G1 X109.639 Y99.600 E12.59719
G1 X109.639 Y99.769 E12.61257
G1 X109.723 Y99.769 E12.62026
G1 X109.723 Y99.938 E12.63564
G1 X109.808 Y99.938 E12.64333
G1 X109.808 Y100.192 E12.66639
G1 X109.892 Y100.192 E12.67408
G1 X109.892 Y100.446 E12.69715
G1 X109.977 Y100.446 E12.70483
G1 X109.977 Y100.699 E12.72790
G1 X110.062 Y100.699 E12.73559
G1 X110.062 Y100.953 E12.75866
G1 X110.146 Y100.953 E12.76635
G1 X110.146 Y101.219 E12.79053
G1 X109.736 Y101.630 E12.84332
G1 X110.315 Y101.630 E12.89602
G1 X110.315 Y102.065 E12.93558
G1 X109.905 Y102.475 E12.98836
G1 X110.484 Y102.475 E13.04106
G1 X110.484 Y102.741 E13.06525
G1 X110.400 Y102.826 E13.07613
G1 X110.400 Y103.079 E13.09919
G1 X109.820 Y103.659 E13.17375
G1 X110.315 Y103.659 E13.21878
G1 X110.315 Y104.009 E13.25065
G1 X110.231 Y104.094 E13.26153
G1 X110.231 Y104.940 E13.33841
G1 X110.146 Y105.024 E13.34928
G1 X110.146 Y106.123 E13.44923
G1 X110.062 Y106.208 E13.46011
G1 X110.062 Y106.546 E13.49087
G1 X109.567 Y107.041 E13.55449
G1 X109.820 Y107.041 E13.57753
G1 X109.566 Y107.295 E13.61015
G1 X109.907 Y107.295 E13.64109
G1 X109.570 Y107.633 E13.68446
G1 X109.820 Y107.633 E13.70716
G1 X109.567 Y107.886 E13.73974
G1 X110.062 Y107.887 E13.78475
G1 X110.062 Y108.237 E13.81664
G1 X108.901 Y109.397 E13.96584
G1 X108.901 Y108.668 E14.03221
G1 X108.563 Y108.988 E14.07459
G1 X108.563 Y108.467 E14.12193
G1 X107.899 Y109.131 E14.20733
G1 X107.356 Y109.131 E14.25675
G1 X107.356 Y109.421 E14.28309
G1 X106.697 Y110.080 E14.36777
G1 X107.271 Y110.083 E14.41997
G1 X107.271 Y110.943 E14.49820
G1 X106.946 Y111.269 E14.54003
G1 X107.537 Y111.269 E14.59377
G1 X106.945 Y111.861 E14.66989
G1 X107.779 Y111.861 E14.74566
G1 X107.779 Y111.945 E14.75335
G1 X108.117 Y111.945 E14.78410
G1 X108.117 Y112.211 E14.80829
G1 X107.875 Y112.453 E14.83933
G1 X108.455 Y112.453 E14.89203
G1 X108.455 Y112.537 E14.89972
G1 X108.540 Y112.537 E14.90741
G1 X108.540 Y112.875 E14.93816
G1 X108.624 Y112.875 E14.94585
G1 X108.624 Y113.564 E15.00849
G1 X108.214 Y113.975 E15.06126
G1 X108.806 Y113.975 E15.11508
G1 X108.298 Y114.482 E15.18033
G1 X108.890 Y114.482 E15.23415
G1 X108.383 Y114.989 E15.29939
G1 X108.636 Y114.989 E15.32247
G1 X107.730 Y115.896 E15.43904
G1 X107.464 Y115.896 E15.46323
G1 X107.464 Y115.570 E15.49286
G1 X106.884 Y116.150 E15.56738
G1 X106.715 Y116.150 E15.58276
G1 X106.631 Y116.234 E15.59364
G1 X106.462 Y116.234 E15.60902
G1 X106.196 Y116.500 E15.64322
G1 X106.196 Y115.908 E15.69704
G1 X105.688 Y116.416 E15.76228
G1 X105.688 Y116.077 E15.79303
G1 X105.024 Y116.741 E15.87843
G1 X104.686 Y116.741 E15.90918
G1 X104.420 Y117.008 E15.94339
G1 X104.420 Y116.500 E15.98953
G1 X103.840 Y117.080 E16.06405
G1 X103.756 Y117.080 E16.07174
G1 X103.671 Y117.164 E16.08261
G1 X103.587 Y117.164 E16.09030
G1 X103.502 Y117.249 E16.10117
G1 X103.333 Y117.249 E16.11655
G1 X103.248 Y117.333 E16.12743
G1 X102.910 Y117.333 E16.15818
G1 X102.826 Y117.418 E16.16905
G1 X102.560 Y117.418 E16.19324
G1 X102.560 Y117.092 E16.22287
G1 X102.065 Y117.587 E16.28652
G1 X101.799 Y117.587 E16.31071
G1 X101.799 Y117.418 E16.32609
G1 X101.714 Y117.418 E16.33378
G1 X101.714 Y117.249 E16.34916
G1 X101.545 Y117.249 E16.36454
G1 X101.545 Y116.995 E16.38760
G1 X101.376 Y116.995 E16.40298
G1 X101.376 Y116.741 E16.42605
G1 X101.291 Y116.741 E16.43373
G1 X101.291 Y116.572 E16.44911
G1 X101.207 Y116.572 E16.45680
G1 X101.207 Y116.053 E16.50406
G1 X101.702 Y115.558 E16.56771
G1 X101.122 Y115.558 E16.62040
G1 X101.122 Y115.304 E16.64347
G1 X101.038 Y115.304 E16.65116
G1 X101.038 Y115.219 E16.65884
G1 X100.953 Y115.219 E16.66653
G1 X100.953 Y114.966 E16.68960
G1 X100.869 Y114.966 E16.69729
G1 X100.869 Y114.881 E16.70498
G1 X100.784 Y114.881 E16.71266
G1 X100.784 Y114.615 E16.73685
G1 X101.110 Y114.289 E16.77876
G1 X100.603 Y114.289 E16.82489
G1 X100.941 Y113.951 E16.86838
G1 X100.361 Y113.951 E16.92108
G1 X100.361 Y113.697 E16.94414
G1 X100.277 Y113.697 E16.95183
G1 X100.277 Y113.613 E16.95952
G1 X100.192 Y113.613 E16.96721
G1 X100.192 Y113.528 E16.97490
G1 X100.108 Y113.528 E16.98259
G1 X100.108 Y113.444 E16.99028
G1 X100.023 Y113.444 E16.99796
G1 X100.023 Y113.359 E17.00565
G1 X99.854 Y113.359 E17.02103
G1 X99.854 Y113.093 E17.04522
G1 X99.987 Y112.960 E17.06235
G1 X100.072 Y112.960 E17.07004
G1 X100.361 Y112.670 E17.10728
G1 X100.361 Y112.586 E17.11497
G1 X100.615 Y112.332 E17.14758
G1 X100.615 Y111.753 E17.20028
G1 X100.530 Y111.753 E17.20797
G1 X100.530 Y111.668 E17.21566
G1 X100.446 Y111.668 E17.22335
G1 X100.446 Y111.245 E17.26179
G1 X100.361 Y111.245 E17.26948
G1 X100.361 Y110.907 E17.30023
G1 X100.192 Y110.907 E17.31561
