; generated by Slic3r 1.3.0-dev on 2017-08-18 at 22:12:56

; external perimeters extrusion width = 0.40mm (1.14mm^3/s)
; perimeters extrusion width = 0.68mm (3.95mm^3/s)
; infill extrusion width = 1.20mm (9.43mm^3/s)
; solid infill extrusion width = 0.68mm (1.32mm^3/s)
; top infill extrusion width = 0.68mm (0.99mm^3/s)
; support material extrusion width = 0.40mm (2.27mm^3/s)

M107
M190 S66 ; set bed temperature and wait for it to be reached
M104 S215 ; set temperature
G28 ; home all axes
G1 Z5 F5000 ; lift nozzle

; Filament gcode

M109 S215 ; set temperature and wait for it to be reached
G21 ; set units to millimeters
G90 ; use absolute coordinates
M82 ; use absolute distances for extrusion
G92 E0
G1 Z0.350 F7800.000
G1 E-2.00000 F2400.00000
G92 E0
G1 X67.895 Y82.026 F7800.000
G1 E2.00000 F2400.00000
G1 F1800
G1 X69.779 Y80.717 E2.20854
G1 X71.670 Y80.165 E2.38765
G1 X119.330 Y73.703 E6.76098
G1 X120.144 Y73.644 E6.83526
G1 X120.518 Y73.639 E6.86921
G1 X123.183 Y74.166 E7.11625
G1 X130.707 Y77.372 E7.85988
G1 X131.527 Y77.793 E7.94373
G1 X133.291 Y78.863 E8.13136
G1 X133.811 Y79.212 E8.18825
G1 X138.031 Y82.357 E8.66684
G1 X139.501 Y83.550 E8.83899
G1 X141.632 Y85.350 E9.09265
G1 X142.094 Y85.779 E9.15001
G1 X142.432 Y86.124 E9.19393
G1 X143.042 Y86.836 E9.27912
G1 X144.138 Y88.850 E9.48766
G1 X144.481 Y91.118 E9.69620
G1 X144.315 Y92.439 E9.81724
G1 X143.579 Y94.319 E10.00086
G1 X121.206 Y132.844 E14.05177
G1 X119.728 Y134.598 E14.26031
G1 X117.911 Y135.678 E14.45253
G1 X117.412 Y135.875 E14.50133
G1 X114.588 Y136.327 E14.76141
G1 X113.955 Y136.270 E14.81914
G1 X113.368 Y136.189 E14.87306
G1 X112.642 Y136.048 E14.94031
G1 X102.446 Y133.462 E15.89683
G1 X101.884 Y133.288 E15.95031
G1 X101.138 Y132.972 E16.02398
G1 X100.465 Y132.623 E16.09289
G1 X99.504 Y132.049 E16.19463
G1 X98.563 Y131.337 E16.30193
G1 X71.140 Y106.450 E19.66927
G1 X69.734 Y104.638 E19.87782
G1 X69.247 Y103.448 E19.99473
G1 X65.761 Y91.830 E21.09764
G1 X65.489 Y90.241 E21.24422
G1 X65.438 Y88.900 E21.36627
G1 X65.562 Y87.624 E21.48286
G1 X65.913 Y85.842 E21.64800
G1 X66.087 Y85.186 E21.70968
G1 X66.235 Y84.723 E21.75393
G1 X67.860 Y82.073 E22.03653
G1 E20.03653 F2400.00000
G92 E0
G1 X114.525 Y124.462 F7800.000
G1 E2.00000 F2400.00000
G1 F1800
G1 X114.967 Y124.462 E2.04023
G1 X114.585 Y125.001 E2.10034
G1 X114.580 Y126.129 E2.20295
G1 X114.491 Y126.291 E2.21974
G1 X114.373 Y127.036 E2.28830
G1 X113.844 Y127.616 E2.35972
G1 X113.366 Y127.505 E2.40432
G1 X113.365 Y127.264 E2.42617
G1 X112.487 Y127.199 E2.50631
G1 X112.487 Y126.983 E2.52593
G1 X111.310 Y126.889 E2.63323
G1 X111.310 Y126.689 E2.65138
G1 X109.631 Y126.554 E2.80459
G1 X109.634 Y126.499 E2.80963
G1 X109.021 Y126.393 E2.86625
G1 X109.036 Y126.092 E2.89367
G1 X107.787 Y126.000 E3.00755
G1 X107.788 Y125.678 E3.03687
G1 X105.988 Y125.679 E3.20059
G1 X105.365 Y124.783 E3.29983
G1 X104.619 Y125.259 E3.38030
G1 X104.377 Y125.208 E3.40281
G1 X104.358 Y125.125 E3.41055
G1 X103.846 Y124.784 E3.46647
G1 X103.500 Y124.420 E3.51219
G1 X103.448 Y124.223 E3.53071
G1 X102.938 Y123.883 E3.58647
G1 X102.629 Y123.577 E3.62596
G1 X102.400 Y123.501 E3.64792
G1 X101.846 Y122.639 E3.74110
G1 X101.760 Y122.559 E3.75175
G1 X101.072 Y120.956 E3.91037
G1 X101.012 Y120.345 E3.96627
G1 X100.459 Y120.360 E4.01663
G1 X100.416 Y120.120 E4.03873
G1 X100.070 Y119.903 E4.07592
G1 X99.765 Y119.214 E4.14443
G1 X99.694 Y119.176 E4.15179
G1 X99.688 Y118.157 E4.24437
G1 X99.272 Y117.907 E4.28854
G1 X99.207 Y117.628 E4.31467
G1 X98.999 Y117.489 E4.33738
G1 X98.947 Y117.203 E4.36383
G1 X98.077 Y116.623 E4.45887
G1 X97.929 Y116.573 E4.47304
G1 X97.930 Y115.532 E4.56767
G1 X97.452 Y115.532 E4.61120
G1 X96.645 Y114.979 E4.70018
G1 X97.127 Y114.934 E4.74418
G1 X98.513 Y114.041 E4.89413
G1 X98.508 Y111.859 E5.09254
G1 X98.258 Y111.692 E5.11979
G1 X98.329 Y111.195 E5.16552
G1 X98.486 Y110.662 E5.21597
G1 X98.665 Y109.950 E5.28270
G1 X98.779 Y109.139 E5.35726
G1 X98.410 Y107.353 E5.52309
G1 X97.686 Y107.232 E5.58983
G1 X97.507 Y106.979 E5.61798
G1 X96.619 Y106.891 E5.69911
G1 X96.579 Y106.796 E5.70855
G1 X96.458 Y106.715 E5.72176
G1 X96.458 Y106.539 E5.73777
G1 X96.017 Y106.267 E5.78489
G1 X96.017 Y106.137 E5.79671
G1 X95.637 Y105.884 E5.83814
G1 X95.229 Y105.008 E5.92601
G1 X94.887 Y104.793 E5.96278
G1 X94.770 Y104.122 E6.02467
G1 X93.484 Y103.908 E6.14325
G1 X93.373 Y103.875 E6.15379
G1 X92.891 Y103.257 E6.22496
G1 X91.228 Y103.128 E6.37662
G1 X91.155 Y103.153 E6.38363
G1 X90.992 Y103.125 E6.39865
G1 X90.895 Y102.834 E6.42658
G1 X89.693 Y102.731 E6.53630
G1 X89.693 Y102.144 E6.58969
G1 X88.818 Y102.144 E6.66925
G1 X88.760 Y102.019 E6.68180
G1 X87.247 Y101.844 E6.82028
G1 X86.663 Y101.920 E6.87385
G1 X86.181 Y102.208 E6.92490
G1 X85.385 Y102.583 E7.00488
G1 X84.976 Y102.579 E7.04211
G1 X84.988 Y102.443 E7.05454
G1 X83.957 Y102.443 E7.14829
G1 X83.957 Y102.278 E7.16333
G1 X83.426 Y102.284 E7.21162
G1 X83.430 Y102.170 E7.22203
G1 X82.056 Y102.153 E7.34697
G1 X81.743 Y101.474 E7.41505
G1 X80.840 Y101.879 E7.50504
G1 X80.053 Y101.844 E7.57665
G1 X79.876 Y101.808 E7.59309
G1 X79.897 Y101.246 E7.64417
G1 X78.875 Y101.166 E7.73738
G1 X78.899 Y101.104 E7.74345
G1 X78.004 Y100.762 E7.83058
G1 X77.789 Y100.322 E7.87513
G1 X77.889 Y99.781 E7.92509
G1 X79.019 Y98.987 E8.05074
G1 X79.058 Y98.428 E8.10172
G1 X80.845 Y96.641 E8.33148
G1 X79.777 Y96.152 E8.43829
G1 X79.502 Y95.738 E8.48347
G1 X79.262 Y95.023 E8.55208
G1 X78.418 Y94.526 E8.64116
G1 X78.315 Y94.418 E8.65475
G1 X78.277 Y93.799 E8.71110
G1 X78.059 Y93.637 E8.73574
G1 X78.009 Y92.961 E8.79744
G1 X76.934 Y92.311 E8.91161
G1 X76.880 Y92.009 E8.93951
G1 X75.851 Y91.395 E9.04844
G1 X75.397 Y90.087 E9.17441
G1 X75.037 Y90.087 E9.20713
G1 X74.839 Y89.955 E9.22871
G1 X74.839 Y88.902 E9.32445
G1 X76.345 Y89.021 E9.46179
G1 X76.345 Y89.218 E9.47976
G1 X77.963 Y89.325 E9.62720
G1 X77.963 Y89.614 E9.65352
G1 X78.710 Y89.614 E9.72144
G1 X80.367 Y89.776 E9.87278
G1 X80.349 Y90.003 E9.89355
G1 X81.343 Y90.126 E9.98463
G1 X81.343 Y90.268 E9.99756
G1 X82.456 Y90.310 E10.09883
G1 X84.287 Y90.527 E10.26651
G1 X84.287 Y90.938 E10.30383
G1 X85.463 Y90.938 E10.41083
G1 X85.463 Y91.135 E10.42878
G1 X86.060 Y91.117 E10.48309
G1 X86.050 Y91.232 E10.49363
G1 X86.934 Y91.232 E10.57397
G1 X86.934 Y91.379 E10.58732
G1 X87.669 Y91.379 E10.65422
G1 X87.669 Y91.526 E10.66760
G1 X88.543 Y91.526 E10.74699
G1 X88.541 Y91.683 E10.76123
G1 X89.287 Y91.727 E10.82914
G1 X89.287 Y91.964 E10.85069
G1 X90.005 Y91.966 E10.91595
G1 X90.003 Y92.095 E10.92768
G1 X90.836 Y92.096 E11.00340
G1 X90.840 Y92.164 E11.00962
G1 X91.522 Y92.199 E11.07172
G1 X91.522 Y92.634 E11.11131
G1 X92.816 Y92.383 E11.23124
G1 X92.816 Y92.702 E11.26025
G1 X93.821 Y92.702 E11.35159
G1 X94.480 Y92.781 E11.41195
G1 X94.491 Y92.854 E11.41863
G1 X94.874 Y92.882 E11.45360
G1 X94.874 Y93.144 E11.47737
G1 X95.609 Y93.144 E11.54421
G1 X95.609 Y93.321 E11.56032
G1 X96.104 Y93.312 E11.60533
G1 X96.085 Y93.441 E11.61722
G1 X97.375 Y93.440 E11.73458
G1 X97.375 Y93.585 E11.74776
G1 X98.826 Y93.585 E11.87966
G1 X98.835 Y93.670 E11.88743
G1 X99.466 Y93.759 E11.94545
G1 X99.469 Y93.869 E11.95546
G1 X100.023 Y93.911 E12.00592
G1 X100.023 Y94.052 E12.01878
G1 X101.346 Y94.156 E12.13948
G1 X101.346 Y94.345 E12.15666
G1 X102.670 Y94.450 E12.27740
G1 X102.670 Y94.816 E12.31064
G1 X103.896 Y94.775 E12.42222
G1 X103.876 Y95.056 E12.44782
G1 X105.075 Y95.056 E12.55685
G1 X105.935 Y95.183 E12.63590
G1 X105.940 Y95.402 E12.65577
G1 X108.494 Y95.487 E12.88813
G1 X108.915 Y94.978 E12.94818
G1 X109.785 Y94.688 E13.03162
G1 X110.770 Y95.438 E13.14421
G1 X111.227 Y93.763 E13.30209
G1 X111.613 Y93.642 E13.33882
G1 X111.633 Y93.478 E13.35379
G1 X112.066 Y93.430 E13.39345
G1 X112.209 Y91.860 E13.53684
G1 X112.436 Y91.474 E13.57759
G1 X112.481 Y91.051 E13.61619
G1 X113.188 Y90.727 E13.68696
G1 X113.531 Y91.141 E13.73585
G1 X115.432 Y89.685 E13.95358
G1 X115.730 Y89.631 E13.98107
G1 X116.237 Y89.505 E14.02862
G1 X116.951 Y89.212 E14.09875
G1 X117.002 Y89.162 E14.10528
G1 X117.852 Y88.940 E14.18520
G1 X118.109 Y88.783 E14.21259
G1 X118.371 Y88.721 E14.23703
G1 X118.858 Y88.526 E14.28474
G1 X119.218 Y88.438 E14.31841
G1 X119.901 Y88.438 E14.38050
G1 X120.317 Y88.160 E14.42600
G1 X120.803 Y88.898 E14.50639
G1 X121.516 Y88.182 E14.59819
G1 X122.038 Y89.051 E14.69032
G1 X122.226 Y89.113 E14.70834
G1 X122.226 Y89.853 E14.77563
G1 X122.138 Y90.236 E14.81131
G1 X122.116 Y90.553 E14.84023
G1 X122.042 Y90.627 E14.84975
G1 X121.801 Y92.140 E14.98907
G1 X121.801 Y92.345 E15.00771
G1 X121.493 Y93.628 E15.12770
G1 X121.493 Y93.832 E15.14619
G1 X121.351 Y93.979 E15.16480
G1 X121.346 Y94.705 E15.23090
G1 X121.221 Y94.830 E15.24689
G1 X121.206 Y95.699 E15.32594
G1 X120.949 Y96.486 E15.40122
G1 X120.874 Y97.194 E15.46595
G1 X120.813 Y97.302 E15.47723
G1 X120.464 Y97.659 E15.52265
G1 X120.464 Y100.858 E15.81354
G1 X119.406 Y102.248 E15.97238
G1 X120.373 Y102.548 E16.06447
G1 X120.519 Y102.770 E16.08858
G1 X120.090 Y104.446 E16.24588
G1 X120.610 Y104.408 E16.29329
G1 X120.611 Y105.324 E16.37655
G1 X120.472 Y105.504 E16.39721
G1 X120.192 Y106.419 E16.48424
G1 X120.182 Y106.901 E16.52806
G1 X120.145 Y106.939 E16.53289
G1 X119.947 Y107.955 E16.62705
G1 X119.772 Y108.579 E16.68593
G1 X119.673 Y109.467 E16.76725
G1 X119.452 Y109.688 E16.79564
G1 X119.436 Y110.275 E16.84902
G1 X119.325 Y110.831 E16.90060
G1 X119.235 Y110.918 E16.91198
G1 X119.054 Y112.185 E17.02835
G1 X118.665 Y112.852 E17.09856
G1 X117.248 Y112.602 E17.22934
G1 X117.039 Y114.862 E17.43574
G1 X116.659 Y117.250 E17.65566
G1 X116.418 Y117.730 E17.70444
G1 X115.028 Y119.583 E17.91509
G1 X115.758 Y119.819 E17.98488
G1 X115.758 Y122.124 E18.19445
G1 X115.501 Y122.563 E18.24074
G1 X115.553 Y122.592 E18.24616
G1 X114.554 Y124.409 E18.43470
G1 X115.582 Y123.837 F7800.000
G1 F1800
G1 X116.348 Y123.837 E18.50437
G1 X115.567 Y124.696 E18.60998
G1 X115.209 Y125.201 E18.66624
G1 X115.205 Y126.293 E18.76548
G1 X115.091 Y126.498 E18.78683
G1 X114.961 Y127.318 E18.86236
G1 X114.030 Y128.339 E18.98800
G1 X113.332 Y128.236 E19.05212
G1 X113.332 Y128.138 E19.06098
G1 X112.742 Y128.001 E19.11606
G1 X112.742 Y127.845 E19.13025
G1 X111.862 Y127.779 E19.21052
G1 X111.862 Y127.560 E19.23047
G1 X110.685 Y127.466 E19.33777
G1 X110.685 Y127.266 E19.35592
G1 X109.379 Y127.161 E19.47506
G1 X108.972 Y127.072 E19.51300
G1 X108.975 Y127.019 E19.51782
G1 X108.368 Y126.914 E19.57382
G1 X108.381 Y126.670 E19.59601
G1 X107.160 Y126.581 E19.70735
G1 X107.161 Y126.303 E19.73261
G1 X105.661 Y126.304 E19.86896
G1 X105.195 Y125.633 E19.94331
G1 X104.469 Y126.096 E20.02154
G1 X104.340 Y125.839 E20.04769
G1 X103.857 Y125.738 E20.09253
G1 X103.804 Y125.507 E20.11407
G1 X103.441 Y125.265 E20.15373
G1 X103.066 Y124.871 E20.20323
G1 X102.961 Y124.828 E20.21358
G1 X102.904 Y124.611 E20.23397
G1 X102.541 Y124.369 E20.27359
G1 X102.294 Y124.125 E20.30525
G1 X102.087 Y124.056 E20.32504
G1 X101.909 Y123.893 E20.34701
G1 X101.362 Y123.042 E20.43898
G1 X101.237 Y122.926 E20.45447
G1 X100.676 Y121.619 E20.58376
G1 X100.518 Y121.723 E20.60094
G1 X100.447 Y120.985 E20.66834
G1 X100.185 Y120.992 E20.69211
G1 X99.903 Y120.804 E20.72296
G1 X99.849 Y120.503 E20.75080
G1 X99.575 Y120.331 E20.78021
G1 X99.280 Y119.663 E20.84658
G1 X99.151 Y119.594 E20.85989
G1 X99.070 Y119.287 E20.88877
G1 X99.065 Y118.512 E20.95921
G1 X98.724 Y118.307 E20.99545
G1 X98.654 Y118.010 E21.02316
G1 X98.432 Y117.862 E21.04751
G1 X98.379 Y117.576 E21.07396
G1 X97.798 Y117.189 E21.13744
G1 X97.423 Y117.061 E21.17345
G1 X97.304 Y116.893 E21.19219
G1 X97.305 Y116.157 E21.25911
G1 X96.850 Y116.157 E21.30048
G1 X96.846 Y115.875 E21.32616
G1 X96.369 Y115.547 E21.37886
G1 X96.078 Y115.222 E21.41853
G1 X95.801 Y114.717 E21.47092
G1 X96.363 Y114.377 E21.53063
G1 X96.917 Y114.326 E21.58120
G1 X97.887 Y113.700 E21.68620
G1 X97.884 Y112.194 E21.82320
G1 X97.466 Y111.915 E21.86887
G1 X97.667 Y111.411 E21.91820
G1 X97.717 Y111.061 E21.95036
G1 X97.883 Y110.498 E22.00375
G1 X98.050 Y109.831 E22.06629
G1 X98.145 Y109.159 E22.12799
G1 X97.884 Y107.898 E22.24502
G1 X97.326 Y107.805 E22.29649
G1 X97.161 Y107.573 E22.32238
G1 X96.186 Y107.476 E22.41152
G1 X96.075 Y107.211 E22.43771
G1 X95.833 Y107.049 E22.46415
G1 X95.833 Y106.888 E22.47883
G1 X95.392 Y106.616 E22.52595
G1 X95.392 Y106.472 E22.53910
G1 X95.131 Y106.298 E22.56761
G1 X94.740 Y105.439 E22.65339
G1 X94.320 Y105.173 E22.69865
G1 X94.231 Y104.666 E22.74548
G1 X93.342 Y104.518 E22.82737
G1 X93.003 Y104.416 E22.85961
G1 X92.568 Y103.859 E22.92388
G1 X91.306 Y103.761 E23.03897
G1 X91.205 Y103.795 E23.04865
G1 X90.639 Y103.699 E23.10084
G1 X90.504 Y103.638 E23.11431
G1 X90.432 Y103.421 E23.13503
G1 X89.217 Y103.318 E23.24590
G1 X89.184 Y103.218 E23.25547
G1 X89.068 Y103.160 E23.26729
G1 X89.068 Y102.769 E23.30281
G1 X88.418 Y102.769 E23.36191
G1 X88.340 Y102.599 E23.37890
G1 X87.252 Y102.474 E23.47849
G1 X86.872 Y102.523 E23.51333
G1 X86.475 Y102.760 E23.55536
G1 X85.797 Y103.080 E23.62348
G1 X85.656 Y103.211 E23.64107
G1 X84.295 Y103.196 E23.76482
G1 X84.306 Y103.068 E23.77651
G1 X83.332 Y103.069 E23.86506
G1 X83.332 Y102.910 E23.87945
G1 X82.776 Y102.917 E23.92998
G1 X82.781 Y102.787 E23.94181
G1 X81.654 Y102.774 E24.04429
G1 X81.434 Y102.297 E24.09205
G1 X80.960 Y102.510 E24.13932
G1 X79.977 Y102.466 E24.22882
G1 X79.610 Y102.392 E24.26280
G1 X79.232 Y102.278 E24.29870
G1 X79.250 Y101.822 E24.34017
G1 X77.994 Y101.723 E24.45472
G1 X78.092 Y101.465 E24.47986
G1 X77.550 Y101.258 E24.53266
G1 X77.446 Y101.045 E24.55423
G1 X77.027 Y101.066 E24.59242
G1 X76.754 Y100.796 E24.62725
G1 X77.087 Y100.079 E24.69912
G1 X77.207 Y100.033 E24.71082
G1 X77.320 Y99.417 E24.76774
G1 X78.417 Y98.647 E24.88958
G1 X78.451 Y98.151 E24.93475
G1 X79.768 Y96.835 E25.10404
G1 X79.356 Y96.646 E25.14524
G1 X78.935 Y96.016 E25.21414
G1 X78.744 Y95.443 E25.26906
G1 X78.025 Y95.020 E25.34489
G1 X77.705 Y94.683 E25.38714
G1 X77.671 Y94.127 E25.43775
G1 X77.457 Y93.969 E25.46194
G1 X77.410 Y93.329 E25.52029
G1 X76.370 Y92.699 E25.63081
G1 X76.316 Y92.400 E25.65849
G1 X75.605 Y91.976 E25.73370
G1 X75.527 Y91.963 E25.74088
G1 X75.313 Y91.752 E25.76824
G1 X74.952 Y90.711 E25.86837
G1 X74.591 Y90.711 E25.90118
G1 X74.556 Y90.517 E25.91914
G1 X74.214 Y90.289 E25.95648
G1 X74.214 Y89.684 E26.01155
G1 X73.571 Y89.685 E26.07005
G1 X73.475 Y89.111 E26.12302
G1 X73.150 Y89.106 E26.15262
G1 X73.285 Y87.960 E26.25754
G1 X73.882 Y87.960 E26.31186
G1 X73.882 Y87.998 E26.31532
G1 X74.631 Y88.087 E26.38391
G1 X74.632 Y88.164 E26.39092
G1 X75.500 Y88.207 E26.46989
G1 X75.500 Y88.327 E26.48082
G1 X76.970 Y88.456 E26.61504
G1 X76.970 Y88.633 E26.63113
G1 X78.588 Y88.750 E26.77865
G1 X78.588 Y88.989 E26.80037
G1 X79.323 Y88.989 E26.86720
G1 X79.323 Y89.046 E26.87236
G1 X81.038 Y89.213 E27.02901
G1 X81.019 Y89.456 E27.05118
G1 X81.969 Y89.573 E27.13825
G1 X81.969 Y89.666 E27.14671
G1 X83.084 Y89.709 E27.24822
G1 X83.081 Y89.755 E27.25246
G1 X84.545 Y89.929 E27.38655
G1 X84.912 Y90.143 E27.42512
G1 X84.912 Y90.313 E27.44062
G1 X86.088 Y90.313 E27.54761
G1 X86.088 Y90.491 E27.56377
G1 X86.745 Y90.470 E27.62355
G1 X86.733 Y90.607 E27.63605
G1 X87.559 Y90.607 E27.71110
G1 X87.559 Y90.754 E27.72446
G1 X88.294 Y90.754 E27.79136
G1 X88.294 Y90.901 E27.80473
G1 X89.172 Y90.901 E27.88451
G1 X89.170 Y91.094 E27.90207
G1 X89.912 Y91.139 E27.96962
G1 X89.912 Y91.341 E27.98798
G1 X90.637 Y91.342 E28.05392
G1 X90.635 Y91.470 E28.06561
G1 X91.427 Y91.472 E28.13762
G1 X91.433 Y91.569 E28.14646
G1 X92.146 Y91.605 E28.21144
G1 X92.146 Y91.877 E28.23615
G1 X93.124 Y91.687 E28.32670
G1 X93.441 Y91.806 E28.35751
G1 X93.441 Y92.078 E28.38217
G1 X94.177 Y92.078 E28.44903
G1 X94.177 Y92.115 E28.45248
G1 X95.029 Y92.217 E28.53053
G1 X95.036 Y92.268 E28.53520
G1 X95.499 Y92.302 E28.57738
G1 X95.499 Y92.519 E28.59708
G1 X96.234 Y92.519 E28.66392
G1 X96.234 Y92.684 E28.67897
G1 X96.832 Y92.673 E28.73333
G1 X96.811 Y92.815 E28.74641
G1 X98.000 Y92.814 E28.85458
G1 X98.000 Y92.960 E28.86783
G1 X98.861 Y92.960 E28.94608
G1 X99.401 Y93.065 E28.99613
G1 X99.407 Y93.120 E29.00112
G1 X100.079 Y93.215 E29.06285
G1 X100.080 Y93.289 E29.06952
