; generated by Slic3r 1.3.0-dev on 2017-08-18 at 22:14:12

; external perimeters extrusion width = 0.40mm (1.14mm^3/s)
; perimeters extrusion width = 0.68mm (3.95mm^3/s)
; infill extrusion width = 1.20mm (9.43mm^3/s)
; solid infill extrusion width = 0.68mm (1.32mm^3/s)
; top infill extrusion width = 0.68mm (0.99mm^3/s)
; support material extrusion width = 0.40mm (2.27mm^3/s)

M107
M190 S66 ; set bed temperature and wait for it to be reached
M104 S215 ; set temperature
G28 ; home all axes
G1 Z5 F5000 ; lift nozzle

; Filament gcode

M109 S215 ; set temperature and wait for it to be reached
G21 ; set units to millimeters
G90 ; use absolute coordinates
M82 ; use absolute distances for extrusion
G92 E0
G1 Z0.350 F7800.000
G1 E-2.00000 F2400.00000
G92 E0
G1 X85.247 Y84.903 F7800.000
G1 E2.00000 F2400.00000
G1 F1800
G1 X85.326 Y84.824 E2.01014
G1 X87.150 Y83.533 E2.21335
G1 X92.747 Y80.853 E2.77767
G1 X93.513 Y80.543 E2.85277
G1 X94.028 Y80.378 E2.90193
G1 X98.439 Y79.120 E3.31904
G1 X99.221 Y78.947 E3.39183
G1 X99.586 Y78.899 E3.42530
G1 X109.344 Y77.875 E4.31745
G1 X110.031 Y77.838 E4.38009
G1 X110.505 Y77.838 E4.42312
G1 X113.077 Y78.357 E4.66177
G1 X114.576 Y78.987 E4.80957
G1 X115.605 Y79.527 E4.91526
G1 X117.642 Y81.445 E5.16968
G1 X127.710 Y96.081 E6.78497
G1 X128.735 Y98.473 E7.02159
G1 X128.984 Y99.858 E7.14961
G1 X129.870 Y106.747 E7.78118
G1 X129.924 Y107.625 E7.86109
G1 X129.905 Y111.458 E8.20962
G1 X129.815 Y112.514 E8.30607
G1 X127.602 Y125.401 E9.49505
G1 X127.318 Y126.890 E9.63285
G1 X126.468 Y129.020 E9.84140
G1 X124.943 Y130.733 E10.04994
G1 X122.925 Y131.823 E10.25848
G1 X120.833 Y132.162 E10.45118
G1 X120.346 Y132.159 E10.49546
G1 X118.990 Y131.982 E10.61983
G1 X85.168 Y123.941 E13.78101
G1 X83.062 Y123.032 E13.98955
G1 X81.392 Y121.460 E14.19809
G1 X80.358 Y119.413 E14.40664
G1 X80.075 Y117.496 E14.58283
G1 X80.075 Y116.865 E14.64020
G1 X80.120 Y116.090 E14.71082
G1 X83.037 Y91.335 E16.97736
G1 X83.358 Y88.765 E17.21280
G1 X84.032 Y86.573 E17.42134
G1 X85.212 Y84.952 E17.60365
G1 E15.60365 F2400.00000
G92 E0
G1 X116.883 Y119.048 F7800.000
G1 E2.00000 F2400.00000
G1 F1800
G1 X114.554 Y119.048 E2.21186
G1 X114.554 Y118.179 E2.29088
G1 X114.035 Y118.179 E2.33802
G1 X113.989 Y118.025 E2.35264
G1 X113.916 Y118.025 E2.35930
G1 X113.914 Y117.550 E2.40247
G1 X113.440 Y117.550 E2.44551
G1 X113.437 Y117.079 E2.48837
G1 X112.661 Y117.079 E2.55894
G1 X112.661 Y117.000 E2.56610
G1 X112.424 Y117.000 E2.58763
G1 X112.424 Y116.921 E2.59481
G1 X111.872 Y116.921 E2.64500
G1 X111.872 Y114.580 E2.85788
G1 X109.822 Y116.629 E3.12146
G1 X109.822 Y116.304 E3.15104
G1 X108.876 Y116.296 E3.23706
G1 X108.876 Y115.738 E3.28776
G1 X108.482 Y115.738 E3.32361
G1 X108.482 Y115.581 E3.33795
G1 X108.246 Y115.581 E3.35945
G1 X108.246 Y115.502 E3.36662
G1 X107.615 Y115.502 E3.42396
G1 X107.615 Y115.029 E3.46698
G1 X105.565 Y115.029 E3.65335
G1 X105.375 Y115.101 E3.67188
G1 X104.755 Y115.170 E3.72858
G1 X104.324 Y115.504 E3.77816
G1 X104.011 Y115.660 E3.80998
G1 X103.753 Y115.660 E3.83343
G1 X103.753 Y113.633 E4.01773
G1 X101.410 Y115.975 E4.31893
G1 X101.171 Y115.975 E4.34075
G1 X100.874 Y116.271 E4.37885
G1 X100.431 Y116.496 E4.42404
G1 X100.137 Y116.785 E4.46148
G1 X99.605 Y116.920 E4.51139
G1 X99.211 Y116.920 E4.54720
G1 X98.889 Y117.103 E4.58089
G1 X98.637 Y116.528 E4.63799
G1 X97.313 Y117.394 E4.78181
G1 X96.893 Y117.394 E4.81999
G1 X96.893 Y117.236 E4.83433
G1 X96.420 Y117.236 E4.87734
G1 X96.420 Y117.157 E4.88451
G1 X95.868 Y117.157 E4.93469
G1 X95.868 Y117.079 E4.94185
G1 X95.237 Y117.079 E4.99924
G1 X95.237 Y117.000 E5.00641
G1 X94.686 Y117.000 E5.05654
G1 X94.686 Y116.921 E5.06371
G1 X94.528 Y116.921 E5.07807
G1 X94.528 Y116.842 E5.08523
G1 X94.133 Y116.842 E5.12108
G1 X94.133 Y116.763 E5.12825
G1 X93.582 Y116.763 E5.17843
G1 X93.582 Y116.684 E5.18560
G1 X92.951 Y116.684 E5.24295
G1 X92.951 Y116.606 E5.25012
G1 X92.399 Y116.606 E5.30031
G1 X92.399 Y116.527 E5.30748
G1 X92.241 Y116.527 E5.32179
G1 X92.241 Y116.448 E5.32896
G1 X91.847 Y116.448 E5.36484
G1 X91.847 Y116.369 E5.37201
G1 X91.216 Y116.369 E5.42936
G1 X91.216 Y116.290 E5.43653
G1 X90.586 Y116.290 E5.49382
G1 X90.586 Y116.211 E5.50098
G1 X89.954 Y116.211 E5.55844
G1 X89.954 Y116.133 E5.56561
G1 X89.324 Y116.133 E5.62286
G1 X89.324 Y116.054 E5.63003
G1 X89.167 Y116.054 E5.64437
G1 X89.167 Y115.975 E5.65154
G1 X88.851 Y115.975 E5.68024
G1 X88.851 Y115.896 E5.68741
G1 X88.536 Y115.896 E5.71606
G1 X88.536 Y115.557 E5.74690
G1 X88.615 Y115.478 E5.75704
G1 X88.615 Y114.926 E5.80722
G1 X88.694 Y114.847 E5.81736
G1 X88.694 Y114.295 E5.86754
G1 X88.773 Y114.217 E5.87767
G1 X88.773 Y113.665 E5.92786
G1 X88.851 Y113.586 E5.93800
G1 X88.851 Y113.034 E5.98818
G1 X88.930 Y112.955 E5.99832
G1 X88.930 Y112.403 E6.04850
G1 X89.009 Y112.324 E6.05864
G1 X89.009 Y111.773 E6.10881
G1 X89.088 Y111.694 E6.11895
G1 X89.088 Y111.142 E6.16913
G1 X89.167 Y111.063 E6.17927
G1 X89.167 Y110.511 E6.22945
G1 X89.246 Y110.432 E6.23959
G1 X89.246 Y109.880 E6.28977
G1 X89.324 Y109.802 E6.29991
G1 X89.324 Y109.250 E6.35009
G1 X89.403 Y109.171 E6.36023
G1 X89.403 Y108.619 E6.41041
G1 X89.482 Y108.540 E6.42055
G1 X89.482 Y107.988 E6.47073
G1 X89.561 Y107.910 E6.48087
G1 X89.561 Y107.279 E6.53821
G1 X89.640 Y107.200 E6.54835
G1 X89.640 Y106.648 E6.59853
G1 X89.719 Y106.569 E6.60867
G1 X89.719 Y106.017 E6.65885
G1 X89.797 Y105.939 E6.66899
G1 X89.797 Y105.387 E6.71917
G1 X89.876 Y105.308 E6.72931
G1 X89.876 Y104.756 E6.77949
G1 X89.955 Y104.677 E6.78963
G1 X89.955 Y104.125 E6.83981
G1 X90.034 Y104.046 E6.84995
G1 X90.034 Y103.495 E6.90013
G1 X90.113 Y103.416 E6.91027
G1 X90.113 Y102.864 E6.96045
G1 X90.192 Y102.785 E6.97058
G1 X90.192 Y102.233 E7.02077
G1 X90.270 Y102.154 E7.03091
G1 X90.270 Y101.602 E7.08109
G1 X90.349 Y101.524 E7.09122
G1 X90.349 Y100.972 E7.14141
G1 X90.428 Y100.893 E7.15154
G1 X90.428 Y99.710 E7.25907
G1 X90.507 Y99.632 E7.26921
G1 X90.507 Y99.080 E7.31939
G1 X90.586 Y99.001 E7.32953
G1 X90.586 Y98.449 E7.37971
G1 X90.665 Y98.370 E7.38985
G1 X90.665 Y97.818 E7.44003
G1 X90.744 Y97.739 E7.45017
G1 X90.744 Y97.188 E7.50035
G1 X90.822 Y97.109 E7.51049
G1 X90.822 Y96.557 E7.56067
G1 X90.901 Y96.478 E7.57081
G1 X90.901 Y95.926 E7.62099
G1 X90.980 Y95.847 E7.63113
G1 X90.980 Y95.295 E7.68130
G1 X91.059 Y95.217 E7.69144
G1 X91.059 Y94.665 E7.74162
G1 X91.138 Y94.586 E7.75176
G1 X91.138 Y94.034 E7.80194
G1 X91.217 Y93.955 E7.81208
G1 X91.217 Y93.403 E7.86226
G1 X91.295 Y93.325 E7.87240
G1 X91.295 Y92.142 E7.97993
G1 X91.374 Y92.063 E7.99007
G1 X91.374 Y91.699 E8.02322
G1 X91.710 Y91.411 E8.06341
G1 X92.065 Y92.952 E8.20721
G1 X94.556 Y90.793 E8.50689
G1 X94.667 Y90.793 E8.51702
G1 X95.063 Y90.478 E8.56306
G1 X96.181 Y90.478 E8.66467
G1 X96.183 Y89.149 E8.78552
G1 X96.824 Y88.507 E8.86799
G1 X98.565 Y88.507 E9.02627
G1 X98.642 Y88.429 E9.03626
G1 X98.931 Y88.429 E9.06252
G1 X99.166 Y88.202 E9.09223
G1 X99.764 Y87.942 E9.15149
G1 X99.764 Y88.243 E9.17884
G1 X101.658 Y88.097 E9.35161
G1 X101.800 Y88.710 E9.40884
G1 X102.964 Y88.071 E9.52964
G1 X104.100 Y88.452 E9.63858
G1 X104.100 Y88.980 E9.68656
G1 X104.494 Y88.980 E9.72241
G1 X104.494 Y89.058 E9.72958
G1 X105.517 Y89.058 E9.82260
G1 X105.729 Y89.360 E9.85607
G1 X108.561 Y89.408 E10.11364
G1 X108.561 Y88.016 E10.24024
G1 X109.235 Y87.403 E10.32311
G1 X109.314 Y87.403 E10.33032
G1 X109.900 Y86.870 E10.40225
G1 X110.180 Y86.711 E10.43160
G1 X110.565 Y86.693 E10.46657
G1 X110.565 Y88.334 E10.61576
G1 X110.643 Y88.335 E10.62290
G1 X110.643 Y88.506 E10.63849
G1 X110.833 Y88.506 E10.65580
G1 X110.715 Y90.597 E10.84621
G1 X111.063 Y90.622 E10.87791
G1 X111.072 Y91.029 E10.91499
G1 X111.263 Y91.029 E10.93235
G1 X111.249 Y91.883 E11.00997
G1 X111.353 Y91.884 E11.01936
G1 X111.353 Y92.082 E11.03733
G1 X111.590 Y92.078 E11.05887
G1 X111.590 Y92.843 E11.12842
G1 X111.903 Y92.843 E11.15695
G1 X111.903 Y93.237 E11.19284
G1 X111.984 Y93.237 E11.20015
G1 X111.984 Y93.649 E11.23763
G1 X113.797 Y93.462 E11.40338
G1 X113.797 Y93.794 E11.43357
G1 X112.644 Y95.523 E11.62256
G1 X114.428 Y95.523 E11.78474
G1 X114.428 Y95.985 E11.82672
G1 X114.607 Y96.038 E11.84368
G1 X114.622 Y96.754 E11.90887
G1 X115.264 Y96.705 E11.96744
G1 X115.417 Y97.923 E12.07908
G1 X116.083 Y97.468 E12.15245
G1 X116.083 Y98.194 E12.21853
G1 X116.166 Y98.195 E12.22611
G1 X116.167 Y98.361 E12.24124
G1 X118.211 Y98.361 E12.42713
G1 X118.211 Y98.597 E12.44860
G1 X119.000 Y98.597 E12.52035
G1 X119.000 Y99.089 E12.56508
G1 X119.158 Y99.168 E12.58112
G1 X119.158 Y99.769 E12.63577
G1 X119.409 Y99.811 E12.65895
G1 X119.417 Y100.332 E12.70633
G1 X120.007 Y100.332 E12.76001
G1 X119.564 Y100.926 E12.82734
G1 X120.426 Y101.219 E12.91010
G1 X120.383 Y102.816 E13.05538
G1 X120.656 Y102.866 E13.08059
G1 X120.656 Y105.000 E13.27461
G1 X121.064 Y104.923 E13.31233
G1 X120.305 Y105.964 E13.42943
G1 X121.161 Y106.466 E13.51963
G1 X121.172 Y106.534 E13.52587
G1 X121.287 Y106.667 E13.54182
G1 X121.287 Y107.793 E13.64420
G1 X121.365 Y107.817 E13.65171
G1 X121.365 Y108.222 E13.68852
G1 X120.339 Y109.625 E13.84662
G1 X120.748 Y109.779 E13.88636
G1 X119.768 Y112.080 E14.11380
G1 X120.734 Y112.080 E14.20164
G1 X120.734 Y112.236 E14.21584
G1 X121.365 Y112.236 E14.27327
G1 X121.365 Y112.576 E14.30415
G1 X121.287 Y112.655 E14.31429
G1 X121.287 Y113.049 E14.35013
G1 X121.208 Y113.128 E14.36027
G1 X121.208 Y113.522 E14.39611
G1 X121.129 Y113.601 E14.40625
G1 X121.129 Y113.995 E14.44209
G1 X121.050 Y114.074 E14.45223
G1 X121.050 Y114.525 E14.49328
G1 X120.920 Y115.308 E14.56544
G1 X120.814 Y115.414 E14.57908
G1 X120.814 Y115.808 E14.61492
G1 X120.735 Y115.887 E14.62506
G1 X120.735 Y116.281 E14.66090
G1 X120.656 Y116.360 E14.67104
G1 X120.656 Y116.676 E14.69973
G1 X120.577 Y116.755 E14.70987
G1 X120.577 Y117.149 E14.74570
G1 X120.498 Y117.227 E14.75583
G1 X120.498 Y117.758 E14.80405
G1 X120.368 Y118.540 E14.87621
G1 X120.262 Y118.646 E14.88985
G1 X120.262 Y119.041 E14.92569
G1 X120.183 Y119.119 E14.93583
G1 X120.183 Y119.435 E14.96450
G1 X120.104 Y119.514 E14.97464
G1 X120.104 Y119.908 E15.01048
G1 X120.025 Y119.987 E15.02062
G1 X120.025 Y120.381 E15.05647
G1 X119.946 Y120.460 E15.06661
G1 X119.946 Y120.854 E15.10245
G1 X119.867 Y120.933 E15.11259
G1 X119.867 Y121.327 E15.14843
G1 X119.789 Y121.406 E15.15857
G1 X119.789 Y121.721 E15.18724
G1 X119.710 Y121.800 E15.19738
G1 X119.710 Y122.203 E15.23404
G1 X118.968 Y122.203 E15.30153
G1 X118.968 Y122.045 E15.31587
G1 X118.573 Y122.045 E15.35172
G1 X118.573 Y121.911 E15.36393
G1 X117.415 Y121.894 E15.46929
G1 X117.236 Y121.745 E15.49048
G1 X117.154 Y121.501 E15.51390
G1 X117.154 Y120.863 E15.57188
G1 X116.997 Y120.863 E15.58622
G1 X116.997 Y120.711 E15.60001
G1 X116.589 Y120.710 E15.63710
G1 X116.587 Y120.582 E15.64872
G1 X116.162 Y120.573 E15.68742
G1 X116.090 Y120.139 E15.72735
G1 X116.848 Y119.096 E15.84461
G1 X115.656 Y119.673 F7800.000
G1 F1800
G1 X114.152 Y119.673 E15.98141
G1 X114.103 Y119.527 E15.99540
G1 X113.929 Y119.416 E16.01422
G1 X113.929 Y118.804 E16.06985
G1 X113.569 Y118.804 E16.10259
G1 X113.523 Y118.650 E16.11722
G1 X113.294 Y118.650 E16.13799
G1 X113.292 Y118.175 E16.18115
G1 X112.820 Y118.175 E16.22406
G1 X112.817 Y117.703 E16.26692
G1 X112.036 Y117.703 E16.33793
G1 X112.036 Y117.625 E16.34509
G1 X111.799 Y117.625 E16.36661
G1 X111.799 Y117.546 E16.37378
G1 X111.247 Y117.546 E16.42398
G1 X111.247 Y116.088 E16.55650
G1 X109.592 Y117.744 E16.76939
G1 X109.592 Y117.152 E16.82324
G1 X109.355 Y117.152 E16.84475
G1 X109.355 Y116.994 E16.85909
G1 X109.197 Y116.994 E16.87342
G1 X109.197 Y116.924 E16.87982
G1 X108.598 Y116.918 E16.93428
G1 X108.406 Y116.790 E16.95533
G1 X108.251 Y116.597 E16.97782
G1 X108.251 Y116.363 E16.99906
G1 X107.857 Y116.363 E17.03491
G1 X107.857 Y116.206 E17.04925
G1 X107.621 Y116.206 E17.07075
G1 X107.621 Y116.127 E17.07792
G1 X107.191 Y116.127 E17.11701
G1 X107.117 Y115.906 E17.13822
G1 X106.990 Y115.903 E17.14977
G1 X106.990 Y115.654 E17.17241
G1 X105.679 Y115.654 E17.29159
G1 X105.522 Y115.713 E17.30689
G1 X104.999 Y115.771 E17.35476
G1 X104.658 Y116.035 E17.39398
G1 X104.310 Y116.208 E17.42926
G1 X104.225 Y116.284 E17.43967
G1 X104.111 Y116.284 E17.45005
G1 X103.786 Y116.612 E17.49203
G1 X103.128 Y116.469 E17.55325
G1 X103.128 Y115.141 E17.67399
G1 X101.669 Y116.600 E17.86155
G1 X101.429 Y116.600 E17.88337
G1 X101.246 Y116.783 E17.90695
G1 X100.800 Y117.010 E17.95245
G1 X100.414 Y117.388 E18.00159
G1 X100.300 Y117.388 E18.01198
G1 X99.709 Y117.544 E18.06753
G1 X99.377 Y117.544 E18.09772
G1 X98.929 Y117.800 E18.14467
G1 X98.851 Y117.867 E18.15395
G1 X98.563 Y117.913 E18.18050
G1 X98.361 Y117.455 E18.22601
G1 X97.378 Y118.098 E18.33282
G1 X96.899 Y118.098 E18.37645
G1 X96.899 Y118.019 E18.38362
G1 X96.268 Y118.019 E18.44096
G1 X96.268 Y117.861 E18.45529
G1 X95.795 Y117.861 E18.49831
G1 X95.795 Y117.782 E18.50548
G1 X95.243 Y117.782 E18.55565
G1 X95.243 Y117.703 E18.56282
G1 X94.612 Y117.703 E18.62019
G1 X94.612 Y117.625 E18.62736
G1 X94.061 Y117.625 E18.67751
G1 X94.061 Y117.546 E18.68468
G1 X93.903 Y117.546 E18.69903
G1 X93.903 Y117.467 E18.70620
G1 X93.509 Y117.467 E18.74204
G1 X93.509 Y117.388 E18.74921
G1 X92.957 Y117.388 E18.79939
G1 X92.957 Y117.309 E18.80656
G1 X92.326 Y117.309 E18.86391
G1 X92.326 Y117.230 E18.87108
G1 X91.774 Y117.230 E18.92127
G1 X91.774 Y117.152 E18.92844
G1 X91.617 Y117.152 E18.94276
G1 X91.616 Y117.073 E18.94993
G1 X91.222 Y117.073 E18.98579
G1 X91.222 Y116.994 E18.99296
G1 X90.591 Y116.994 E19.05031
G1 X90.591 Y116.915 E19.05748
G1 X89.961 Y116.915 E19.11479
G1 X89.961 Y116.836 E19.12196
G1 X89.330 Y116.836 E19.17937
G1 X89.330 Y116.757 E19.18654
G1 X88.700 Y116.757 E19.24383
G1 X88.700 Y116.679 E19.25100
G1 X88.542 Y116.679 E19.26534
G1 X88.542 Y116.600 E19.27251
G1 X88.226 Y116.600 E19.30120
G1 X88.226 Y116.521 E19.30837
G1 X87.832 Y116.521 E19.34419
G1 X87.832 Y116.007 E19.39088
G1 X87.911 Y115.929 E19.40102
G1 X87.911 Y115.298 E19.45837
G1 X87.990 Y115.219 E19.46850
G1 X87.990 Y114.667 E19.51869
G1 X88.069 Y114.588 E19.52882
G1 X88.069 Y114.037 E19.57900
G1 X88.148 Y113.958 E19.58914
G1 X88.148 Y113.406 E19.63932
G1 X88.227 Y113.327 E19.64946
G1 X88.227 Y112.775 E19.69964
G1 X88.305 Y112.696 E19.70978
G1 X88.305 Y112.144 E19.75996
G1 X88.384 Y112.066 E19.77010
G1 X88.384 Y111.514 E19.82028
G1 X88.463 Y111.435 E19.83041
G1 X88.463 Y110.883 E19.88060
G1 X88.542 Y110.804 E19.89073
G1 X88.542 Y110.252 E19.94092
G1 X88.621 Y110.173 E19.95105
G1 X88.621 Y109.622 E20.00123
G1 X88.700 Y109.543 E20.01137
G1 X88.700 Y108.991 E20.06155
G1 X88.778 Y108.912 E20.07169
G1 X88.778 Y108.360 E20.12187
G1 X88.857 Y108.281 E20.13201
G1 X88.857 Y107.730 E20.18219
G1 X88.936 Y107.651 E20.19233
G1 X88.936 Y107.020 E20.24968
G1 X89.015 Y106.941 E20.25982
G1 X89.015 Y106.389 E20.31000
G1 X89.094 Y106.310 E20.32013
G1 X89.094 Y105.759 E20.37032
G1 X89.173 Y105.680 E20.38046
G1 X89.173 Y105.128 E20.43063
G1 X89.251 Y105.049 E20.44077
G1 X89.251 Y104.497 E20.49095
G1 X89.330 Y104.418 E20.50109
G1 X89.330 Y103.866 E20.55127
G1 X89.409 Y103.788 E20.56141
G1 X89.409 Y103.236 E20.61159
G1 X89.488 Y103.157 E20.62173
G1 X89.488 Y102.605 E20.67191
G1 X89.567 Y102.526 E20.68205
G1 X89.567 Y101.974 E20.73223
G1 X89.646 Y101.896 E20.74237
G1 X89.646 Y101.344 E20.79255
G1 X89.724 Y101.265 E20.80269
G1 X89.724 Y100.713 E20.85287
G1 X89.803 Y100.634 E20.86301
G1 X89.803 Y99.452 E20.97054
G1 X89.882 Y99.373 E20.98067
G1 X89.882 Y98.821 E21.03085
G1 X89.961 Y98.742 E21.04099
G1 X89.961 Y98.190 E21.09117
G1 X90.040 Y98.111 E21.10131
G1 X90.040 Y97.559 E21.15149
G1 X90.119 Y97.481 E21.16163
G1 X90.119 Y96.929 E21.21181
G1 X90.197 Y96.850 E21.22195
G1 X90.197 Y96.298 E21.27213
G1 X90.276 Y96.219 E21.28227
G1 X90.276 Y95.667 E21.33245
G1 X90.355 Y95.588 E21.34259
G1 X90.355 Y95.037 E21.39277
G1 X90.434 Y94.958 E21.40291
G1 X90.434 Y94.406 E21.45309
G1 X90.513 Y94.327 E21.46323
G1 X90.513 Y93.775 E21.51341
G1 X90.592 Y93.696 E21.52354
G1 X90.592 Y93.145 E21.57373
G1 X90.670 Y93.066 E21.58386
G1 X90.670 Y91.883 E21.69139
G1 X90.749 Y91.804 E21.70153
G1 X90.749 Y91.411 E21.73727
G1 X91.739 Y90.562 E21.85586
