; generated by Slic3r 1.3.0-dev on 2017-08-18 at 22:15:37

; external perimeters extrusion width = 0.40mm (1.14mm^3/s)
; perimeters extrusion width = 0.68mm (3.95mm^3/s)
; infill extrusion width = 1.20mm (9.43mm^3/s)
; solid infill extrusion width = 0.68mm (1.32mm^3/s)
; top infill extrusion width = 0.68mm (0.99mm^3/s)
; support material extrusion width = 0.40mm (2.27mm^3/s)

M107
M190 S66 ; set bed temperature and wait for it to be reached
M104 S215 ; set temperature
G28 ; home all axes
G1 Z5 F5000 ; lift nozzle

; Filament gcode

M109 S215 ; set temperature and wait for it to be reached
G21 ; set units to millimeters
G90 ; use absolute coordinates
M82 ; use absolute distances for extrusion
G92 E0
G1 Z0.350 F7800.000
G1 E-2.00000 F2400.00000
G92 E0
G1 X88.389 Y91.383 F7800.000
G1 E2.00000 F2400.00000
G1 F1800
G1 X91.076 Y89.191 E2.31531
G1 X92.291 Y88.407 E2.44679
G1 X92.927 Y88.101 E2.51095
G1 X97.848 Y85.978 E2.99833
G1 X109.360 Y81.680 E4.11562
G1 X110.288 Y81.409 E4.20362
G1 X116.735 Y80.027 E4.80309
G1 X117.710 Y79.893 E4.89257
G1 X125.247 Y79.424 E5.57929
G1 X141.977 Y78.810 E7.10156
G1 X142.527 Y78.806 E7.15156
G1 X144.786 Y79.203 E7.36010
G1 X146.774 Y80.346 E7.56865
G1 X148.253 Y82.099 E7.77719
G1 X149.023 Y84.131 E7.97483
G1 X149.177 Y84.899 E8.04599
G1 X149.305 Y86.140 E8.15945
G1 X149.459 Y104.770 E9.85350
G1 X149.416 Y105.527 E9.92247
G1 X147.420 Y122.870 E11.50988
G1 X146.768 Y125.069 E11.71842
G1 X145.584 Y126.736 E11.90431
G1 X145.370 Y126.952 E11.93199
G1 X143.492 Y128.268 E12.14054
G1 X140.899 Y128.889 E12.38298
G1 X69.315 Y131.194 E18.89546
G1 X67.625 Y131.194 E19.04907
G1 X65.367 Y130.797 E19.25761
G1 X63.379 Y129.653 E19.46615
G1 X61.701 Y127.532 E19.71205
G1 X61.547 Y127.225 E19.74326
G1 X60.867 Y124.771 E19.97488
G1 X60.560 Y120.780 E20.33882
G1 X60.541 Y120.272 E20.38505
G1 X60.541 Y119.197 E20.48276
G1 X60.938 Y116.938 E20.69130
G1 X62.481 Y114.513 E20.95271
G1 X62.911 Y114.099 E21.00694
G1 X88.344 Y91.423 E24.10532
G1 E22.10532 F2400.00000
G92 E0
G1 X136.980 Y118.800 F7800.000
G1 E2.00000 F2400.00000
G1 F1800
G1 X139.239 Y118.801 E2.20546
G1 X139.239 Y120.667 E2.37517
G1 X115.619 Y120.667 E4.52294
G1 X115.465 Y120.821 E4.54268
G1 X107.945 Y120.821 E5.22654
G1 X107.791 Y120.974 E5.24628
G1 X102.725 Y120.974 E5.70692
G1 X102.572 Y121.128 E5.72665
G1 X100.538 Y121.128 E5.91160
G1 X100.539 Y118.864 E6.11748
G1 X98.121 Y121.281 E6.42837
G1 X96.279 Y121.281 E6.59586
G1 X96.126 Y121.435 E6.61560
G1 X93.056 Y121.435 E6.89475
G1 X92.902 Y121.588 E6.91448
G1 X89.680 Y121.588 E7.20752
G1 X89.526 Y121.742 E7.22726
G1 X84.921 Y121.742 E7.64602
G1 X84.768 Y121.895 E7.66574
G1 X82.312 Y121.895 E7.88905
G1 X82.158 Y122.049 E7.90877
G1 X79.703 Y122.049 E8.13205
G1 X79.549 Y122.202 E8.15179
G1 X77.246 Y122.202 E8.36119
G1 X77.093 Y122.356 E8.38092
G1 X74.945 Y122.356 E8.57628
G1 X74.791 Y122.509 E8.59602
G1 X72.643 Y122.509 E8.79138
G1 X72.489 Y122.663 E8.81112
G1 X70.494 Y122.663 E8.99258
G1 X70.340 Y122.816 E9.01231
G1 X69.226 Y122.816 E9.11361
G1 X69.226 Y122.663 E9.12757
G1 X69.073 Y122.663 E9.14153
G1 X69.073 Y120.644 E9.32511
G1 X69.670 Y120.644 E9.37938
G1 X69.823 Y120.490 E9.39914
G1 X71.819 Y120.490 E9.58057
G1 X71.972 Y120.337 E9.60032
G1 X73.968 Y120.337 E9.78176
G1 X74.121 Y120.183 E9.80150
G1 X76.116 Y120.183 E9.98290
G1 X76.270 Y120.030 E10.00265
G1 X78.112 Y120.030 E10.17018
G1 X78.266 Y119.876 E10.18991
G1 X79.493 Y119.876 E10.30152
G1 X79.647 Y119.723 E10.32126
G1 X82.102 Y119.723 E10.54450
G1 X82.255 Y119.569 E10.56426
G1 X84.712 Y119.569 E10.78761
G1 X84.865 Y119.416 E10.80735
G1 X87.628 Y119.416 E11.05853
G1 X87.781 Y119.262 E11.07827
G1 X90.544 Y119.262 E11.32950
G1 X90.698 Y119.109 E11.34924
G1 X93.921 Y119.109 E11.64232
G1 X94.074 Y118.955 E11.66206
G1 X95.165 Y118.955 E11.76125
G1 X95.165 Y115.142 E12.10801
G1 X95.012 Y115.142 E12.12196
G1 X95.012 Y111.612 E12.44296
G1 X94.858 Y111.612 E12.45692
G1 X94.858 Y108.082 E12.77791
G1 X94.705 Y108.082 E12.79186
G1 X94.705 Y104.551 E13.11286
G1 X94.551 Y104.551 E13.12681
G1 X94.551 Y101.175 E13.43385
G1 X94.398 Y101.175 E13.44781
G1 X94.398 Y98.081 E13.72909
G1 X94.629 Y98.081 E13.75014
G1 X94.786 Y97.507 E13.80428
G1 X95.319 Y97.335 E13.85518
G1 X95.319 Y96.684 E13.91442
G1 X95.763 Y96.239 E13.97155
G1 X96.570 Y96.240 E14.04495
G1 X96.570 Y96.546 E14.07286
G1 X98.986 Y96.546 E14.29254
G1 X99.446 Y96.086 E14.35175
G1 X99.753 Y96.086 E14.37967
G1 X101.902 Y93.937 E14.65598
G1 X102.363 Y93.937 E14.69786
G1 X102.516 Y93.784 E14.71760
G1 X103.168 Y93.784 E14.77683
G1 X103.332 Y93.275 E14.82540
G1 X103.437 Y93.170 E14.83898
G1 X105.586 Y93.170 E15.03437
G1 X105.739 Y93.016 E15.05410
G1 X107.928 Y93.016 E15.25312
G1 X107.928 Y95.279 E15.45885
G1 X111.281 Y91.926 E15.89003
G1 X111.281 Y91.466 E15.93188
G1 X111.725 Y91.021 E15.98903
G1 X114.488 Y91.021 E16.24023
G1 X114.988 Y90.521 E16.30457
G1 X114.988 Y92.056 E16.44415
G1 X115.296 Y91.749 E16.48365
G1 X115.296 Y92.056 E16.51156
G1 X117.251 Y90.100 E16.76300
G1 X118.058 Y90.100 E16.83640
G1 X118.058 Y92.823 E17.08399
G1 X118.672 Y92.209 E17.16294
G1 X118.672 Y92.976 E17.23272
G1 X121.128 Y90.521 E17.54851
G1 X121.128 Y92.422 E17.72140
G1 X123.553 Y89.947 E18.03653
G1 X124.788 Y89.947 E18.14879
G1 X124.788 Y89.179 E18.21857
G1 X125.402 Y89.179 E18.27439
G1 X125.402 Y89.026 E18.28835
G1 X125.886 Y89.026 E18.33237
G1 X125.886 Y89.333 E18.36028
G1 X127.267 Y89.333 E18.48589
G1 X127.267 Y89.486 E18.49984
G1 X127.728 Y89.486 E18.54171
G1 X127.728 Y89.793 E18.56963
G1 X129.416 Y89.793 E18.72315
G1 X129.416 Y89.947 E18.73710
G1 X130.183 Y89.947 E18.80688
G1 X130.183 Y92.362 E19.02655
G1 X132.124 Y90.422 E19.27610
G1 X133.255 Y90.368 E19.37902
G1 X133.523 Y90.100 E19.41347
G1 X134.174 Y90.100 E19.47271
G1 X134.174 Y92.976 E19.73425
G1 X136.590 Y90.561 E20.04491
G1 X136.743 Y90.561 E20.05886
G1 X136.897 Y90.407 E20.07860
G1 X137.711 Y90.407 E20.15261
G1 X137.855 Y89.947 E20.19650
G1 X138.755 Y89.947 E20.27828
G1 X138.755 Y89.486 E20.32015
G1 X139.700 Y89.486 E20.40604
G1 X139.700 Y89.874 E20.44127
G1 X140.927 Y88.661 E20.59821
G1 X140.927 Y90.865 E20.79864
G1 X141.276 Y90.865 E20.83038
G1 X140.927 Y91.215 E20.87526
G1 X140.927 Y94.091 E21.13684
G1 X141.081 Y94.091 E21.15079
G1 X141.081 Y104.876 E22.13149
G1 X140.927 Y105.031 E22.15129
G1 X140.927 Y105.949 E22.23482
G1 X140.774 Y106.103 E22.25457
G1 X140.774 Y107.024 E22.33829
G1 X140.620 Y107.178 E22.35805
G1 X140.620 Y108.100 E22.44196
G1 X140.467 Y108.255 E22.46178
G1 X140.467 Y109.173 E22.54526
G1 X140.313 Y109.327 E22.56503
G1 X140.313 Y110.247 E22.64866
G1 X140.160 Y110.401 E22.66841
G1 X140.160 Y110.860 E22.71022
G1 X140.006 Y111.014 E22.72996
G1 X140.006 Y111.783 E22.79986
G1 X139.853 Y111.936 E22.81962
G1 X139.853 Y112.856 E22.90323
G1 X139.699 Y113.009 E22.92297
G1 X139.700 Y113.778 E22.99283
G1 X139.546 Y113.932 E23.01259
G1 X139.546 Y115.005 E23.11020
G1 X139.393 Y115.159 E23.12994
G1 X139.393 Y116.386 E23.24155
G1 X137.022 Y118.757 E23.54643
G1 X138.487 Y118.176 F7800.000
G1 F1800
G1 X139.864 Y118.176 E23.67163
G1 X139.864 Y121.292 E23.95495
G1 X115.878 Y121.292 E26.13601
G1 X115.724 Y121.446 E26.15576
G1 X108.203 Y121.446 E26.83961
G1 X108.050 Y121.599 E26.85936
G1 X102.984 Y121.599 E27.31997
G1 X102.831 Y121.753 E27.33969
G1 X99.913 Y121.753 E27.60505
G1 X99.913 Y120.373 E27.73050
G1 X98.380 Y121.906 E27.92766
G1 X96.538 Y121.906 E28.09516
G1 X96.385 Y122.060 E28.11489
G1 X93.315 Y122.060 E28.39403
G1 X93.161 Y122.213 E28.41376
G1 X89.938 Y122.213 E28.70682
G1 X89.785 Y122.367 E28.72656
G1 X85.180 Y122.367 E29.14529
G1 X85.027 Y122.520 E29.16502
G1 X82.571 Y122.520 E29.38833
G1 X82.417 Y122.674 E29.40805
G1 X79.962 Y122.674 E29.63135
G1 X79.808 Y122.827 E29.65108
G1 X77.506 Y122.827 E29.86047
G1 X77.352 Y122.981 E29.88020
G1 X75.204 Y122.981 E30.07557
G1 X75.050 Y123.134 E30.09531
G1 X72.902 Y123.134 E30.29068
G1 X72.748 Y123.288 E30.31042
G1 X70.752 Y123.288 E30.49187
G1 X70.599 Y123.441 E30.51160
G1 X70.136 Y123.441 E30.55370
G1 X68.601 Y123.441 E30.69327
G1 X68.601 Y123.288 E30.70722
G1 X68.448 Y123.288 E30.72118
G1 X68.448 Y121.292 E30.90262
G1 X68.294 Y121.292 E30.91657
G1 X68.294 Y120.019 E31.03236
G1 X69.411 Y120.019 E31.13390
G1 X69.565 Y119.865 E31.15365
G1 X71.560 Y119.865 E31.33508
G1 X71.714 Y119.712 E31.35483
G1 X73.709 Y119.712 E31.53626
G1 X73.862 Y119.558 E31.55601
G1 X75.858 Y119.558 E31.73742
G1 X76.011 Y119.405 E31.75717
G1 X77.853 Y119.405 E31.92467
G1 X78.007 Y119.251 E31.94440
G1 X79.234 Y119.251 E32.05602
G1 X79.388 Y119.098 E32.07577
G1 X81.843 Y119.098 E32.29902
G1 X81.997 Y118.944 E32.31878
G1 X84.453 Y118.944 E32.54210
G1 X84.606 Y118.791 E32.56184
G1 X87.369 Y118.791 E32.81304
G1 X87.523 Y118.637 E32.83278
G1 X90.285 Y118.637 E33.08400
G1 X90.439 Y118.484 E33.10374
G1 X93.662 Y118.484 E33.39682
G1 X93.816 Y118.330 E33.41656
G1 X94.540 Y118.330 E33.48246
G1 X94.540 Y115.767 E33.71557
G1 X94.387 Y115.767 E33.72953
G1 X94.387 Y112.237 E34.05053
G1 X94.233 Y112.237 E34.06448
G1 X94.233 Y108.706 E34.38548
G1 X94.080 Y108.706 E34.39943
G1 X94.080 Y105.176 E34.72043
G1 X93.926 Y105.176 E34.73438
G1 X93.926 Y101.800 E35.04142
G1 X93.773 Y101.800 E35.05538
G1 X93.773 Y98.269 E35.37641
G1 X93.619 Y98.269 E35.39036
G1 X93.619 Y97.456 E35.46425
G1 X94.152 Y97.456 E35.51268
G1 X94.272 Y97.016 E35.55419
G1 X94.694 Y96.880 E35.59448
G1 X94.694 Y96.425 E35.63587
G1 X95.154 Y95.964 E35.69509
G1 X95.154 Y95.811 E35.70904
G1 X95.351 Y95.615 E35.73429
G1 X97.195 Y95.615 E35.90201
G1 X97.195 Y95.922 E35.92992
G1 X98.727 Y95.922 E36.06924
G1 X99.188 Y95.461 E36.12845
G1 X99.495 Y95.461 E36.15636
G1 X101.643 Y93.312 E36.43268
G1 X102.104 Y93.312 E36.47456
G1 X102.257 Y93.159 E36.49429
G1 X102.713 Y93.159 E36.53568
G1 X102.861 Y92.698 E36.57967
G1 X103.025 Y92.698 E36.59457
G1 X103.178 Y92.545 E36.61431
G1 X105.327 Y92.545 E36.80970
G1 X105.481 Y92.391 E36.82944
G1 X107.936 Y92.391 E37.05274
G1 X108.090 Y92.238 E37.07247
G1 X108.553 Y92.238 E37.11459
G1 X108.553 Y93.770 E37.25391
G1 X110.656 Y91.667 E37.52438
G1 X110.656 Y91.207 E37.56622
G1 X111.927 Y89.936 E37.72964
G1 X112.237 Y89.936 E37.75781
G1 X112.237 Y90.243 E37.78572
G1 X112.390 Y90.243 E37.79968
G1 X112.390 Y90.396 E37.81364
G1 X114.229 Y90.396 E37.98087
G1 X114.997 Y89.629 E38.07955
G1 X115.613 Y89.629 E38.13562
G1 X115.613 Y90.547 E38.21912
G1 X115.920 Y90.240 E38.25861
G1 X115.920 Y90.547 E38.28652
G1 X116.992 Y89.475 E38.42433
G1 X118.683 Y89.475 E38.57809
G1 X118.683 Y91.314 E38.74532
G1 X119.297 Y90.700 E38.82427
G1 X119.297 Y91.468 E38.89405
G1 X121.443 Y89.322 E39.17003
G1 X121.753 Y89.322 E39.19819
G1 X121.753 Y90.891 E39.34092
G1 X123.291 Y89.322 E39.54074
G1 X124.163 Y89.322 E39.62005
G1 X124.163 Y88.554 E39.68983
G1 X124.777 Y88.554 E39.74566
G1 X124.777 Y88.401 E39.75961
G1 X126.511 Y88.401 E39.91728
G1 X126.511 Y88.708 E39.94519
G1 X127.892 Y88.708 E40.07080
G1 X127.892 Y88.861 E40.08475
G1 X128.353 Y88.861 E40.12662
G1 X128.353 Y89.168 E40.15453
G1 X130.041 Y89.168 E40.30805
G1 X130.041 Y89.322 E40.32201
G1 X130.808 Y89.322 E40.39179
G1 X130.808 Y90.854 E40.53111
G1 X131.853 Y89.809 E40.66544
G1 X132.984 Y89.755 E40.76836
G1 X133.571 Y89.168 E40.84386
G1 X134.338 Y89.167 E40.91360
G1 X134.338 Y89.475 E40.94163
G1 X134.799 Y89.475 E40.98357
G1 X134.799 Y91.468 E41.16475
G1 X136.331 Y89.936 E41.36178
G1 X136.485 Y89.936 E41.37573
G1 X136.638 Y89.782 E41.39547
G1 X137.252 Y89.782 E41.45131
G1 X137.397 Y89.322 E41.49520
G1 X138.130 Y89.322 E41.56187
G1 X138.130 Y89.058 E41.58588
G1 X138.326 Y88.861 E41.61113
G1 X139.051 Y88.861 E41.67702
G1 X139.051 Y88.137 E41.74284
G1 X139.403 Y87.787 E41.78802
G1 X140.324 Y87.787 E41.87179
G1 X140.324 Y88.378 E41.92553
G1 X141.552 Y87.165 E42.08248
G1 X141.552 Y90.241 E42.36217
G1 X141.706 Y90.241 E42.37613
G1 X141.706 Y91.320 E42.47421
G1 X141.552 Y91.473 E42.49395
G1 X141.552 Y93.466 E42.67515
G1 X141.706 Y93.466 E42.68911
G1 X141.706 Y105.134 E43.75011
G1 X141.552 Y105.289 E43.76990
G1 X141.552 Y106.208 E43.85349
G1 X141.399 Y106.362 E43.87323
G1 X141.399 Y107.282 E43.95695
G1 X141.245 Y107.436 E43.97671
G1 X141.245 Y108.358 E44.06051
G1 X141.092 Y108.512 E44.08034
G1 X141.092 Y109.431 E44.16389
G1 X140.938 Y109.585 E44.18366
G1 X140.938 Y110.506 E44.26733
G1 X140.785 Y110.659 E44.28708
G1 X140.785 Y111.119 E44.32892
G1 X140.631 Y111.273 E44.34865
G1 X140.631 Y112.041 E44.41851
G1 X140.478 Y112.195 E44.43827
G1 X140.478 Y113.115 E44.52191
G1 X140.324 Y113.268 E44.54165
G1 X140.324 Y114.036 E44.61148
G1 X140.171 Y114.190 E44.63124
G1 X140.171 Y115.264 E44.72887
G1 X140.017 Y115.417 E44.74861
G1 X140.017 Y116.645 E44.86024
G1 X138.529 Y118.133 E45.05160
G1 X139.994 Y117.552 F7800.000
G1 F1800
G1 X140.642 Y117.552 E45.11051
G1 X140.642 Y118.285 E45.17715
G1 X140.489 Y118.439 E45.19692
G1 X140.489 Y121.917 E45.51320
G1 X116.136 Y121.917 E47.72757
G1 X115.983 Y122.071 E47.74731
G1 X108.462 Y122.071 E48.43116
G1 X108.309 Y122.224 E48.45090
G1 X103.243 Y122.224 E48.91149
G1 X103.090 Y122.378 E48.93121
G1 X99.867 Y122.378 E49.22426
G1 X99.713 Y122.531 E49.24402
G1 X99.287 Y122.531 E49.28275
G1 X99.288 Y121.882 E49.34174
G1 X98.639 Y122.531 E49.42517
G1 X96.797 Y122.531 E49.59266
G1 X96.643 Y122.685 E49.61240
G1 X93.574 Y122.685 E49.89153
G1 X93.420 Y122.838 E49.91126
G1 X90.197 Y122.838 E50.20433
G1 X90.044 Y122.992 E50.22407
G1 X85.439 Y122.992 E50.64278
G1 X85.286 Y123.145 E50.66251
G1 X82.830 Y123.145 E50.88582
G1 X82.676 Y123.298 E50.90554
G1 X80.221 Y123.298 E51.12885
G1 X80.067 Y123.452 E51.14859
G1 X77.765 Y123.452 E51.35796
G1 X77.611 Y123.605 E51.37768
G1 X75.463 Y123.605 E51.57307
G1 X75.309 Y123.759 E51.59281
G1 X73.160 Y123.759 E51.78819
G1 X73.007 Y123.912 E51.80792
G1 X71.011 Y123.912 E51.98937
G1 X70.858 Y124.066 E52.00910
G1 X68.863 Y124.066 E52.19053
G1 X68.709 Y124.219 E52.21027
G1 X67.976 Y124.219 E52.27691
G1 X67.976 Y123.912 E52.30482
G1 X67.823 Y123.912 E52.31878
G1 X67.823 Y121.917 E52.50022
G1 X67.669 Y121.917 E52.51417
G1 X67.669 Y119.922 E52.69560
G1 X67.516 Y119.922 E52.70956
G1 X67.516 Y119.394 E52.75756
G1 X69.152 Y119.394 E52.90636
G1 X69.306 Y119.240 E52.92612
G1 X71.301 Y119.240 E53.10754
G1 X71.455 Y119.087 E53.12729
G1 X73.450 Y119.087 E53.30871
G1 X73.604 Y118.933 E53.32846
G1 X75.599 Y118.933 E53.50988
G1 X75.753 Y118.780 E53.52963
G1 X77.594 Y118.780 E53.69710
G1 X77.748 Y118.626 E53.71684
G1 X78.976 Y118.627 E53.82847
G1 X79.129 Y118.473 E53.84822
G1 X81.585 Y118.473 E54.07149
G1 X81.738 Y118.320 E54.09125
G1 X84.194 Y118.320 E54.31454
G1 X84.348 Y118.166 E54.33428
G1 X87.110 Y118.166 E54.58549
G1 X87.264 Y118.013 E54.60524
G1 X90.027 Y118.013 E54.85645
G1 X90.180 Y117.859 E54.87619
G1 X93.403 Y117.859 E55.16927
G1 X93.557 Y117.706 E55.18901
G1 X93.915 Y117.706 E55.22161
G1 X93.915 Y116.392 E55.34109
G1 X93.762 Y116.392 E55.35505
G1 X93.762 Y112.861 E55.67604
G1 X93.608 Y112.861 E55.69000
G1 X93.608 Y109.331 E56.01099
G1 X93.455 Y109.331 E56.02494
G1 X93.455 Y105.801 E56.34594
G1 X93.301 Y105.801 E56.35989
G1 X93.301 Y102.425 E56.66693
G1 X93.148 Y102.425 E56.68089
G1 X93.148 Y98.894 E57.00192
G1 X92.994 Y98.894 E57.01587
G1 X92.994 Y96.832 E57.20341
G1 X93.675 Y96.832 E57.26525
G1 X93.758 Y96.525 E57.29415
G1 X94.069 Y96.425 E57.32382
G1 X94.069 Y96.166 E57.34736
G1 X94.529 Y95.706 E57.40658
G1 X94.529 Y95.552 E57.42053
G1 X95.399 Y94.683 E57.53233
G1 X95.552 Y94.683 E57.54628
G1 X95.706 Y94.529 E57.56602
G1 X95.978 Y94.529 E57.59078
G1 X95.978 Y94.836 E57.61870
G1 X96.132 Y94.836 E57.63266
G1 X96.132 Y94.990 E57.64662
G1 X96.933 Y94.990 E57.71953
G1 X97.087 Y94.836 E57.73927
G1 X97.240 Y94.836 E57.75323
G1 X97.394 Y94.683 E57.77297
G1 X97.820 Y94.683 E57.81170
G1 X97.820 Y95.297 E57.86753
G1 X98.468 Y95.297 E57.92649
G1 X98.929 Y94.836 E57.98570
G1 X99.236 Y94.836 E58.01361
G1 X100.089 Y93.983 E58.12337
G1 X99.901 Y93.983 E58.14046
G1 X99.901 Y93.250 E58.20710
G1 X100.617 Y92.534 E58.29916
G1 X101.197 Y92.534 E58.35185
G1 X101.197 Y92.687 E58.36580
G1 X101.845 Y92.687 E58.42477
G1 X101.999 Y92.534 E58.44450
G1 X102.257 Y92.534 E58.46804
G1 X102.356 Y92.227 E58.49733
