; generated by Slic3r 1.3.0-dev on 2017-08-18 at 22:19:16

; external perimeters extrusion width = 0.40mm (1.14mm^3/s)
; perimeters extrusion width = 0.68mm (3.95mm^3/s)
; infill extrusion width = 1.20mm (9.43mm^3/s)
; solid infill extrusion width = 0.68mm (1.32mm^3/s)
; top infill extrusion width = 0.68mm (0.99mm^3/s)
; support material extrusion width = 0.40mm (2.27mm^3/s)

M107
M190 S66 ; set bed temperature and wait for it to be reached
M104 S215 ; set temperature
G28 ; home all axes
G1 Z5 F5000 ; lift nozzle

; Filament gcode

M109 S215 ; set temperature and wait for it to be reached
G21 ; set units to millimeters
G90 ; use absolute coordinates
M82 ; use absolute distances for extrusion
G92 E0
G1 Z0.350 F7800.000
G1 E-2.00000 F2400.00000
G92 E0
G1 X78.828 Y84.221 F7800.000
G1 E2.00000 F2400.00000
G1 F1800
G1 X80.661 Y82.842 E2.20854
G1 X83.152 Y82.140 E2.44383
G1 X84.306 Y82.050 E2.54912
G1 X84.950 Y82.030 E2.60776
G1 X86.039 Y82.120 E2.70709
G1 X86.973 Y82.276 E2.79321
G1 X94.271 Y83.590 E3.46749
G1 X96.632 Y84.032 E3.68588
G1 X104.956 Y85.639 E4.45676
G1 X107.897 Y86.227 E4.72949
G1 X112.935 Y87.264 E5.19713
G1 X118.325 Y88.429 E5.69857
G1 X123.807 Y89.652 E6.20930
G1 X124.388 Y89.802 E6.26390
G1 X125.611 Y90.252 E6.38237
G1 X125.901 Y90.392 E6.41171
G1 X126.405 Y90.664 E6.46375
G1 X130.771 Y93.272 E6.92618
G1 X131.712 Y93.911 E7.02961
G1 X133.105 Y95.286 E7.20761
G1 X135.720 Y98.773 E7.60394
G1 X136.758 Y100.818 E7.81248
G1 X137.027 Y102.261 E7.94593
G1 X136.902 Y104.191 E8.12180
G1 X134.087 Y117.304 E9.34131
G1 X133.225 Y119.429 E9.54985
G1 X132.161 Y120.728 E9.70248
G1 X128.167 Y124.494 E10.20167
G1 X127.257 Y125.272 E10.31055
G1 X126.131 Y126.030 E10.43397
G1 X123.952 Y127.190 E10.65838
G1 X121.066 Y127.964 E10.93011
G1 X120.255 Y127.970 E11.00382
G1 X119.474 Y127.924 E11.07498
G1 X84.212 Y123.737 E14.30384
G1 X81.326 Y122.675 E14.58352
G1 X78.790 Y120.989 E14.86040
G1 X78.062 Y120.428 E14.94400
G1 X75.190 Y117.881 E15.29302
G1 X73.764 Y116.085 E15.50156
G1 X73.115 Y114.343 E15.67058
G1 X73.005 Y112.015 E15.88244
G1 X73.309 Y109.785 E16.08714
G1 X77.123 Y87.633 E18.13105
G1 X77.900 Y85.475 E18.33959
G1 X78.790 Y84.267 E18.47604
G1 E16.47604 F2400.00000
G92 E0
G1 X121.707 Y117.857 F7800.000
G1 E2.00000 F2400.00000
G1 F1800
G1 X121.707 Y118.545 E2.06264
G1 X120.561 Y118.292 E2.16931
G1 X120.318 Y119.449 E2.27691
G1 X119.947 Y119.422 E2.31068
G1 X119.944 Y119.164 E2.33412
G1 X119.229 Y119.164 E2.39916
G1 X119.228 Y119.019 E2.41238
G1 X118.653 Y119.019 E2.46466
G1 X118.652 Y118.874 E2.47787
G1 X117.608 Y118.874 E2.57278
G1 X117.304 Y118.836 E2.60068
G1 X117.301 Y118.757 E2.60785
G1 X116.621 Y118.704 E2.66987
G1 X116.621 Y118.551 E2.68370
G1 X115.337 Y118.456 E2.80076
G1 X114.732 Y118.367 E2.85638
G1 X114.731 Y118.002 E2.88956
G1 X114.139 Y118.002 E2.94340
G1 X114.137 Y117.857 E2.95657
G1 X112.870 Y117.857 E3.07182
G1 X112.468 Y116.951 E3.16192
G1 X111.444 Y117.591 E3.27172
G1 X110.478 Y117.557 E3.35962
G1 X110.217 Y117.512 E3.38369
G1 X110.213 Y117.130 E3.41844
G1 X109.649 Y117.130 E3.46975
G1 X109.649 Y116.985 E3.48294
G1 X108.922 Y116.985 E3.54908
G1 X108.921 Y116.840 E3.56224
G1 X107.422 Y116.840 E3.69858
G1 X106.800 Y115.970 E3.79580
G1 X106.338 Y116.259 E3.84536
G1 X105.434 Y116.259 E3.92750
G1 X105.434 Y116.205 E3.93239
G1 X103.838 Y116.110 E4.07777
G1 X103.838 Y115.984 E4.08928
G1 X103.112 Y115.883 E4.15589
G1 X103.112 Y115.573 E4.18406
G1 X101.660 Y115.536 E4.31613
G1 X101.660 Y115.241 E4.34296
G1 X100.484 Y115.241 E4.44988
G1 X100.484 Y115.187 E4.45482
G1 X99.474 Y115.127 E4.54684
G1 X99.472 Y114.806 E4.57606
G1 X98.215 Y114.806 E4.69033
G1 X97.627 Y113.414 E4.82771
G1 X96.438 Y114.604 E4.98064
G1 X95.702 Y114.477 E5.04852
G1 X95.702 Y114.079 E5.08468
G1 X94.977 Y114.079 E5.15065
G1 X94.977 Y113.981 E5.15960
G1 X93.499 Y113.937 E5.29405
G1 X93.493 Y113.643 E5.32072
G1 X92.654 Y113.643 E5.39706
G1 X92.654 Y113.498 E5.41028
G1 X91.913 Y113.498 E5.47768
G1 X91.912 Y113.352 E5.49092
G1 X91.053 Y113.352 E5.56901
G1 X91.053 Y113.207 E5.58220
G1 X90.325 Y113.207 E5.64835
G1 X90.325 Y113.062 E5.66155
G1 X89.601 Y113.062 E5.72733
G1 X89.601 Y112.917 E5.74054
G1 X88.728 Y112.917 E5.81994
G1 X88.728 Y112.771 E5.83316
G1 X87.992 Y112.771 E5.90006
G1 X87.991 Y112.626 E5.91328
G1 X84.010 Y112.626 E6.27535
G1 X84.044 Y113.474 E6.35256
G1 X83.582 Y113.588 E6.39582
G1 X83.660 Y112.768 E6.47074
G1 X82.775 Y112.768 E6.55124
G1 X82.775 Y112.438 E6.58122
G1 X81.755 Y112.268 E6.67524
G1 X81.755 Y112.091 E6.69129
G1 X81.323 Y111.939 E6.73293
G1 X81.382 Y111.484 E6.77461
G1 X81.573 Y111.293 E6.79926
G1 X81.638 Y110.139 E6.90434
G1 X81.675 Y109.883 E6.92784
G1 X81.890 Y109.668 E6.95551
G1 X81.896 Y108.936 E7.02204
G1 X82.046 Y108.786 E7.04138
G1 X82.046 Y108.060 E7.10738
G1 X82.133 Y107.973 E7.11856
G1 X82.205 Y107.170 E7.19188
G1 X82.232 Y107.143 E7.19534
G1 X82.289 Y106.364 E7.26633
G1 X82.482 Y106.171 E7.29115
G1 X82.482 Y105.590 E7.34400
G1 X82.627 Y105.444 E7.36269
G1 X82.627 Y104.717 E7.42886
G1 X82.772 Y104.571 E7.44758
G1 X82.772 Y103.842 E7.51385
G1 X82.918 Y103.695 E7.53262
G1 X82.918 Y102.975 E7.59816
G1 X83.063 Y102.829 E7.61685
G1 X83.063 Y102.102 E7.68293
G1 X83.206 Y101.959 E7.70138
G1 X83.208 Y101.233 E7.76738
G1 X83.306 Y101.135 E7.77999
G1 X83.422 Y99.703 E7.91062
G1 X83.642 Y99.478 E7.93931
G1 X83.644 Y98.764 E8.00422
G1 X83.753 Y98.655 E8.01818
G1 X83.822 Y97.421 E8.13062
G1 X84.080 Y97.162 E8.16386
G1 X84.080 Y96.291 E8.24301
G1 X84.206 Y96.165 E8.25927
G1 X84.240 Y95.002 E8.36508
G1 X84.288 Y94.630 E8.39912
G1 X84.516 Y94.402 E8.42849
G1 X84.516 Y93.676 E8.49446
G1 X84.624 Y93.568 E8.50843
G1 X84.688 Y92.434 E8.61164
G1 X84.723 Y92.161 E8.63673
G1 X84.966 Y91.918 E8.66792
G1 X84.952 Y91.268 E8.72702
G1 X85.003 Y91.225 E8.73311
G1 X85.090 Y90.554 E8.79467
G1 X85.845 Y90.629 E8.86362
G1 X85.846 Y90.717 E8.87167
G1 X86.691 Y90.759 E8.94856
G1 X86.691 Y90.981 E8.96877
G1 X87.418 Y90.981 E9.03492
G1 X87.418 Y91.126 E9.04814
G1 X88.290 Y91.126 E9.12740
G1 X88.290 Y91.271 E9.14056
G1 X89.017 Y91.271 E9.20663
G1 X89.017 Y91.467 E9.22443
G1 X89.721 Y91.445 E9.28847
G1 X89.708 Y91.562 E9.29918
G1 X90.615 Y91.562 E9.38161
G1 X90.615 Y91.707 E9.39480
G1 X92.049 Y91.708 E9.52520
G1 X92.962 Y91.853 E9.60933
G1 X92.965 Y92.024 E9.62485
G1 X93.811 Y92.066 E9.70187
G1 X93.811 Y92.288 E9.72210
G1 X94.538 Y92.289 E9.78816
G1 X94.538 Y92.434 E9.80139
G1 X95.584 Y92.434 E9.89652
G1 X96.329 Y92.526 E9.96479
G1 X96.349 Y92.661 E9.97726
G1 X96.862 Y92.677 E10.02396
G1 X96.862 Y92.870 E10.04150
G1 X97.589 Y92.870 E10.10755
G1 X97.589 Y93.015 E10.12076
G1 X98.315 Y93.015 E10.18682
G1 X98.315 Y93.157 E10.19969
G1 X99.040 Y93.158 E10.26564
G1 X99.040 Y93.306 E10.27910
G1 X100.023 Y93.306 E10.36847
G1 X101.366 Y93.461 E10.49140
G1 X101.366 Y93.724 E10.51531
G1 X102.092 Y93.730 E10.58132
G1 X102.092 Y93.884 E10.59534
G1 X102.818 Y93.885 E10.66138
G1 X102.818 Y94.032 E10.67474
G1 X103.546 Y94.032 E10.74087
G1 X103.546 Y94.177 E10.75406
G1 X104.272 Y94.177 E10.82010
G1 X104.272 Y94.329 E10.83390
G1 X104.998 Y94.327 E10.89997
G1 X104.998 Y94.439 E10.91018
G1 X105.580 Y94.450 E10.96303
G1 X105.580 Y94.596 E10.97632
G1 X106.892 Y94.606 E11.09570
G1 X107.761 Y94.758 E11.17589
G1 X107.761 Y94.774 E11.17741
G1 X109.212 Y95.050 E11.31164
G1 X109.212 Y95.071 E11.31357
G1 X110.518 Y95.299 E11.43420
G1 X111.246 Y95.459 E11.50193
G1 X111.246 Y95.654 E11.51968
G1 X112.553 Y95.758 E11.63895
G1 X112.553 Y96.066 E11.66702
G1 X113.280 Y96.066 E11.73307
G1 X113.280 Y96.199 E11.74517
G1 X114.006 Y96.205 E11.81124
G1 X114.006 Y96.317 E11.82141
G1 X114.588 Y96.327 E11.87426
G1 X114.588 Y96.502 E11.89014
G1 X115.314 Y96.502 E11.95619
G1 X115.314 Y96.685 E11.97278
G1 X115.611 Y96.678 E11.99981
G1 X115.602 Y96.732 E12.00479
G1 X117.413 Y96.791 E12.16955
G1 X119.237 Y97.185 E12.33923
G1 X119.237 Y97.512 E12.36898
G1 X119.556 Y97.513 E12.39800
G1 X119.531 Y97.668 E12.41223
G1 X120.544 Y97.667 E12.50441
G1 X120.544 Y97.795 E12.51610
G1 X121.126 Y97.800 E12.56895
G1 X121.126 Y97.956 E12.58307
G1 X121.416 Y97.956 E12.60950
G1 X121.417 Y98.599 E12.66802
G1 X122.309 Y98.565 E12.74925
G1 X122.671 Y99.045 E12.80397
G1 X122.853 Y99.085 E12.82092
G1 X123.140 Y99.547 E12.87027
G1 X124.895 Y99.557 E13.02991
G1 X125.025 Y99.608 E13.04261
G1 X125.253 Y99.951 E13.08003
G1 X126.088 Y100.119 E13.15742
G1 X126.224 Y100.906 E13.22998
G1 X126.667 Y101.348 E13.28694
G1 X126.740 Y101.582 E13.30916
G1 X127.098 Y101.928 E13.35445
G1 X127.125 Y102.017 E13.36290
G1 X127.586 Y102.645 E13.43379
G1 X126.400 Y103.700 E13.57815
G1 X125.709 Y101.750 E13.76625
G1 X124.050 Y106.397 E14.21489
G1 X123.909 Y106.952 E14.26697
G1 X123.286 Y108.937 E14.45616
G1 X123.713 Y109.094 E14.49754
G1 X123.789 Y109.884 E14.56976
G1 X123.203 Y110.475 E14.64538
G1 X123.717 Y111.900 E14.78310
G1 X124.171 Y112.363 E14.84209
G1 X123.396 Y113.668 E14.98007
G1 X125.050 Y114.053 E15.13455
G1 X125.056 Y115.096 E15.22937
G1 X124.611 Y115.098 E15.26983
G1 X122.157 Y116.538 E15.52860
G1 X122.512 Y116.893 E15.57431
G1 X121.903 Y117.395 E15.64604
G1 X122.209 Y117.857 E15.69636
G1 X121.767 Y117.857 E15.73657
G1 X122.332 Y118.481 F7800.000
G1 F1800
G1 X122.332 Y119.324 E15.81319
G1 X121.043 Y119.038 E15.93323
G1 X120.822 Y120.088 E16.03075
G1 X120.646 Y120.234 E16.05160
G1 X119.911 Y120.126 E16.11908
G1 X119.910 Y120.046 E16.12633
G1 X119.330 Y120.003 E16.17925
G1 X119.327 Y119.789 E16.19870
G1 X118.608 Y119.789 E16.26407
G1 X118.607 Y119.644 E16.27729
G1 X118.030 Y119.644 E16.32974
G1 X118.030 Y119.498 E16.34294
G1 X117.304 Y119.498 E16.40893
G1 X117.304 Y119.466 E16.41191
G1 X116.697 Y119.391 E16.46748
G1 X116.696 Y119.336 E16.47243
G1 X115.998 Y119.281 E16.53607
G1 X115.997 Y119.132 E16.54967
G1 X114.829 Y119.045 E16.65622
G1 X114.828 Y119.013 E16.65920
G1 X114.109 Y118.906 E16.72537
G1 X114.108 Y118.627 E16.75076
G1 X113.520 Y118.627 E16.80416
G1 X113.519 Y118.482 E16.81735
G1 X112.463 Y118.481 E16.91335
G1 X112.189 Y117.862 E16.97493
G1 X111.614 Y118.222 E17.03661
G1 X110.414 Y118.180 E17.14578
G1 X109.598 Y118.039 E17.22104
G1 X109.595 Y117.755 E17.24686
G1 X109.025 Y117.755 E17.29872
G1 X109.025 Y117.610 E17.31192
G1 X108.298 Y117.610 E17.37802
G1 X108.298 Y117.465 E17.39120
G1 X107.101 Y117.464 E17.50003
G1 X106.633 Y116.811 E17.57307
G1 X106.052 Y117.174 E17.63542
G1 X105.537 Y117.154 E17.68226
G1 X105.536 Y116.884 E17.70686
G1 X104.811 Y116.883 E17.77286
G1 X104.810 Y116.794 E17.78100
G1 X103.214 Y116.699 E17.92644
G1 X103.214 Y116.528 E17.94199
G1 X102.488 Y116.428 E18.00863
G1 X102.488 Y116.183 E18.03091
G1 X101.035 Y116.146 E18.16302
G1 X101.035 Y115.866 E18.18841
G1 X99.865 Y115.866 E18.29484
G1 X99.864 Y115.776 E18.30301
G1 X98.852 Y115.716 E18.39524
G1 X98.850 Y115.431 E18.42122
G1 X97.801 Y115.430 E18.51661
G1 X97.413 Y114.512 E18.60726
G1 X96.587 Y115.338 E18.71346
G1 X96.187 Y115.295 E18.75005
G1 X95.643 Y115.190 E18.80047
G1 X95.641 Y115.100 E18.80860
G1 X95.078 Y115.003 E18.86055
G1 X95.078 Y114.704 E18.88774
G1 X94.352 Y114.704 E18.95374
G1 X94.352 Y114.587 E18.96436
G1 X92.885 Y114.544 E19.09781
G1 X92.880 Y114.268 E19.12285
G1 X92.028 Y114.268 E19.20028
G1 X92.028 Y114.123 E19.21349
G1 X91.293 Y114.123 E19.28035
G1 X91.292 Y113.977 E19.29358
G1 X90.428 Y113.977 E19.37211
G1 X90.428 Y113.832 E19.38530
G1 X89.701 Y113.832 E19.45142
G1 X89.701 Y113.687 E19.46462
G1 X88.976 Y113.687 E19.53051
G1 X88.976 Y113.542 E19.54372
G1 X88.104 Y113.542 E19.62306
G1 X88.104 Y113.396 E19.63627
G1 X87.372 Y113.396 E19.70282
G1 X87.371 Y113.251 E19.71603
G1 X84.661 Y113.251 E19.96247
G1 X84.702 Y114.242 E20.05267
G1 X84.664 Y114.427 E20.06985
G1 X84.587 Y114.500 E20.07949
G1 X84.560 Y114.873 E20.11349
G1 X84.227 Y114.888 E20.14375
G1 X84.172 Y114.556 E20.17431
G1 X83.686 Y114.556 E20.21850
G1 X83.540 Y114.242 E20.25005
G1 X83.214 Y114.322 E20.28048
G1 X82.904 Y114.119 E20.31418
G1 X82.973 Y113.393 E20.38050
G1 X82.257 Y113.393 E20.44563
G1 X82.150 Y113.071 E20.47642
G1 X82.150 Y112.967 E20.48588
G1 X81.423 Y112.846 E20.55290
G1 X81.334 Y112.729 E20.56631
G1 X81.130 Y112.658 E20.58590
G1 X81.130 Y112.533 E20.59723
G1 X80.645 Y112.362 E20.64400
G1 X80.789 Y111.193 E20.75110
G1 X80.963 Y111.020 E20.77342
G1 X81.016 Y110.076 E20.85931
G1 X81.086 Y109.588 E20.90418
G1 X81.267 Y109.407 E20.92746
G1 X81.273 Y108.676 E20.99397
G1 X81.421 Y108.527 E21.01306
G1 X81.421 Y107.801 E21.07907
G1 X81.531 Y107.691 E21.09318
G1 X81.603 Y106.890 E21.16633
G1 X81.625 Y106.867 E21.16925
G1 X81.682 Y106.087 E21.24042
G1 X81.857 Y105.912 E21.26285
G1 X81.857 Y105.331 E21.31569
G1 X82.002 Y105.186 E21.33438
G1 X82.002 Y104.459 E21.40049
G1 X82.147 Y104.313 E21.41921
G1 X82.147 Y103.585 E21.48540
G1 X82.293 Y103.438 E21.50416
G1 X82.293 Y102.716 E21.56985
G1 X82.438 Y102.571 E21.58854
G1 X82.438 Y101.844 E21.65462
G1 X82.582 Y101.700 E21.67316
G1 X82.584 Y100.974 E21.73918
G1 X82.700 Y100.858 E21.75405
G1 X82.770 Y99.890 E21.84226
G1 X82.827 Y99.417 E21.88558
G1 X83.018 Y99.222 E21.91044
G1 X83.020 Y98.504 E21.97570
G1 X83.142 Y98.382 E21.99141
G1 X83.196 Y97.413 E22.07971
G1 X83.246 Y97.113 E22.10729
G1 X83.455 Y96.903 E22.13424
G1 X83.455 Y96.033 E22.21343
G1 X83.589 Y95.899 E22.23063
G1 X83.616 Y94.953 E22.31671
G1 X83.695 Y94.339 E22.37292
G1 X83.891 Y94.143 E22.39812
G1 X83.891 Y93.417 E22.46412
G1 X84.014 Y93.295 E22.47993
G1 X84.065 Y92.377 E22.56351
G1 X84.131 Y91.870 E22.61001
G1 X84.335 Y91.665 E22.63632
G1 X84.321 Y90.981 E22.69855
G1 X84.415 Y90.902 E22.70970
G1 X84.539 Y89.945 E22.79748
G1 X85.544 Y89.926 E22.88890
G1 X85.542 Y89.971 E22.89299
G1 X86.460 Y90.062 E22.97685
G1 X86.461 Y90.122 E22.98233
G1 X87.316 Y90.164 E23.06014
G1 X87.316 Y90.356 E23.07761
G1 X88.043 Y90.356 E23.14376
G1 X88.043 Y90.502 E23.15698
G1 X88.915 Y90.502 E23.23624
G1 X88.915 Y90.646 E23.24941
G1 X89.641 Y90.647 E23.31548
G1 X89.641 Y90.823 E23.33148
G1 X90.418 Y90.799 E23.40215
G1 X90.403 Y90.937 E23.41485
G1 X91.239 Y90.937 E23.49088
G1 X91.239 Y91.083 E23.50408
G1 X92.098 Y91.083 E23.58216
G1 X93.578 Y91.319 E23.71843
G1 X93.580 Y91.429 E23.72845
G1 X94.436 Y91.471 E23.80639
G1 X94.436 Y91.664 E23.82387
G1 X95.163 Y91.664 E23.88992
G1 X95.163 Y91.809 E23.90315
G1 X95.889 Y91.809 E23.96919
G1 X95.889 Y91.842 E23.97218
G1 X96.878 Y91.964 E24.06284
G1 X96.891 Y92.053 E24.07102
G1 X97.487 Y92.071 E24.12520
G1 X97.487 Y92.245 E24.14104
G1 X98.214 Y92.245 E24.20709
G1 X98.214 Y92.390 E24.22031
G1 X98.940 Y92.390 E24.28636
G1 X98.940 Y92.533 E24.29932
G1 X99.665 Y92.534 E24.36527
G1 X99.665 Y92.681 E24.37864
G1 X100.393 Y92.681 E24.44479
G1 X100.393 Y92.720 E24.44830
G1 X101.991 Y92.905 E24.59461
G1 X101.991 Y93.104 E24.61274
G1 X102.717 Y93.110 E24.67875
G1 X102.717 Y93.260 E24.69245
G1 X103.443 Y93.262 E24.75849
G1 X103.443 Y93.407 E24.77175
G1 X104.170 Y93.407 E24.83788
G1 X104.170 Y93.552 E24.85107
G1 X104.897 Y93.553 E24.91711
G1 X104.897 Y93.703 E24.93076
G1 X105.623 Y93.701 E24.99682
G1 X105.623 Y93.826 E25.00820
G1 X106.204 Y93.836 E25.06106
G1 X106.204 Y93.976 E25.07375
G1 X106.949 Y93.981 E25.14144
G1 X108.386 Y94.232 E25.27408
G1 X108.386 Y94.257 E25.27631
G1 X110.639 Y94.686 E25.48490
G1 X111.871 Y94.957 E25.59955
G1 X111.871 Y95.077 E25.61046
G1 X113.178 Y95.180 E25.72973
G1 X113.178 Y95.441 E25.75349
G1 X113.905 Y95.441 E25.81953
G1 X113.905 Y95.579 E25.83207
G1 X114.631 Y95.585 E25.89814
G1 X114.631 Y95.703 E25.90892
G1 X115.212 Y95.714 E25.96177
G1 X115.212 Y95.877 E25.97660
G1 X115.939 Y95.877 E26.04266
G1 X115.939 Y96.045 E26.05793
G1 X116.357 Y96.036 E26.09591
G1 X116.340 Y96.131 E26.10470
G1 X117.485 Y96.169 E26.20885
G1 X119.458 Y96.594 E26.39244
G1 X119.862 Y96.630 E26.42925
G1 X119.862 Y96.889 E26.45283
G1 X120.291 Y96.891 E26.49189
G1 X120.266 Y97.042 E26.50582
G1 X121.169 Y97.041 E26.58792
G1 X121.169 Y97.176 E26.60020
G1 X121.751 Y97.181 E26.65305
G1 X121.751 Y97.331 E26.66665
G1 X122.041 Y97.331 E26.69307
G1 X122.041 Y97.950 E26.74935
G1 X122.528 Y97.931 E26.79361
G1 X122.742 Y98.101 E26.81852
G1 X123.031 Y98.485 E26.86219
G1 X123.245 Y98.532 E26.88212
G1 X123.489 Y98.924 E26.92407
