; generated by Slic3r 1.3.0-dev on 2017-08-18 at 22:20:09

; external perimeters extrusion width = 0.40mm (1.14mm^3/s)
; perimeters extrusion width = 0.68mm (3.95mm^3/s)
; infill extrusion width = 1.20mm (9.43mm^3/s)
; solid infill extrusion width = 0.68mm (1.32mm^3/s)
; top infill extrusion width = 0.68mm (0.99mm^3/s)
; support material extrusion width = 0.40mm (2.27mm^3/s)

M107
M190 S66 ; set bed temperature and wait for it to be reached
M104 S215 ; set temperature
G28 ; home all axes
G1 Z5 F5000 ; lift nozzle

; Filament gcode

M109 S215 ; set temperature and wait for it to be reached
G21 ; set units to millimeters
G90 ; use absolute coordinates
M82 ; use absolute distances for extrusion
G92 E0
G1 Z0.350 F7800.000
G1 E-2.00000 F2400.00000
G92 E0
G1 X98.268 Y96.712 F7800.000
G1 E2.00000 F2400.00000
G1 F1238.63
G1 X98.350 Y96.630 E2.01054
G1 X100.308 Y95.277 E2.22695
G1 X102.847 Y94.130 E2.48025
G1 X105.573 Y93.543 E2.73387
G1 X105.655 Y93.543 E2.74132
G1 X107.750 Y93.883 E2.93430
G1 X107.996 Y93.965 E2.95785
G1 X109.027 Y94.406 E3.05988
G1 X110.870 Y95.772 E3.26842
G1 X111.925 Y97.242 E3.43295
G1 X114.300 Y101.746 E3.89597
G1 X115.065 Y104.836 E4.18541
G1 X115.065 Y104.918 E4.19286
G1 X114.867 Y106.525 E4.34007
G1 X114.785 Y106.852 E4.37077
G1 X114.597 Y107.474 E4.42981
G1 X114.187 Y108.620 E4.54051
G1 X113.874 Y109.355 E4.61313
G1 X113.792 Y109.519 E4.62978
G1 X112.676 Y111.112 E4.80669
G1 X109.603 Y114.353 E5.21277
G1 X109.439 Y114.516 E5.23383
G1 X107.561 Y115.833 E5.44237
G1 X104.754 Y116.457 E5.70380
G1 X104.591 Y116.457 E5.71869
G1 X102.984 Y116.259 E5.86590
G1 X102.287 Y116.073 E5.93147
G1 X99.666 Y115.254 E6.18114
G1 X96.958 Y113.615 E6.46900
G1 X96.876 Y113.534 E6.47953
G1 X95.559 Y111.656 E6.68807
G1 X94.935 Y108.849 E6.94949
G1 X94.935 Y108.603 E6.97183
G1 X95.056 Y107.347 E7.08662
G1 X96.448 Y100.140 E7.75405
G1 X97.266 Y97.997 E7.96259
G1 X98.231 Y96.759 E8.10532
G1 E6.10532 F2400.00000
G92 E0
G1 X103.190 Y108.038 F7800.000
G1 E2.00000 F2400.00000
G1 F1238.63
G1 X103.190 Y106.878 E2.10549
G1 X103.272 Y106.796 E2.11602
G1 X103.272 Y106.550 E2.13836
G1 X103.354 Y106.468 E2.14889
G1 X103.354 Y106.305 E2.16378
G1 X103.436 Y106.223 E2.17431
G1 X103.436 Y106.057 E2.18941
G1 X104.516 Y106.057 E2.28765
G1 X104.516 Y107.626 E2.43037
G1 X103.941 Y108.202 E2.50437
G1 X103.518 Y108.202 E2.54284
G1 X103.518 Y108.120 E2.55028
G1 X103.272 Y108.120 E2.57262
G1 X103.272 Y108.038 E2.58007
G1 X103.250 Y108.038 E2.58206
G1 E0.58206 F2400.00000
G92 E0
G1 X104.680 Y103.764 F7800.000
G1 E2.00000 F2400.00000
G1 F1238.63
G1 X105.185 Y103.764 E2.04591
G1 X103.846 Y105.103 E2.21818
G1 X103.846 Y104.503 E2.27277
G1 X103.927 Y104.421 E2.28330
G1 X103.927 Y104.175 E2.30564
G1 X104.680 Y103.423 E2.40245
G1 X104.680 Y103.704 E2.42801
G1 X103.879 Y103.340 F7800.000
G1 F1800
G1 X103.466 Y103.340 E2.46557
G1 X103.466 Y103.016 E2.49503
G1 X103.548 Y102.934 E2.50557
G1 X103.548 Y102.238 E2.56884
G1 X103.995 Y102.238 E2.60944
G1 X103.995 Y102.402 E2.62434
G1 X104.159 Y102.402 E2.63923
G1 X104.159 Y102.484 E2.64668
G1 X104.241 Y102.484 E2.65412
G1 X104.241 Y102.566 E2.66157
G1 X104.322 Y102.566 E2.66902
G1 X104.322 Y102.647 E2.67646
G1 X104.486 Y102.647 E2.69136
G1 X104.486 Y102.729 E2.69880
G1 X104.568 Y102.729 E2.70625
G1 X104.568 Y102.811 E2.71370
G1 X104.732 Y102.811 E2.72859
G1 X104.732 Y102.893 E2.73604
G1 X104.978 Y102.893 E2.75838
G1 X104.978 Y103.057 E2.77327
G1 X105.305 Y103.057 E2.80306
G1 X105.305 Y103.139 E2.81051
G1 X105.551 Y103.139 E2.83285
G1 X105.551 Y103.303 E2.84774
G1 X105.633 Y103.303 E2.85519
G1 X105.633 Y104.200 E2.93678
G1 X105.547 Y104.285 E2.94777
G1 X105.793 Y104.285 E2.97011
G1 X105.305 Y104.773 E3.03284
G1 X105.305 Y104.855 E3.04028
G1 X104.728 Y105.432 E3.11446
G1 X105.141 Y105.432 E3.15203
G1 X105.141 Y106.578 E3.25628
G1 X105.547 Y106.578 E3.29319
G1 X105.141 Y106.984 E3.34538
G1 X105.141 Y107.885 E3.42730
G1 X104.810 Y108.216 E3.46989
G1 X104.814 Y108.622 E3.50679
G1 X104.732 Y108.704 E3.51733
G1 X104.732 Y108.950 E3.53967
G1 X104.650 Y109.032 E3.55020
G1 X104.650 Y109.236 E3.56879
G1 X104.122 Y109.236 E3.61684
G1 X104.122 Y109.072 E3.63173
G1 X103.794 Y109.072 E3.66152
G1 X103.794 Y108.991 E3.66897
G1 X103.466 Y108.991 E3.69876
G1 X103.466 Y108.909 E3.70620
G1 X103.221 Y108.909 E3.72854
G1 X103.221 Y108.827 E3.73599
G1 X102.893 Y108.827 E3.76578
G1 X102.893 Y108.745 E3.77322
G1 X102.647 Y108.745 E3.79556
G1 X102.647 Y108.663 E3.80301
G1 X102.320 Y108.663 E3.83280
G1 X102.320 Y108.581 E3.84024
G1 X102.074 Y108.581 E3.86259
G1 X102.074 Y108.175 E3.89949
G1 X102.156 Y108.093 E3.91002
G1 X102.156 Y107.848 E3.93236
G1 X102.238 Y107.766 E3.94290
G1 X102.238 Y107.520 E3.96524
G1 X102.320 Y107.438 E3.97577
G1 X102.320 Y107.274 E3.99066
G1 X102.402 Y107.192 E4.00119
G1 X102.402 Y107.070 E4.01234
G1 X102.566 Y107.070 E4.02723
G1 X102.566 Y106.619 E4.06821
G1 X102.647 Y106.537 E4.07875
G1 X102.647 Y106.292 E4.10109
G1 X102.729 Y106.210 E4.11162
G1 X102.729 Y106.046 E4.12651
G1 X102.811 Y105.964 E4.13704
G1 X102.811 Y105.718 E4.15938
G1 X102.893 Y105.636 E4.16991
G1 X102.893 Y105.391 E4.19225
G1 X102.975 Y105.309 E4.20279
G1 X102.975 Y105.145 E4.21768
G1 X103.057 Y105.063 E4.22821
G1 X103.057 Y104.817 E4.25055
G1 X103.139 Y104.735 E4.26108
G1 X103.139 Y104.490 E4.28342
G1 X103.221 Y104.408 E4.29395
G1 X103.221 Y104.244 E4.30885
G1 X103.303 Y104.162 E4.31938
G1 X103.303 Y103.917 E4.34172
G1 X103.837 Y103.382 E4.41045
G1 X103.960 Y102.948 F7800.000
G1 X103.292 Y101.773 F7800.000
G1 F1800
G1 X103.266 Y101.792 E4.41117
G1 X103.292 Y101.773 F7800.000
G1 F1800
G1 X103.370 Y101.716 E4.41447
G1 X103.354 Y101.651 E4.41675
G1 X103.280 Y101.615 E4.41954
G1 F1800
G1 X103.246 Y101.604 E4.42046
G1 X103.154 Y101.440 E4.42527
G1 E2.42527 F2400.00000
G92 E0
G1 X105.663 Y105.319 F7800.000
G1 E2.00000 F2400.00000
G1 F1800
G1 X105.678 Y105.369 E2.00223
G1 X106.710 Y106.238 F7800.000
G1 F1800
G1 X106.756 Y106.192 E2.00481
G1 F1800
G1 X106.802 Y106.147 E2.00651
G1 F1800
G1 X106.906 Y106.042 E2.00842
G1 F1800
G1 X106.951 Y105.997 E2.01008
G1 F1800
G1 X106.974 Y105.974 E2.01132
G1 X106.966 Y105.805 E2.01797
G1 X107.006 Y105.737 E2.02107
G1 X107.006 Y105.532 E2.02908
G1 X107.047 Y105.469 E2.03202
G1 F1800
G1 X107.088 Y105.407 E2.03567
G1 X107.072 Y105.326 E2.03966
G1 F1800
G1 X107.043 Y105.214 E2.04643
G1 F1800
G1 X107.025 Y105.152 E2.05078
G1 F1800
G1 X107.017 Y105.123 E2.05309
G1 X107.020 Y105.123 F7800.000
G1 F1800
G1 X107.075 Y105.040 E2.06140
G1 X107.109 Y104.816 E2.08027
G1 X107.037 Y104.744 E2.08871
G1 F1800
G1 X106.928 Y104.634 E2.10034
G1 F1800
G1 X106.884 Y104.529 E2.10797
G1 F1800
G1 X106.892 Y104.463 E2.11157
G1 F1800
G1 X106.900 Y104.398 E2.11440
G1 F1800
G1 X106.946 Y104.242 E2.11945
G1 X107.109 Y104.816 F7800.000
G1 F1800
G1 X107.170 Y104.795 E2.12452
G1 X107.998 Y104.937 F7800.000
G1 F1800
G1 X108.015 Y105.058 E2.13454
G1 F1800
G1 X107.907 Y105.247 E2.15449
G1 X107.903 Y105.246 F7800.000
G1 F1800
G1 X107.884 Y105.337 E2.16372
G1 F1800
G1 X107.862 Y105.428 E2.17182
G1 X107.793 Y105.548 E2.18383
G1 X107.776 Y105.680 E2.19541
G1 X107.721 Y105.756 E2.20355
G1 F1800
G1 X107.695 Y105.787 E2.20666
G1 X107.649 Y106.023 E2.22497
G1 F1800
G1 X107.521 Y106.214 E2.24561
G1 X107.477 Y106.208 F7800.000
G1 F1800
G1 X107.521 Y106.214 E2.24957
G1 X107.551 Y106.251 E2.25380
G1 F1800
G1 X107.598 Y106.290 E2.25874
G1 F1800
G1 X107.648 Y106.338 E2.26339
G1 F1800
G1 X107.703 Y106.392 E2.26760
G1 X107.477 Y106.208 F7800.000
G1 F1800
G1 X107.416 Y106.187 E2.27267
G1 X107.416 Y106.187 F7800.000
G1 F1800
G1 X107.346 Y106.164 E2.27761
G1 F1800
G1 X107.276 Y106.141 E2.28156
G1 F1800
G1 X107.205 Y106.117 E2.28452
G1 F1800
G1 X107.047 Y106.010 E2.29002
G1 F1800
G1 X106.974 Y105.974 E2.29322
G1 X106.710 Y106.238 F7800.000
G1 F1800
G1 X106.679 Y106.310 E2.29703
G1 F1800
G1 X106.645 Y106.377 E2.30161
G1 X106.633 Y106.375 F7800.000
G1 F1800
G1 X106.703 Y106.474 E2.30872
G1 X106.630 Y106.810 E2.32885
G1 X106.402 Y107.058 E2.34854
G1 X106.351 Y107.088 E2.35203
G1 X106.106 Y107.088 E2.36642
G1 X106.088 Y107.016 F7800.000
G1 F1800
G1 X106.078 Y106.980 E2.36816
G1 X106.088 Y107.016 F7800.000
G1 F1800
G1 X106.106 Y107.088 E2.37237
G1 X105.986 Y107.188 E2.38116
G1 F1800
G1 X105.695 Y107.456 E2.40031
G1 X105.613 Y107.981 F7800.000
G1 F1800
G1 X105.587 Y108.044 E2.40198
G1 F1800
G1 X105.553 Y108.112 E2.40328
G1 F1800
G1 X105.510 Y108.216 E2.40609
G1 X105.471 Y108.255 E2.40748
G1 F1800
G1 X105.381 Y108.412 E2.41440
G1 X104.604 Y109.832 F7800.000
G1 F1800
G1 X104.705 Y109.708 E2.41735
G1 X104.591 Y109.668 E2.41960
G1 X104.263 Y109.668 E2.42566
G1 E0.42566 F2400.00000
G92 E0
G1 X101.642 Y108.849 F7800.000
G1 E2.00000 F2400.00000
G1 F1800
G1 X101.642 Y108.522 E2.00423
G1 E0.00423 F2400.00000
G92 E0
G1 X107.998 Y104.937 F7800.000
G1 E2.00000 F2400.00000
G1 F1800
G1 X108.025 Y104.870 E2.00506
G1 F1800
G1 X108.048 Y104.809 E2.00886
G1 E0.00886 F2400.00000
G92 E0
G1 X104.993 Y104.651 F7800.000
G1 E2.00000 F2400.00000
G1 F1238.63
G1 X104.841 Y104.714 E2.00313
G1 X103.810 Y105.744 E2.03094
G1 X103.410 Y105.438 F7800.000
G1 F1238.63
G1 X103.371 Y105.583 E2.03557
G1 X103.206 Y105.651 E2.04113
G1 X103.410 Y105.438 F7800.000
G1 F1238.63
G1 X103.410 Y105.325 E2.04349
G1 X103.437 Y105.260 E2.04496
G1 F1238.63
G1 X103.451 Y104.865 E2.05006
G1 X103.894 Y106.808 F7800.000
G1 F1238.63
G1 X103.894 Y106.925 E2.05939
G1 F1238.63
G1 X103.853 Y107.151 E2.08025
G1 X104.009 Y108.596 F7800.000
G1 F1238.63
G1 X104.106 Y108.603 E2.08130
G1 F1238.63
G1 X104.217 Y108.644 E2.08397
G1 E0.08397 F2400.00000
G92 E0
G1 X106.570 Y105.328 F7800.000
G1 E2.00000 F2400.00000
G1 F1800
G1 X106.515 Y105.460 E2.00357
G1 X106.515 Y105.768 E2.01121
G1 X106.474 Y105.819 E2.01283
G1 X106.474 Y105.819 F7800.000
G1 F1800
G1 X106.392 Y105.887 E2.01420
G1 X106.265 Y105.907 E2.01586
G1 X106.024 Y106.147 E2.02025
G1 E0.02025 F2400.00000
G92 E0
G1 X105.655 Y100.681 F7800.000
G1 E2.00000 F2400.00000
G1 F1800
G1 X105.655 Y100.598 E2.00306
G1 F1800
G1 X105.655 Y100.537 E2.00605
G1 X105.702 Y100.468 E2.01011
G1 X105.738 Y100.453 E2.01197
G1 Z0.350 F7800.000
G1 Z0.450 F7800.000
G1 E0.01197 F2400.00000
G92 E0
G1 X104.114 Y106.277 F7800.000
G1 E2.00000 F2400.00000
G1 F640.072
G1 X104.114 Y107.226 E2.02599
G1 X103.674 Y107.226 E2.03803
G1 X103.674 Y106.717 E2.05198
G1 X104.072 Y106.320 E2.06736
G1 X103.839 Y105.800 F7800.000
G1 F640.072
G1 X104.773 Y105.800 E2.09294
G1 X104.773 Y107.733 E2.14584
G1 X104.620 Y107.885 E2.15174
G1 X104.445 Y107.885 E2.15654
G1 X104.445 Y108.060 E2.16134
G1 X103.965 Y108.540 E2.17992
G1 X103.589 Y108.540 E2.19022
G1 X103.589 Y108.458 E2.19246
G1 X103.262 Y108.458 E2.20143
G1 X103.262 Y108.376 E2.20367
G1 X103.016 Y108.376 E2.21040
G1 X103.016 Y108.294 E2.21264
G1 X102.688 Y108.294 E2.22161
G1 X102.688 Y108.212 E2.22385
G1 X102.312 Y108.212 E2.23415
G1 X102.606 Y107.918 E2.24554
G1 X102.606 Y107.673 E2.25226
G1 X102.688 Y107.591 E2.25543
G1 X102.688 Y107.438 E2.25961
G1 X102.934 Y107.438 E2.26633
G1 X102.934 Y106.772 E2.28458
G1 X103.016 Y106.690 E2.28775
G1 X103.016 Y106.444 E2.29448
G1 X103.098 Y106.362 E2.29765
G1 X103.098 Y106.198 E2.30214
G1 X103.180 Y106.117 E2.30531
G1 X103.180 Y105.800 E2.31396
G1 X103.262 Y105.789 E2.31623
G1 X103.262 Y105.543 E2.32295
G1 X103.344 Y105.461 E2.32613
G1 X103.344 Y105.298 E2.33061
G1 X103.425 Y105.216 E2.33378
G1 X103.425 Y104.970 E2.34051
G1 X103.507 Y104.888 E2.34368
G1 X103.507 Y104.642 E2.35041
G1 X103.589 Y104.561 E2.35358
G1 X103.589 Y104.397 E2.35806
G1 X103.671 Y104.315 E2.36123
G1 X103.671 Y104.069 E2.36796
G1 X104.609 Y103.131 E2.40427
G1 X104.609 Y103.425 E2.41233
G1 X104.937 Y103.425 E2.42130
G1 X104.937 Y103.507 E2.42354
G1 X105.182 Y103.507 E2.43027
G1 X105.182 Y103.671 E2.43475
G1 X105.264 Y103.671 E2.43699
G1 X105.264 Y104.293 E2.45402
G1 X104.937 Y104.620 E2.46670
G1 X104.937 Y104.702 E2.46894
G1 X103.881 Y105.758 E2.50982
G1 X105.090 Y105.282 F7800.000
G1 F640.072
G1 X105.537 Y105.282 E2.51685
G1 X105.537 Y105.364 E2.51813
G1 X105.619 Y105.364 E2.51942
G1 X105.619 Y105.572 E2.52271
G1 X105.537 Y105.654 E2.52453
G1 X105.537 Y105.865 E2.52784
G1 X105.291 Y105.865 E2.53171
G1 X105.291 Y106.428 E2.54058
G1 X105.746 Y106.428 E2.54773
G1 X105.455 Y106.719 E2.55419
G1 X105.455 Y106.883 E2.55677
G1 X105.291 Y107.046 E2.56042
G1 X105.291 Y107.493 E2.56744
G1 X105.746 Y107.493 E2.57459
G1 X105.172 Y108.066 E2.58735
G1 X105.582 Y108.066 E2.59380
G1 X105.373 Y108.275 E2.59844
G1 X105.373 Y108.403 E2.60046
G1 X104.964 Y108.403 E2.60691
G1 X104.964 Y108.684 E2.61133
G1 X104.882 Y108.766 E2.61315
G1 X104.882 Y109.012 E2.61702
G1 X104.800 Y109.094 E2.61884
G1 X104.800 Y109.340 E2.62271
G1 X104.718 Y109.421 E2.62453
G1 X104.718 Y109.550 E2.62655
G1 X104.463 Y109.550 E2.63057
G1 X104.463 Y109.468 E2.63186
G1 X104.217 Y109.468 E2.63572
G1 X104.217 Y109.386 E2.63701
G1 X103.972 Y109.386 E2.64088
G1 X103.972 Y109.222 E2.64346
G1 X103.644 Y109.222 E2.64861
G1 X103.644 Y109.141 E2.64990
G1 X103.316 Y109.141 E2.65506
G1 X103.316 Y109.059 E2.65634
G1 X103.071 Y109.059 E2.66021
G1 X103.071 Y108.977 E2.66150
G1 X102.743 Y108.977 E2.66666
G1 X102.743 Y108.895 E2.66794
G1 X102.497 Y108.895 E2.67181
G1 X102.497 Y108.813 E2.67310
G1 X102.170 Y108.813 E2.67826
G1 X102.170 Y108.731 E2.67954
G1 X101.842 Y108.731 E2.68470
G1 X101.842 Y108.359 E2.69056
G1 X101.924 Y108.277 E2.69238
G1 X101.924 Y108.113 E2.69496
G1 X102.006 Y108.031 E2.69678
G1 X102.006 Y107.785 E2.70065
G1 X102.088 Y107.704 E2.70247
G1 X102.088 Y107.458 E2.70634
G1 X102.170 Y107.376 E2.70816
G1 X102.170 Y107.212 E2.71074
G1 X102.252 Y107.130 E2.71256
G1 X102.252 Y106.920 E2.71587
G1 X102.416 Y106.920 E2.71845
G1 X102.416 Y106.557 E2.72416
G1 X102.497 Y106.475 E2.72598
G1 X102.497 Y106.229 E2.72985
G1 X102.579 Y106.147 E2.73167
G1 X102.579 Y105.984 E2.73425
G1 X102.661 Y105.902 E2.73607
G1 X102.661 Y105.656 E2.73994
G1 X102.743 Y105.574 E2.74176
G1 X102.743 Y105.329 E2.74563
G1 X102.825 Y105.247 E2.74745
G1 X102.825 Y105.083 E2.75003
G1 X102.907 Y105.001 E2.75185
G1 X102.907 Y104.755 E2.75572
G1 X102.989 Y104.673 E2.75754
G1 X102.989 Y104.428 E2.76141
G1 X103.071 Y104.346 E2.76323
G1 X103.071 Y104.182 E2.76581
G1 X103.153 Y104.100 E2.76763
G1 X103.153 Y103.854 E2.77150
G1 X103.517 Y103.490 E2.77962
G1 X103.234 Y103.490 E2.78407
G1 X103.234 Y103.281 E2.78735
G1 X103.316 Y103.199 E2.78917
G1 X103.316 Y102.954 E2.79304
G1 X103.398 Y102.872 E2.79486
G1 X103.398 Y102.425 E2.80189
G1 X103.026 Y102.425 E2.80775
G1 X103.653 Y101.797 E2.82172
G1 X103.653 Y102.006 E2.82500
G1 X103.899 Y102.006 E2.82887
G1 X103.899 Y102.088 E2.83015
G1 X104.145 Y102.088 E2.83402
G1 X104.145 Y102.252 E2.83660
G1 X104.309 Y102.252 E2.83918
G1 X104.309 Y102.334 E2.84047
G1 X104.391 Y102.334 E2.84175
G1 X104.391 Y102.416 E2.84304
G1 X104.472 Y102.416 E2.84433
G1 X104.472 Y102.497 E2.84562
G1 X104.636 Y102.497 E2.84820
G1 X104.636 Y102.579 E2.84949
G1 X104.718 Y102.579 E2.85078
G1 X104.718 Y102.661 E2.85207
G1 X104.882 Y102.661 E2.85464
G1 X104.882 Y102.743 E2.85593
G1 X105.128 Y102.743 E2.85980
G1 X105.128 Y102.907 E2.86238
G1 X105.455 Y102.907 E2.86753
G1 X105.455 Y102.989 E2.86882
G1 X105.701 Y102.989 E2.87269
G1 X105.701 Y103.153 E2.87527
G1 X105.783 Y103.153 E2.87655
G1 X105.783 Y103.808 E2.88687
G1 X105.865 Y103.808 E2.88815
G1 X105.865 Y104.426 E2.89788
G1 X105.455 Y104.835 E2.90699
G1 X105.455 Y104.917 E2.90828
G1 X105.133 Y105.239 E2.91546
G1 X105.000 Y105.672 F7800.000
G1 X106.375 Y104.210 F7800.000
G1 F1280.14
G1 X106.407 Y104.232 E2.91591
G1 X106.900 Y104.398 F7800.000
G1 F1280.14
G1 X106.892 Y104.463 E2.91686
G1 F1280.14
G1 X106.884 Y104.529 E2.91804
G1 F1280.14
G1 X106.928 Y104.634 E2.92047
G1 F1280.14
G1 X107.037 Y104.744 E2.92414
G1 F1280.14
G1 X107.109 Y104.816 E2.92678
G1 X107.075 Y105.040 E2.93268
G1 X107.020 Y105.123 E2.93527
G1 X107.017 Y105.123 F7800.000
G1 F1280.14
G1 X107.025 Y105.152 E2.93600
G1 F1280.14
G1 X107.043 Y105.214 E2.93739
G1 F1280.14
G1 X107.072 Y105.326 E2.93958
G1 F1280.14
G1 X107.088 Y105.407 E2.94090
G1 X107.047 Y105.469 E2.94212
G1 F1280.14
G1 X107.006 Y105.532 E2.94312
