; generated by Slic3r 1.3.0-dev on 2017-08-18 at 22:21:05

; external perimeters extrusion width = 0.40mm (1.14mm^3/s)
; perimeters extrusion width = 0.68mm (3.95mm^3/s)
; infill extrusion width = 1.20mm (9.43mm^3/s)
; solid infill extrusion width = 0.68mm (1.32mm^3/s)
; top infill extrusion width = 0.68mm (0.99mm^3/s)
; support material extrusion width = 0.40mm (2.27mm^3/s)

M107
M190 S66 ; set bed temperature and wait for it to be reached
M104 S215 ; set temperature
G28 ; home all axes
G1 Z5 F5000 ; lift nozzle

; Filament gcode

M109 S215 ; set temperature and wait for it to be reached
G21 ; set units to millimeters
G90 ; use absolute coordinates
M82 ; use absolute distances for extrusion
G92 E0
G1 Z0.350 F7800.000
G1 E-2.00000 F2400.00000
G92 E0
G1 X102.373 Y84.264 F7800.000
G1 E2.00000 F2400.00000
G1 F1800
G1 X102.581 Y84.056 E2.02673
G1 X105.170 Y82.456 E2.30353
G1 X105.655 Y82.294 E2.35006
G1 X106.313 Y82.112 E2.41213
G1 X107.769 Y81.788 E2.54776
G1 X109.206 Y81.630 E2.67922
G1 X109.530 Y81.630 E2.70864
G1 X111.789 Y82.027 E2.91718
G1 X114.352 Y83.712 E3.19604
G1 X122.279 Y92.125 E4.24714
G1 X126.519 Y96.690 E4.81367
G1 X127.306 Y97.726 E4.93198
G1 X128.813 Y100.202 E5.19552
G1 X133.181 Y108.453 E6.04445
G1 X133.951 Y111.552 E6.33487
G1 X133.951 Y111.714 E6.34958
G1 X133.554 Y113.973 E6.55812
G1 X132.011 Y116.399 E6.81954
G1 X131.303 Y117.049 E6.90695
G1 X130.155 Y117.950 E7.03969
G1 X122.066 Y123.613 E7.93755
G1 X119.029 Y125.639 E8.26949
G1 X116.176 Y126.701 E8.54630
G1 X103.233 Y128.319 E9.73235
G1 X102.412 Y128.370 E9.80720
G1 X100.955 Y128.370 E9.93961
G1 X100.246 Y128.332 E10.00421
G1 X89.730 Y127.199 E10.96596
G1 X87.475 Y126.537 E11.17961
G1 X81.515 Y123.393 E11.79233
G1 X79.930 Y122.223 E11.97149
G1 X79.769 Y122.061 E11.99230
G1 X78.941 Y121.051 E12.11101
G1 X77.323 Y118.625 E12.37622
G1 X76.339 Y116.249 E12.61003
G1 X76.177 Y115.440 E12.68504
G1 X76.049 Y114.141 E12.80376
G1 X76.049 Y113.728 E12.84131
G1 X76.477 Y111.475 E13.04985
G1 X77.943 Y109.179 E13.29757
G1 X102.331 Y84.307 E16.46495
G1 E14.46495 F2400.00000
G92 E0
G1 X119.906 Y109.754 F7800.000
G1 E2.00000 F2400.00000
G1 F1800
G1 X122.329 Y109.754 E2.22039
G1 X122.329 Y110.078 E2.24985
G1 X122.491 Y110.078 E2.26455
G1 X122.491 Y110.240 E2.27925
G1 X122.653 Y110.240 E2.29396
G1 X122.653 Y110.564 E2.32340
G1 X122.815 Y110.564 E2.33811
G1 X122.815 Y110.725 E2.35280
G1 X122.976 Y110.725 E2.36752
G1 X122.976 Y110.887 E2.38226
G1 X123.138 Y110.887 E2.39697
G1 X123.138 Y111.211 E2.42638
G1 X123.300 Y111.211 E2.44109
G1 X123.300 Y111.534 E2.47050
G1 X123.623 Y111.534 E2.49992
G1 X123.623 Y111.858 E2.52934
G1 X123.950 Y111.858 E2.55900
G1 X123.266 Y112.541 E2.64687
G1 X123.105 Y112.541 E2.66158
G1 X122.781 Y112.865 E2.70319
G1 X122.619 Y112.865 E2.71790
G1 X122.134 Y113.350 E2.78031
G1 X121.972 Y113.350 E2.79503
G1 X121.810 Y113.512 E2.81583
G1 X121.648 Y113.512 E2.83054
G1 X121.163 Y113.997 E2.89291
G1 X121.002 Y113.997 E2.90761
G1 X120.678 Y114.321 E2.94928
G1 X120.516 Y114.321 E2.96399
G1 X120.031 Y114.806 E3.02641
G1 X119.869 Y114.806 E3.04112
G1 X119.545 Y115.130 E3.08276
G1 X119.383 Y115.130 E3.09748
G1 X118.898 Y115.615 E3.15985
G1 X118.736 Y115.615 E3.17457
G1 X118.413 Y115.939 E3.21617
G1 X118.251 Y115.939 E3.23088
G1 X117.604 Y116.586 E3.31410
G1 X117.442 Y116.586 E3.32881
G1 X117.280 Y116.748 E3.34961
G1 X117.118 Y116.748 E3.36432
G1 X116.633 Y117.233 E3.42674
G1 X116.471 Y117.233 E3.44145
G1 X116.309 Y117.395 E3.46226
G1 X116.148 Y117.395 E3.47697
G1 X115.662 Y117.880 E3.53938
G1 X115.501 Y117.880 E3.55409
G1 X115.339 Y118.042 E3.57489
G1 X115.177 Y118.042 E3.58960
G1 X115.015 Y118.204 E3.61041
G1 X114.365 Y118.204 E3.66949
G1 X114.365 Y118.042 E3.68420
G1 X112.909 Y118.042 E3.81661
G1 X112.909 Y117.880 E3.83133
G1 X111.938 Y117.880 E3.91967
G1 X111.938 Y117.718 E3.93440
G1 X111.128 Y117.718 E4.00799
G1 X111.128 Y117.556 E4.02271
G1 X110.156 Y117.556 E4.11111
G1 X110.155 Y117.395 E4.12582
G1 X108.702 Y117.395 E4.25799
G1 X108.702 Y117.233 E4.27271
G1 X107.732 Y117.233 E4.36092
G1 X107.732 Y117.071 E4.37563
G1 X103.724 Y117.071 E4.74006
G1 X103.724 Y118.656 E4.88417
G1 X103.045 Y119.336 E4.97153
G1 X101.135 Y119.336 E5.14520
G1 X101.135 Y119.821 E5.18933
G1 X99.963 Y119.821 E5.29590
G1 X99.963 Y119.660 E5.31061
G1 X98.996 Y119.660 E5.39856
G1 X98.995 Y117.236 E5.61896
G1 X96.895 Y119.336 E5.88904
G1 X95.761 Y119.336 E5.99216
G1 X95.761 Y119.174 E6.00687
G1 X94.788 Y119.174 E6.09539
G1 X94.785 Y116.754 E6.31543
G1 X92.686 Y118.853 E6.58534
G1 X92.686 Y116.427 E6.80600
G1 X91.714 Y117.398 E6.93095
G1 X91.714 Y116.104 E7.04860
G1 X90.100 Y117.718 E7.25614
G1 X89.773 Y117.718 E7.28591
G1 X89.773 Y117.556 E7.30062
G1 X89.612 Y117.556 E7.31521
G1 X89.612 Y117.395 E7.32992
G1 X89.450 Y117.395 E7.34463
G1 X89.450 Y117.233 E7.35934
G1 X89.289 Y117.233 E7.37405
G1 X89.289 Y117.071 E7.38876
G1 X89.127 Y117.071 E7.40347
G1 X89.127 Y116.909 E7.41818
G1 X88.318 Y116.909 E7.49174
G1 X88.318 Y116.748 E7.50645
G1 X87.833 Y116.748 E7.55058
G1 X87.833 Y116.586 E7.56529
G1 X87.671 Y116.586 E7.58001
G1 X87.671 Y116.424 E7.59472
G1 X87.345 Y116.424 E7.62432
G1 X87.345 Y116.262 E7.63904
G1 X87.021 Y116.262 E7.66849
G1 X88.315 Y114.968 E7.83492
G1 X85.729 Y114.968 E8.07006
G1 X85.729 Y114.806 E8.08478
G1 X85.568 Y114.806 E8.09949
G1 X85.568 Y114.644 E8.11420
G1 X85.406 Y114.644 E8.12893
G1 X85.405 Y114.157 E8.17327
G1 X85.601 Y113.961 E8.19843
G1 X86.700 Y113.961 E8.29836
G1 X86.700 Y113.476 E8.34249
G1 X87.866 Y113.476 E8.44853
G1 X89.322 Y112.020 E8.63577
G1 X89.936 Y112.020 E8.69156
G1 X89.936 Y110.921 E8.79148
G1 X90.421 Y110.435 E8.85390
G1 X90.421 Y110.274 E8.86861
G1 X90.583 Y110.112 E8.88941
G1 X90.583 Y109.788 E8.91883
G1 X91.715 Y108.656 E9.06447
G1 X91.715 Y108.494 E9.07918
G1 X92.073 Y108.137 E9.12511
G1 X93.172 Y108.137 E9.22503
G1 X93.172 Y107.328 E9.29859
G1 X93.367 Y107.328 E9.31635
G1 X93.529 Y107.166 E9.33716
G1 X93.690 Y107.166 E9.35187
G1 X93.852 Y107.004 E9.37267
G1 X94.014 Y107.004 E9.38738
G1 X94.176 Y106.842 E9.40819
G1 X94.338 Y106.842 E9.42290
G1 X96.441 Y104.739 E9.69336
G1 X96.764 Y104.739 E9.72278
G1 X97.088 Y104.416 E9.76439
G1 X97.250 Y104.416 E9.77910
G1 X97.897 Y103.768 E9.86233
G1 X98.221 Y103.768 E9.89183
G1 X99.319 Y102.669 E10.03312
G1 X99.319 Y102.151 E10.08025
G1 X100.128 Y102.151 E10.15381
G1 X100.128 Y102.023 E10.16546
G1 X102.589 Y99.562 E10.48185
G1 X102.750 Y99.562 E10.49656
G1 X103.849 Y98.463 E10.63787
G1 X103.849 Y97.816 E10.69671
G1 X104.173 Y97.493 E10.73832
G1 X104.173 Y97.331 E10.75304
G1 X104.820 Y96.684 E10.83625
G1 X104.820 Y96.037 E10.89509
G1 X104.982 Y95.875 E10.91589
G1 X104.982 Y95.389 E10.96004
G1 X105.144 Y95.228 E10.98083
G1 X105.144 Y94.870 E11.01334
G1 X106.600 Y94.870 E11.14574
G1 X106.600 Y93.933 E11.23095
G1 X107.409 Y93.124 E11.33502
G1 X107.409 Y92.800 E11.36443
G1 X108.577 Y91.632 E11.51468
G1 X108.577 Y92.929 E11.63260
G1 X108.739 Y92.929 E11.64731
G1 X108.739 Y93.091 E11.66202
G1 X108.901 Y93.091 E11.67673
G1 X108.901 Y93.252 E11.69145
G1 X110.842 Y93.252 E11.86798
G1 X110.842 Y95.356 E12.05922
G1 X111.004 Y95.356 E12.07394
G1 X111.004 Y95.517 E12.08865
G1 X111.813 Y95.517 E12.16220
G1 X111.813 Y95.679 E12.17691
G1 X112.460 Y95.679 E12.23576
G1 X112.460 Y95.841 E12.25047
G1 X112.622 Y95.841 E12.26518
G1 X112.622 Y96.003 E12.27989
G1 X112.784 Y96.003 E12.29460
G1 X112.784 Y96.165 E12.30931
G1 X112.946 Y96.165 E12.32402
G1 X112.946 Y96.326 E12.33872
G1 X113.107 Y96.326 E12.35343
G1 X113.107 Y96.488 E12.36816
G1 X113.269 Y96.488 E12.38287
G1 X113.269 Y96.650 E12.39758
G1 X113.593 Y96.650 E12.42700
G1 X113.593 Y96.812 E12.44172
G1 X113.755 Y96.812 E12.45643
G1 X113.755 Y96.973 E12.47114
G1 X113.916 Y96.973 E12.48585
G1 X113.916 Y97.135 E12.50056
G1 X114.240 Y97.135 E12.52998
G1 X114.240 Y97.297 E12.54469
G1 X114.563 Y97.297 E12.57411
G1 X114.563 Y97.459 E12.58882
G1 X115.049 Y97.459 E12.63296
G1 X115.049 Y97.621 E12.64767
G1 X115.211 Y97.621 E12.66238
G1 X115.211 Y97.944 E12.69180
G1 X115.372 Y97.944 E12.70651
G1 X115.372 Y99.400 E12.83892
G1 X115.534 Y99.400 E12.85363
G1 X115.534 Y99.562 E12.86834
G1 X116.505 Y99.562 E12.95660
G1 X116.505 Y99.724 E12.97131
G1 X116.828 Y99.724 E13.00074
G1 X116.828 Y99.886 E13.01545
G1 X117.152 Y99.886 E13.04487
G1 X117.152 Y100.371 E13.08900
G1 X117.314 Y100.371 E13.10370
G1 X117.314 Y100.695 E13.13312
G1 X117.637 Y100.695 E13.16256
G1 X117.637 Y100.856 E13.17727
G1 X117.799 Y100.856 E13.19198
G1 X117.799 Y101.989 E13.29497
G1 X117.961 Y101.989 E13.30967
G1 X117.961 Y102.313 E13.33911
G1 X118.123 Y102.313 E13.35383
G1 X118.123 Y102.636 E13.38323
G1 X118.446 Y102.636 E13.41266
G1 X118.446 Y102.798 E13.42737
G1 X120.064 Y102.798 E13.57448
G1 X120.064 Y103.607 E13.64803
G1 X120.226 Y103.607 E13.66274
G1 X120.226 Y103.930 E13.69217
G1 X120.550 Y103.930 E13.72159
G1 X120.550 Y104.092 E13.73630
G1 X120.711 Y104.092 E13.75101
G1 X120.711 Y104.254 E13.76573
G1 X120.873 Y104.254 E13.78044
G1 X120.873 Y104.416 E13.79515
G1 X121.035 Y104.416 E13.80986
G1 X121.035 Y104.739 E13.83928
G1 X121.197 Y104.739 E13.85399
G1 X121.197 Y107.166 E14.07464
G1 X121.358 Y107.166 E14.08936
G1 X121.358 Y107.813 E14.14821
G1 X121.520 Y107.813 E14.16289
G1 X121.520 Y108.140 E14.19258
G1 X119.948 Y109.711 E14.39470
G1 X121.414 Y109.129 F7800.000
G1 F1800
G1 X122.954 Y109.130 E14.53475
G1 X122.954 Y109.453 E14.56420
G1 X123.116 Y109.453 E14.57890
G1 X123.116 Y109.615 E14.59360
G1 X123.278 Y109.615 E14.60831
G1 X123.278 Y109.939 E14.63775
G1 X123.439 Y109.939 E14.65246
G1 X123.439 Y110.100 E14.66716
G1 X123.601 Y110.100 E14.68187
G1 X123.601 Y110.262 E14.69660
G1 X123.763 Y110.262 E14.71131
G1 X123.763 Y110.586 E14.74073
G1 X123.925 Y110.586 E14.75544
G1 X123.925 Y110.909 E14.78485
G1 X124.248 Y110.909 E14.81428
G1 X124.248 Y111.233 E14.84370
G1 X124.410 Y111.233 E14.85841
G1 X124.410 Y111.395 E14.87312
G1 X124.572 Y111.395 E14.88784
G1 X124.572 Y111.556 E14.90254
G1 X124.734 Y111.556 E14.91725
G1 X124.734 Y111.719 E14.93199
G1 X124.896 Y111.719 E14.94670
G1 X124.896 Y112.119 E14.98313
G1 X124.496 Y112.519 E15.03452
G1 X124.334 Y112.519 E15.04923
G1 X124.010 Y112.842 E15.09086
G1 X123.849 Y112.842 E15.10556
G1 X123.525 Y113.166 E15.14717
G1 X123.363 Y113.166 E15.16188
G1 X123.040 Y113.490 E15.20349
G1 X122.878 Y113.490 E15.21820
G1 X122.393 Y113.975 E15.28062
G1 X122.231 Y113.975 E15.29533
G1 X122.069 Y114.137 E15.31613
G1 X121.907 Y114.137 E15.33084
G1 X121.422 Y114.622 E15.39323
G1 X121.260 Y114.622 E15.40793
G1 X120.937 Y114.946 E15.44958
G1 X120.775 Y114.946 E15.46429
G1 X120.289 Y115.431 E15.52671
G1 X120.128 Y115.431 E15.54142
G1 X119.804 Y115.755 E15.58304
G1 X119.642 Y115.755 E15.59776
G1 X119.157 Y116.240 E15.66015
G1 X118.995 Y116.240 E15.67487
G1 X118.672 Y116.564 E15.71647
G1 X118.510 Y116.564 E15.73118
G1 X117.863 Y117.211 E15.81440
G1 X117.701 Y117.211 E15.82911
G1 X117.539 Y117.372 E15.84991
G1 X117.377 Y117.372 E15.86463
G1 X116.892 Y117.858 E15.92704
G1 X116.730 Y117.858 E15.94175
G1 X116.568 Y118.020 E15.96256
G1 X116.407 Y118.020 E15.97727
G1 X115.921 Y118.505 E16.03968
G1 X115.759 Y118.505 E16.05439
G1 X115.598 Y118.667 E16.07520
G1 X115.436 Y118.667 E16.08991
G1 X115.112 Y118.990 E16.13152
G1 X114.711 Y118.990 E16.16797
G1 X114.711 Y118.829 E16.18268
G1 X113.741 Y118.829 E16.27095
G1 X113.741 Y118.667 E16.28566
G1 X112.284 Y118.667 E16.41807
G1 X112.284 Y118.505 E16.43278
G1 X111.313 Y118.505 E16.52110
G1 X111.313 Y118.343 E16.53582
G1 X110.504 Y118.343 E16.60939
G1 X110.504 Y118.181 E16.62411
G1 X109.532 Y118.181 E16.71244
G1 X109.532 Y118.020 E16.72715
G1 X108.077 Y118.020 E16.85941
G1 X108.077 Y117.858 E16.87413
G1 X107.107 Y117.858 E16.96235
G1 X107.107 Y117.696 E16.97707
G1 X104.349 Y117.696 E17.22788
G1 X104.349 Y118.915 E17.33867
G1 X103.304 Y119.961 E17.47310
G1 X101.760 Y119.961 E17.61352
G1 X101.760 Y120.608 E17.67236
G1 X100.960 Y120.608 E17.74516
G1 X100.960 Y120.446 E17.75987
G1 X99.340 Y120.446 E17.90716
G1 X99.339 Y120.285 E17.92187
G1 X98.371 Y120.285 E18.00994
G1 X98.371 Y118.744 E18.14999
G1 X96.752 Y120.363 E18.35815
G1 X96.751 Y119.961 E18.39471
G1 X95.136 Y119.961 E18.54160
G1 X95.136 Y119.799 E18.55631
G1 X94.164 Y119.799 E18.64473
G1 X94.162 Y118.261 E18.78457
G1 X92.786 Y119.637 E18.96152
G1 X92.385 Y119.637 E18.99798
G1 X92.385 Y119.476 E19.01269
G1 X92.061 Y119.476 E19.04211
G1 X92.061 Y117.935 E19.18218
G1 X91.090 Y118.906 E19.30706
G1 X91.090 Y117.612 E19.42471
G1 X89.796 Y118.906 E19.59104
G1 X89.796 Y118.505 E19.62750
G1 X89.473 Y118.505 E19.65692
G1 X89.473 Y118.343 E19.67163
G1 X89.148 Y118.343 E19.70111
G1 X89.148 Y118.181 E19.71583
G1 X88.987 Y118.181 E19.73046
G1 X88.987 Y118.020 E19.74517
G1 X88.826 Y118.020 E19.75988
G1 X88.826 Y117.858 E19.77459
G1 X88.664 Y117.858 E19.78931
G1 X88.664 Y117.696 E19.80402
G1 X88.502 Y117.696 E19.81873
G1 X88.502 Y117.534 E19.83344
G1 X87.693 Y117.534 E19.90699
G1 X87.693 Y117.372 E19.92171
G1 X87.208 Y117.372 E19.96584
G1 X87.208 Y117.211 E19.98055
G1 X87.046 Y117.211 E19.99526
G1 X87.046 Y117.049 E20.00997
G1 X86.721 Y117.049 E20.03949
G1 X86.721 Y116.887 E20.05421
G1 X86.237 Y116.887 E20.09826
G1 X86.236 Y116.725 E20.11297
G1 X85.674 Y116.725 E20.16409
G1 X86.807 Y115.593 E20.30973
G1 X85.104 Y115.593 E20.46451
G1 X85.104 Y115.431 E20.47923
G1 X84.943 Y115.431 E20.49394
G1 X84.943 Y115.269 E20.50865
G1 X84.781 Y115.269 E20.52337
G1 X84.781 Y114.946 E20.55275
G1 X84.457 Y114.946 E20.58216
G1 X84.457 Y114.622 E20.61161
G1 X84.296 Y114.622 E20.62632
G1 X84.296 Y113.821 E20.69911
G1 X84.857 Y113.821 E20.75016
G1 X85.342 Y113.336 E20.81257
G1 X86.075 Y113.336 E20.87921
G1 X86.075 Y112.851 E20.92335
G1 X87.607 Y112.851 E21.06267
G1 X88.664 Y111.794 E21.19852
G1 X88.664 Y111.395 E21.23485
G1 X89.311 Y111.395 E21.29370
G1 X89.311 Y110.662 E21.36034
G1 X89.796 Y110.176 E21.42275
G1 X89.796 Y110.015 E21.43746
G1 X89.958 Y109.853 E21.45827
G1 X89.958 Y109.529 E21.48769
G1 X91.091 Y108.397 E21.63332
G1 X91.091 Y108.235 E21.64803
G1 X91.576 Y107.750 E21.71045
G1 X91.576 Y107.512 E21.73208
G1 X92.547 Y107.512 E21.82034
G1 X92.547 Y106.941 E21.87227
G1 X92.784 Y106.703 E21.90286
G1 X93.108 Y106.703 E21.93228
G1 X93.270 Y106.541 E21.95308
G1 X93.432 Y106.541 E21.96780
G1 X93.593 Y106.379 E21.98860
G1 X93.755 Y106.379 E22.00331
G1 X93.917 Y106.218 E22.02412
G1 X94.079 Y106.218 E22.03883
G1 X96.182 Y104.114 E22.30929
G1 X96.506 Y104.114 E22.33871
G1 X96.829 Y103.791 E22.38032
G1 X96.991 Y103.791 E22.39503
G1 X97.638 Y103.144 E22.47825
G1 X97.962 Y103.144 E22.50773
G1 X98.695 Y102.410 E22.60195
G1 X98.695 Y101.526 E22.68239
G1 X99.503 Y101.526 E22.75595
G1 X99.503 Y100.555 E22.84421
G1 X100.628 Y100.555 E22.94643
G1 X100.628 Y100.639 E22.95411
G1 X102.330 Y98.937 E23.17301
G1 X102.492 Y98.937 E23.18772
G1 X103.224 Y98.204 E23.28197
G1 X103.225 Y97.557 E23.34081
G1 X103.548 Y97.234 E23.38242
G1 X103.548 Y97.072 E23.39713
G1 X104.195 Y96.425 E23.48035
G1 X104.195 Y95.778 E23.53919
G1 X104.357 Y95.616 E23.55999
G1 X104.357 Y95.130 E23.60414
G1 X104.519 Y94.969 E23.62493
G1 X104.519 Y94.645 E23.65437
G1 X104.918 Y94.245 E23.70576
G1 X105.975 Y94.245 E23.80183
G1 X105.975 Y93.674 E23.85376
G1 X106.784 Y92.865 E23.95781
G1 X106.784 Y92.542 E23.98722
G1 X107.755 Y91.571 E24.11203
G1 X107.755 Y91.248 E24.14146
G1 X108.801 Y90.201 E24.27606
G1 X109.202 Y90.201 E24.31252
G1 X109.202 Y92.304 E24.50377
G1 X109.364 Y92.304 E24.51848
G1 X109.364 Y92.466 E24.53319
G1 X109.526 Y92.466 E24.54790
G1 X109.526 Y92.628 E24.56261
G1 X111.629 Y92.628 E24.75385
G1 X111.629 Y93.028 E24.79031
G1 X111.467 Y93.190 E24.81112
G1 X111.467 Y94.731 E24.95119
G1 X111.629 Y94.731 E24.96590
G1 X111.629 Y94.893 E24.98062
G1 X112.438 Y94.893 E25.05417
G1 X112.438 Y95.054 E25.06888
G1 X113.085 Y95.054 E25.12773
G1 X113.085 Y95.216 E25.14244
G1 X113.247 Y95.216 E25.15715
G1 X113.247 Y95.378 E25.17186
G1 X113.409 Y95.378 E25.18657
G1 X113.409 Y95.540 E25.20128
G1 X113.570 Y95.540 E25.21599
G1 X113.570 Y95.701 E25.23070
G1 X113.732 Y95.701 E25.24541
G1 X113.732 Y95.863 E25.26013
G1 X113.894 Y95.863 E25.27484
G1 X113.894 Y96.025 E25.28955
