; generated by Slic3r 1.3.0-dev on 2017-08-18 at 22:21:49

; external perimeters extrusion width = 0.40mm (1.14mm^3/s)
; perimeters extrusion width = 0.68mm (3.95mm^3/s)
; infill extrusion width = 1.20mm (9.43mm^3/s)
; solid infill extrusion width = 0.68mm (1.32mm^3/s)
; top infill extrusion width = 0.68mm (0.99mm^3/s)
; support material extrusion width = 0.40mm (2.27mm^3/s)

M107
M190 S66 ; set bed temperature and wait for it to be reached
M104 S215 ; set temperature
G28 ; home all axes
G1 Z5 F5000 ; lift nozzle

; Filament gcode

M109 S215 ; set temperature and wait for it to be reached
G21 ; set units to millimeters
G90 ; use absolute coordinates
M82 ; use absolute distances for extrusion
G92 E0
G1 Z0.350 F7800.000
G1 E-2.00000 F2400.00000
G92 E0
G1 X69.941 Y88.544 F7800.000
G1 E2.00000 F2400.00000
G1 F1800
G1 X71.819 Y87.228 E2.20854
G1 X73.535 Y86.695 E2.37193
G1 X74.555 Y86.528 E2.46592
G1 X134.332 Y78.203 E7.95388
G1 X135.235 Y78.148 E8.03616
G1 X137.494 Y78.545 E8.24471
G1 X139.482 Y79.688 E8.45325
G1 X140.961 Y81.441 E8.66179
G1 X141.854 Y84.497 E8.95130
G1 X142.142 Y91.538 E9.59210
G1 X142.142 Y115.642 E11.78380
G1 X142.091 Y116.463 E11.85866
G1 X141.245 Y123.230 E12.47872
G1 X140.571 Y125.422 E12.68727
G1 X139.357 Y127.091 E12.87493
G1 X139.215 Y127.234 E12.89325
G1 X137.337 Y128.550 E13.10179
G1 X135.002 Y129.157 E13.32113
G1 X132.877 Y129.307 E13.51485
G1 X80.441 Y131.844 E18.28839
G1 X77.302 Y131.852 E18.57386
G1 X75.043 Y131.455 E18.78240
G1 X73.055 Y130.312 E18.99094
G1 X71.576 Y128.559 E19.19948
G1 X70.716 Y125.942 E19.44995
G1 X70.548 Y124.393 E19.59169
G1 X69.716 Y115.665 E20.38890
G1 X68.025 Y96.636 E22.12601
G1 X67.881 Y94.908 E22.28369
G1 X67.858 Y94.358 E22.33376
G1 X67.858 Y93.371 E22.42346
G1 X68.255 Y91.112 E22.63201
G1 X69.798 Y88.687 E22.89344
G1 X69.898 Y88.587 E22.90626
G1 E20.90626 F2400.00000
G92 E0
G1 X128.554 Y120.625 F7800.000
G1 E2.00000 F2400.00000
G1 F1800
G1 X130.957 Y120.625 E2.21856
G1 X130.958 Y121.090 E2.26087
G1 X123.014 Y121.090 E2.98317
G1 X122.873 Y121.231 E3.00130
G1 X117.375 Y121.231 E3.50119
G1 X117.235 Y121.372 E3.51931
G1 X113.147 Y121.372 E3.89100
G1 X113.006 Y121.513 E3.90912
G1 X109.482 Y121.513 E4.22954
G1 X109.341 Y121.654 E4.24767
G1 X108.214 Y121.654 E4.35019
G1 X108.073 Y121.795 E4.36832
G1 X105.254 Y121.795 E4.62467
G1 X105.113 Y121.936 E4.64280
G1 X102.434 Y121.936 E4.88636
G1 X102.293 Y122.077 E4.90448
G1 X99.757 Y122.077 E5.13507
G1 X99.616 Y122.218 E5.15321
G1 X97.219 Y122.218 E5.37114
G1 X97.078 Y122.359 E5.38927
G1 X94.964 Y122.359 E5.58155
G1 X94.823 Y122.500 E5.59968
G1 X92.709 Y122.500 E5.79189
G1 X92.568 Y122.641 E5.81003
G1 X90.735 Y122.641 E5.97666
G1 X90.594 Y122.782 E5.99479
G1 X88.620 Y122.782 E6.17426
G1 X88.480 Y122.923 E6.19238
G1 X86.789 Y122.923 E6.34606
G1 X86.648 Y123.064 E6.36420
G1 X84.816 Y123.064 E6.53081
G1 X84.675 Y123.205 E6.54896
G1 X83.123 Y123.205 E6.69003
G1 X82.982 Y123.346 E6.70816
G1 X81.291 Y123.346 E6.86198
G1 X81.150 Y123.487 E6.88010
G1 X79.599 Y123.487 E7.02109
G1 X79.458 Y123.627 E7.03921
G1 X78.902 Y123.627 E7.08981
G1 X78.902 Y121.513 E7.28207
G1 X78.761 Y121.513 E7.29488
G1 X78.761 Y119.963 E7.43588
G1 X78.620 Y119.963 E7.44870
G1 X78.620 Y118.271 E7.60249
G1 X78.479 Y118.271 E7.61532
G1 X78.479 Y116.721 E7.75631
G1 X78.338 Y116.721 E7.76911
G1 X78.338 Y115.170 E7.91010
G1 X78.197 Y115.170 E7.92292
G1 X78.197 Y113.620 E8.06391
G1 X78.056 Y113.620 E8.07672
G1 X78.056 Y113.478 E8.08956
G1 X77.915 Y113.478 E8.10238
G1 X77.915 Y111.787 E8.25617
G1 X77.774 Y111.787 E8.26899
G1 X77.774 Y110.237 E8.40997
G1 X77.633 Y110.237 E8.42279
G1 X77.633 Y108.686 E8.56377
G1 X77.492 Y108.686 E8.57658
G1 X77.492 Y107.136 E8.71757
G1 X77.351 Y107.136 E8.73038
G1 X77.351 Y105.444 E8.88419
G1 X77.210 Y105.444 E8.89700
G1 X77.210 Y103.894 E9.03799
G1 X77.069 Y103.894 E9.05081
G1 X77.069 Y102.343 E9.19179
G1 X76.928 Y102.343 E9.20461
G1 X76.928 Y100.793 E9.34560
G1 X76.787 Y100.793 E9.35842
G1 X76.787 Y99.101 E9.51225
G1 X76.646 Y99.101 E9.52506
G1 X76.646 Y97.550 E9.66603
G1 X76.506 Y97.550 E9.67885
G1 X76.505 Y96.000 E9.81983
G1 X76.365 Y96.000 E9.83265
G1 X76.365 Y94.689 E9.95186
G1 X77.541 Y94.689 E10.05888
G1 X77.682 Y94.548 E10.07701
G1 X79.233 Y94.548 E10.21801
G1 X79.374 Y94.407 E10.23614
G1 X80.924 Y94.407 E10.37708
G1 X81.065 Y94.266 E10.39521
G1 X82.757 Y94.266 E10.54900
G1 X82.898 Y94.125 E10.56714
G1 X84.589 Y94.125 E10.72097
G1 X84.730 Y93.984 E10.73910
G1 X86.422 Y93.984 E10.89295
G1 X86.563 Y93.843 E10.91107
G1 X88.396 Y93.843 E11.07769
G1 X88.537 Y93.702 E11.09581
G1 X89.664 Y93.702 E11.19834
G1 X89.805 Y93.561 E11.21646
G1 X91.214 Y93.561 E11.34455
G1 X91.355 Y93.420 E11.36269
G1 X93.328 Y93.420 E11.54214
G1 X93.469 Y93.279 E11.56027
G1 X95.584 Y93.279 E11.75254
G1 X95.725 Y93.138 E11.77067
G1 X97.979 Y93.138 E11.97566
G1 X98.121 Y92.997 E11.99381
G1 X100.517 Y92.997 E12.21169
G1 X100.658 Y92.857 E12.22983
G1 X103.336 Y92.857 E12.47333
G1 X103.477 Y92.716 E12.49147
G1 X106.297 Y92.716 E12.74787
G1 X106.438 Y92.575 E12.76600
G1 X109.680 Y92.575 E13.06076
G1 X109.821 Y92.434 E13.07890
G1 X113.063 Y92.434 E13.37372
G1 X113.204 Y92.293 E13.39184
G1 X117.573 Y92.293 E13.78915
G1 X117.714 Y92.152 E13.80728
G1 X119.546 Y92.152 E13.97383
G1 X120.393 Y91.306 E14.08267
G1 X120.534 Y91.306 E14.09546
G1 X120.674 Y91.165 E14.11358
G1 X121.753 Y91.165 E14.21161
G1 X121.753 Y90.651 E14.25837
G1 X122.084 Y90.319 E14.30100
G1 X122.359 Y90.319 E14.32599
G1 X122.359 Y90.602 E14.35167
G1 X122.827 Y90.602 E14.39424
G1 X123.115 Y91.850 E14.51078
G1 X124.473 Y90.894 E14.66182
G1 X124.473 Y92.864 E14.84095
G1 X126.869 Y90.467 E15.14909
G1 X126.869 Y92.864 E15.36700
G1 X129.273 Y90.460 E15.67607
G1 X129.696 Y90.460 E15.71452
G1 X130.682 Y89.474 E15.84140
G1 X131.246 Y89.474 E15.89267
G1 X131.387 Y89.333 E15.91080
G1 X132.367 Y89.333 E15.99987
G1 X132.367 Y89.474 E16.01271
G1 X132.674 Y89.474 E16.04066
G1 X132.047 Y90.314 E16.13602
G1 X133.027 Y90.648 E16.23013
G1 X132.329 Y91.583 E16.33623
G1 X132.931 Y91.788 E16.39400
G1 X132.931 Y92.708 E16.47774
G1 X130.527 Y95.112 E16.78686
G1 X132.568 Y95.112 E16.97249
G1 X132.352 Y95.544 E17.01645
G1 X130.393 Y97.508 E17.26870
G1 X133.776 Y97.508 E17.57636
G1 X133.776 Y103.005 E18.07620
G1 X133.917 Y103.005 E18.08902
G1 X133.917 Y114.980 E19.17784
G1 X133.727 Y115.170 E19.20234
G1 X133.586 Y115.170 E19.21516
G1 X133.444 Y115.311 E19.23334
G1 X133.021 Y115.312 E19.27182
G1 X131.803 Y116.530 E19.42847
G1 X131.803 Y116.812 E19.45411
G1 X131.662 Y116.953 E19.47225
G1 X131.662 Y117.094 E19.48507
G1 X131.521 Y117.235 E19.50320
G1 X131.521 Y117.376 E19.51601
G1 X131.380 Y117.517 E19.53416
G1 X131.380 Y117.658 E19.54698
G1 X130.957 Y118.081 E19.60134
G1 X130.957 Y118.222 E19.61415
G1 X128.596 Y120.583 E19.91776
G1 X130.062 Y120.000 F7800.000
G1 F1800
G1 X131.582 Y120.000 E20.05595
G1 X131.582 Y120.282 E20.08164
G1 X131.723 Y120.282 E20.09444
G1 X131.723 Y120.423 E20.10721
G1 X131.864 Y120.423 E20.12003
G1 X131.864 Y120.564 E20.13285
G1 X132.146 Y120.564 E20.15848
G1 X132.146 Y120.705 E20.17130
G1 X132.287 Y120.705 E20.18411
G1 X132.287 Y120.846 E20.19693
G1 X132.428 Y120.846 E20.20975
G1 X132.428 Y120.987 E20.22257
G1 X132.569 Y120.987 E20.23538
G1 X132.569 Y121.128 E20.24820
G1 X132.851 Y121.128 E20.27383
G1 X132.851 Y121.574 E20.31443
G1 X132.294 Y121.574 E20.36504
G1 X132.153 Y121.715 E20.38317
G1 X123.273 Y121.715 E21.19065
G1 X123.132 Y121.856 E21.20878
G1 X117.634 Y121.856 E21.70866
G1 X117.494 Y121.997 E21.72678
G1 X113.406 Y121.997 E22.09847
G1 X113.265 Y122.138 E22.11659
G1 X109.741 Y122.138 E22.43702
G1 X109.600 Y122.279 E22.45515
G1 X108.473 Y122.279 E22.55768
G1 X108.332 Y122.420 E22.57581
G1 X105.512 Y122.420 E22.83215
G1 X105.371 Y122.561 E22.85028
G1 X102.693 Y122.561 E23.09383
G1 X102.552 Y122.702 E23.11195
G1 X100.016 Y122.702 E23.34258
G1 X99.875 Y122.843 E23.36072
G1 X97.478 Y122.843 E23.57863
G1 X97.337 Y122.984 E23.59676
G1 X95.223 Y122.984 E23.78903
G1 X95.082 Y123.125 E23.80715
G1 X92.968 Y123.125 E23.99939
G1 X92.826 Y123.266 E24.01752
G1 X90.994 Y123.266 E24.18415
G1 X90.853 Y123.407 E24.20228
G1 X88.879 Y123.407 E24.38173
G1 X88.738 Y123.548 E24.39986
G1 X87.048 Y123.548 E24.55357
G1 X86.907 Y123.689 E24.57172
G1 X85.074 Y123.689 E24.73833
G1 X84.933 Y123.830 E24.75647
G1 X83.382 Y123.830 E24.89751
G1 X83.241 Y123.970 E24.91563
G1 X81.550 Y123.970 E25.06945
G1 X81.409 Y124.111 E25.08757
G1 X79.858 Y124.111 E25.22856
G1 X79.717 Y124.252 E25.24668
G1 X78.277 Y124.252 E25.37765
G1 X78.277 Y122.138 E25.56991
G1 X78.136 Y122.138 E25.58272
G1 X78.136 Y120.587 E25.72372
G1 X77.995 Y120.587 E25.73654
G1 X77.995 Y118.896 E25.89033
G1 X77.854 Y118.896 E25.90315
G1 X77.854 Y117.345 E26.04414
G1 X77.713 Y117.345 E26.05695
G1 X77.713 Y115.795 E26.19794
G1 X77.572 Y115.795 E26.21076
G1 X77.572 Y114.244 E26.35175
G1 X77.431 Y114.244 E26.36456
G1 X77.431 Y114.103 E26.37740
G1 X77.290 Y114.103 E26.39022
G1 X77.290 Y112.412 E26.54401
G1 X77.149 Y112.412 E26.55683
G1 X77.149 Y110.862 E26.69781
G1 X77.008 Y110.862 E26.71062
G1 X77.008 Y109.311 E26.85161
G1 X76.867 Y109.311 E26.86442
G1 X76.867 Y107.760 E27.00541
G1 X76.726 Y107.760 E27.01822
G1 X76.726 Y106.069 E27.17203
G1 X76.585 Y106.069 E27.18484
G1 X76.585 Y104.518 E27.32583
G1 X76.444 Y104.518 E27.33865
G1 X76.444 Y102.968 E27.47963
G1 X76.304 Y102.968 E27.49245
G1 X76.303 Y101.417 E27.63344
G1 X76.163 Y101.417 E27.64626
G1 X76.163 Y99.726 E27.80009
G1 X76.022 Y99.726 E27.81290
G1 X76.022 Y98.175 E27.95387
G1 X75.881 Y98.175 E27.96669
G1 X75.881 Y96.625 E28.10767
G1 X75.740 Y96.625 E28.12049
G1 X75.740 Y95.074 E28.26147
G1 X75.599 Y95.074 E28.27429
G1 X75.599 Y94.205 E28.35334
G1 X75.732 Y94.205 E28.36548
G1 X75.873 Y94.064 E28.38361
G1 X77.283 Y94.064 E28.51177
G1 X77.424 Y93.923 E28.52990
G1 X78.974 Y93.923 E28.67090
G1 X79.115 Y93.782 E28.68903
G1 X80.666 Y93.782 E28.82998
G1 X80.807 Y93.641 E28.84812
G1 X82.498 Y93.641 E29.00191
G1 X82.639 Y93.500 E29.02005
G1 X84.331 Y93.500 E29.17386
G1 X84.472 Y93.359 E29.19199
G1 X86.163 Y93.359 E29.34582
G1 X86.304 Y93.218 E29.36394
G1 X88.137 Y93.218 E29.53057
G1 X88.278 Y93.077 E29.54869
G1 X89.405 Y93.077 E29.65122
G1 X89.546 Y92.936 E29.66935
G1 X90.955 Y92.936 E29.79746
G1 X91.096 Y92.795 E29.81560
G1 X93.070 Y92.795 E29.99504
G1 X93.211 Y92.654 E30.01318
G1 X95.325 Y92.654 E30.20544
G1 X95.466 Y92.514 E30.22357
G1 X97.721 Y92.514 E30.42858
G1 X97.862 Y92.373 E30.44673
G1 X100.258 Y92.373 E30.66460
G1 X100.399 Y92.232 E30.68274
G1 X103.077 Y92.232 E30.92625
G1 X103.219 Y92.091 E30.94439
G1 X106.038 Y92.091 E31.20076
G1 X106.179 Y91.950 E31.21889
G1 X109.421 Y91.950 E31.51366
G1 X109.562 Y91.809 E31.53180
G1 X112.804 Y91.809 E31.82660
G1 X112.945 Y91.668 E31.84473
G1 X117.314 Y91.668 E32.24204
G1 X117.455 Y91.527 E32.26017
G1 X119.287 Y91.527 E32.42674
G1 X120.134 Y90.681 E32.53554
G1 X120.275 Y90.681 E32.54836
G1 X120.416 Y90.540 E32.56649
G1 X121.128 Y90.540 E32.63123
G1 X121.128 Y90.251 E32.65753
G1 X121.261 Y90.117 E32.67472
G1 X121.402 Y90.117 E32.68754
G1 X121.825 Y89.694 E32.74192
G1 X122.550 Y89.694 E32.80783
G1 X122.596 Y89.553 E32.82130
G1 X122.984 Y89.553 E32.85659
G1 X122.984 Y89.977 E32.89508
G1 X123.324 Y89.977 E32.92603
G1 X123.515 Y90.804 E33.00327
G1 X124.690 Y89.976 E33.13399
G1 X125.098 Y89.976 E33.17106
G1 X125.098 Y91.355 E33.29643
G1 X126.618 Y89.835 E33.49185
G1 X127.494 Y89.835 E33.57155
G1 X127.494 Y91.355 E33.70975
G1 X129.014 Y89.835 E33.90517
G1 X129.437 Y89.835 E33.94362
G1 X130.424 Y88.849 E34.07051
G1 X130.987 Y88.849 E34.12177
G1 X131.128 Y88.708 E34.13990
G1 X132.122 Y88.708 E34.23028
G1 X132.122 Y88.426 E34.25591
G1 X132.256 Y88.426 E34.26807
G1 X132.538 Y88.144 E34.30432
G1 X132.992 Y88.144 E34.34558
G1 X132.992 Y88.849 E34.40968
G1 X133.133 Y88.849 E34.42249
G1 X133.133 Y88.990 E34.43531
G1 X133.274 Y88.990 E34.44813
G1 X133.274 Y89.412 E34.48657
G1 X133.500 Y89.412 E34.50712
G1 X133.062 Y89.999 E34.57370
G1 X133.837 Y90.263 E34.64821
G1 X133.837 Y90.606 E34.67939
G1 X133.344 Y91.268 E34.75447
G1 X134.119 Y91.532 E34.82897
G1 X134.119 Y91.973 E34.86911
G1 X133.555 Y91.973 E34.92038
G1 X133.555 Y92.967 E35.01075
G1 X132.036 Y94.487 E35.20620
G1 X133.579 Y94.487 E35.34659
G1 X132.866 Y95.914 E35.49168
G1 X131.899 Y96.883 E35.61617
G1 X134.401 Y96.883 E35.84369
G1 X134.401 Y102.380 E36.34355
G1 X134.542 Y102.380 E36.35636
G1 X134.542 Y115.239 E37.52559
G1 X134.401 Y115.381 E37.54375
G1 X134.401 Y115.520 E37.55646
G1 X134.268 Y115.654 E37.57365
G1 X134.127 Y115.654 E37.58647
G1 X133.986 Y115.795 E37.60460
G1 X133.845 Y115.795 E37.61742
G1 X133.703 Y115.936 E37.63557
G1 X133.280 Y115.936 E37.67406
G1 X132.428 Y116.789 E37.78366
G1 X132.428 Y117.071 E37.80930
G1 X132.287 Y117.212 E37.82744
G1 X132.287 Y117.353 E37.84025
G1 X132.146 Y117.494 E37.85838
G1 X132.146 Y117.635 E37.87120
G1 X132.005 Y117.776 E37.88934
G1 X132.005 Y117.917 E37.90215
G1 X131.582 Y118.339 E37.95652
G1 X131.582 Y118.480 E37.96934
G1 X130.105 Y119.958 E38.15930
G1 X131.571 Y119.375 F7800.000
G1 F1800
G1 X132.207 Y119.375 E38.21713
G1 X132.207 Y119.657 E38.24279
G1 X132.348 Y119.657 E38.25559
G1 X132.348 Y119.798 E38.26840
G1 X132.489 Y119.798 E38.28121
G1 X132.489 Y119.939 E38.29403
G1 X132.771 Y119.939 E38.31967
G1 X132.771 Y120.080 E38.33248
G1 X132.912 Y120.080 E38.34530
G1 X132.912 Y120.221 E38.35812
G1 X133.053 Y120.221 E38.37093
G1 X133.053 Y120.362 E38.38375
G1 X133.194 Y120.362 E38.39657
G1 X133.194 Y120.503 E38.40939
G1 X133.476 Y120.503 E38.43502
G1 X133.476 Y120.644 E38.44784
G1 X133.758 Y120.644 E38.47347
G1 X133.758 Y121.067 E38.51193
G1 X133.898 Y121.067 E38.52474
G1 X133.898 Y121.208 E38.53756
G1 X134.039 Y121.208 E38.55038
G1 X134.039 Y121.490 E38.57601
G1 X134.180 Y121.490 E38.58883
G1 X134.180 Y121.771 E38.61446
G1 X134.321 Y121.771 E38.62728
G1 X134.321 Y122.199 E38.66616
G1 X132.553 Y122.199 E38.82696
G1 X132.412 Y122.340 E38.84509
G1 X123.532 Y122.340 E39.65257
G1 X123.391 Y122.481 E39.67069
G1 X117.893 Y122.481 E40.17057
G1 X117.752 Y122.622 E40.18869
G1 X113.665 Y122.622 E40.56039
G1 X113.524 Y122.763 E40.57851
G1 X111.551 Y122.763 E40.75792
G1 X111.410 Y122.904 E40.77606
G1 X111.059 Y122.904 E40.80796
G1 X111.059 Y122.763 E40.82077
G1 X110.000 Y122.763 E40.91706
G1 X109.859 Y122.904 E40.93518
G1 X108.731 Y122.904 E41.03772
G1 X108.590 Y123.045 E41.05585
G1 X105.771 Y123.045 E41.31219
G1 X105.630 Y123.186 E41.33032
G1 X102.952 Y123.186 E41.57386
G1 X102.811 Y123.327 E41.59197
G1 X100.274 Y123.327 E41.82265
G1 X100.133 Y123.468 E41.84079
G1 X97.737 Y123.468 E42.05868
G1 X97.596 Y123.609 E42.07682
G1 X95.481 Y123.609 E42.26907
G1 X95.340 Y123.750 E42.28719
G1 X93.226 Y123.750 E42.47944
G1 X93.085 Y123.891 E42.49758
G1 X91.253 Y123.891 E42.66420
G1 X91.112 Y124.032 E42.68233
G1 X89.138 Y124.032 E42.86177
G1 X88.997 Y124.172 E42.87990
G1 X87.306 Y124.172 E43.03365
G1 X87.165 Y124.313 E43.05179
G1 X85.333 Y124.313 E43.21840
G1 X85.192 Y124.454 E43.23655
G1 X83.641 Y124.454 E43.37755
G1 X83.500 Y124.595 E43.39567
G1 X81.808 Y124.595 E43.54948
G1 X81.668 Y124.736 E43.56760
G1 X80.117 Y124.736 E43.70860
G1 X79.976 Y124.877 E43.72671
G1 X77.652 Y124.877 E43.93805
G1 X77.652 Y122.763 E44.13030
G1 X77.511 Y122.763 E44.14312
G1 X77.511 Y121.212 E44.28412
G1 X77.370 Y121.212 E44.29694
G1 X77.370 Y119.521 E44.45073
G1 X77.229 Y119.521 E44.46355
G1 X77.229 Y117.970 E44.60454
G1 X77.088 Y117.970 E44.61735
G1 X77.088 Y116.420 E44.75834
G1 X76.947 Y116.420 E44.77116
G1 X76.947 Y114.869 E44.91214
G1 X76.806 Y114.869 E44.92496
G1 X76.806 Y114.728 E44.93780
G1 X76.665 Y114.728 E44.95061
G1 X76.665 Y113.037 E45.10441
G1 X76.524 Y113.037 E45.11723
G1 X76.524 Y111.486 E45.25821
G1 X76.383 Y111.486 E45.27102
G1 X76.383 Y109.936 E45.41201
G1 X76.243 Y109.936 E45.42481
G1 X76.242 Y108.385 E45.56581
G1 X76.102 Y108.385 E45.57861
G1 X76.101 Y106.694 E45.73242
G1 X75.961 Y106.694 E45.74524
G1 X75.961 Y105.143 E45.88623
G1 X75.820 Y105.143 E45.89905
G1 X75.820 Y103.593 E46.04003
G1 X75.679 Y103.593 E46.05285
G1 X75.679 Y102.042 E46.19384
G1 X75.538 Y102.042 E46.20665
