; generated by Slic3r 1.3.0-dev on 2017-08-18 at 22:22:58

; external perimeters extrusion width = 0.40mm (1.14mm^3/s)
; perimeters extrusion width = 0.68mm (3.95mm^3/s)
; infill extrusion width = 1.20mm (9.43mm^3/s)
; solid infill extrusion width = 0.68mm (1.32mm^3/s)
; top infill extrusion width = 0.68mm (0.99mm^3/s)
; support material extrusion width = 0.40mm (2.27mm^3/s)

M107
M190 S66 ; set bed temperature and wait for it to be reached
M104 S215 ; set temperature
G28 ; home all axes
G1 Z5 F5000 ; lift nozzle

; Filament gcode

M109 S215 ; set temperature and wait for it to be reached
G21 ; set units to millimeters
G90 ; use absolute coordinates
M82 ; use absolute distances for extrusion
G92 E0
G1 Z0.350 F7800.000
G1 E-2.00000 F2400.00000
G92 E0
G1 X62.977 Y87.512 F7800.000
G1 E2.00000 F2400.00000
G1 F1800
G1 X64.826 Y86.155 E2.20854
G1 X67.681 Y85.470 E2.47551
G1 X71.002 Y85.503 E2.77746
G1 X77.477 Y85.955 E3.36765
G1 X85.118 Y86.554 E4.06464
G1 X102.022 Y88.055 E5.60774
G1 X112.563 Y89.122 E6.57112
G1 X121.503 Y90.315 E7.39127
G1 X122.062 Y90.413 E7.44282
G1 X122.849 Y90.588 E7.51619
G1 X125.610 Y91.928 E7.79524
G1 X143.751 Y106.768 E9.92636
G1 X144.408 Y107.385 E10.00838
G1 X147.119 Y110.302 E10.37044
G1 X148.367 Y112.226 E10.57898
G1 X148.892 Y114.812 E10.81890
G1 X148.807 Y118.149 E11.12241
G1 X148.350 Y120.396 E11.33095
G1 X146.869 Y122.659 E11.57687
G1 X144.974 Y123.992 E11.78750
G1 X142.849 Y124.580 E11.98799
G1 X142.369 Y124.630 E12.03189
G1 X141.690 Y124.665 E12.09370
G1 X140.912 Y124.625 E12.16457
G1 X85.482 Y118.515 E17.23534
G1 X84.674 Y118.375 E17.30991
G1 X72.156 Y115.396 E18.47990
G1 X70.051 Y114.487 E18.68845
G1 X68.382 Y112.914 E18.89699
G1 X67.731 Y111.844 E19.01084
G1 X66.281 Y108.858 E19.31269
G1 X66.041 Y108.299 E19.36798
G1 X62.515 Y98.938 E20.27754
G1 X62.279 Y98.172 E20.35049
G1 X61.293 Y94.128 E20.72891
G1 X61.120 Y92.110 E20.91308
G1 X61.152 Y91.645 E20.95552
G1 X61.702 Y89.418 E21.16407
G1 X62.944 Y87.562 E21.36715
G1 E19.36715 F2400.00000
G92 E0
G1 X135.717 Y113.381 F7800.000
G1 E2.00000 F2400.00000
G1 F1800
G1 X136.896 Y113.381 E2.10729
G1 X137.037 Y113.571 E2.12873
G1 X137.967 Y113.704 E2.21413
G1 X138.250 Y113.710 E2.23989
G1 X138.250 Y114.272 E2.29099
G1 X138.399 Y114.273 E2.30456
G1 X138.399 Y114.574 E2.33199
G1 X138.548 Y114.574 E2.34555
G1 X138.548 Y114.871 E2.37249
G1 X138.697 Y114.871 E2.38605
G1 X138.697 Y115.398 E2.43396
G1 X137.717 Y115.398 E2.52307
G1 X137.717 Y115.249 E2.53661
G1 X136.831 Y115.249 E2.61716
G1 X136.831 Y115.100 E2.63072
G1 X135.783 Y115.100 E2.72597
G1 X135.783 Y114.951 E2.73951
G1 X134.735 Y114.951 E2.83476
G1 X134.734 Y114.802 E2.84831
G1 X133.701 Y114.802 E2.94223
G1 X133.701 Y114.652 E2.95579
G1 X132.643 Y114.652 E3.05200
G1 X132.642 Y114.503 E3.06554
G1 X131.763 Y114.503 E3.14547
G1 X131.763 Y114.354 E3.15902
G1 X130.711 Y114.354 E3.25463
G1 X130.710 Y114.206 E3.26817
G1 X129.520 Y114.206 E3.37638
G1 X129.520 Y114.056 E3.38993
G1 X128.481 Y114.056 E3.48441
G1 X128.480 Y113.908 E3.49795
G1 X127.429 Y113.908 E3.59351
G1 X127.428 Y113.758 E3.60707
G1 X126.103 Y113.758 E3.72756
G1 X126.103 Y113.460 E3.75466
G1 X124.897 Y113.460 E3.86432
G1 X124.895 Y113.311 E3.87787
G1 X123.716 Y113.311 E3.98514
G1 X123.715 Y113.163 E3.99863
G1 X122.673 Y113.163 E4.09338
G1 X122.673 Y113.013 E4.10698
G1 X120.737 Y113.013 E4.28301
G1 X120.737 Y112.864 E4.29655
G1 X119.535 Y112.864 E4.40586
G1 X119.534 Y112.715 E4.41941
G1 X118.499 Y112.715 E4.51354
G1 X118.499 Y112.567 E4.52703
G1 X116.562 Y112.566 E4.70316
G1 X116.561 Y112.417 E4.71669
G1 X113.867 Y112.417 E4.96166
G1 X113.866 Y112.268 E4.97521
G1 X111.930 Y112.268 E5.15125
G1 X111.928 Y112.119 E5.16480
G1 X111.333 Y112.119 E5.21888
G1 X111.332 Y111.970 E5.23243
G1 X110.438 Y111.970 E5.31372
G1 X110.436 Y111.821 E5.32728
G1 X108.806 Y111.821 E5.47553
G1 X108.805 Y111.672 E5.48907
G1 X107.476 Y111.672 E5.60990
G1 X107.476 Y111.523 E5.62344
G1 X104.490 Y111.523 E5.89497
G1 X104.489 Y111.374 E5.90852
G1 X100.600 Y111.374 E6.26214
G1 X99.864 Y110.322 E6.37895
G1 X99.118 Y110.927 E6.46628
G1 X97.933 Y110.927 E6.57411
G1 X97.932 Y110.778 E6.58766
G1 X96.300 Y110.778 E6.73605
G1 X96.300 Y110.629 E6.74960
G1 X94.809 Y110.629 E6.88520
G1 X94.809 Y110.480 E6.89875
G1 X93.914 Y110.480 E6.98010
G1 X93.914 Y110.331 E6.99364
G1 X92.722 Y110.331 E7.10204
G1 X92.722 Y110.182 E7.11559
G1 X91.085 Y110.182 E7.26440
G1 X91.085 Y109.990 E7.28186
G1 X88.249 Y110.066 E7.53987
G1 X88.242 Y108.394 E7.69185
G1 X88.001 Y108.394 E7.71372
G1 X87.990 Y108.245 E7.72732
G1 X85.425 Y108.245 E7.96054
G1 X84.627 Y107.846 E8.04168
G1 X84.377 Y108.096 E8.07385
G1 X83.776 Y108.096 E8.12846
G1 X83.776 Y107.947 E8.14202
G1 X81.993 Y107.947 E8.30409
G1 X81.993 Y107.798 E8.31764
G1 X80.054 Y107.798 E8.49392
G1 X80.054 Y107.649 E8.50747
G1 X78.117 Y107.649 E8.68357
G1 X78.117 Y107.501 E8.69703
G1 X75.440 Y107.499 E8.94043
G1 X75.405 Y105.616 E9.11168
G1 X75.351 Y105.456 E9.12710
G1 X75.567 Y105.294 E9.15159
G1 X74.678 Y103.960 E9.29735
G1 X75.785 Y102.438 E9.46852
G1 X74.520 Y102.438 E9.58354
G1 X74.939 Y99.365 E9.86550
G1 X73.328 Y100.135 E10.02785
G1 X73.316 Y99.875 E10.05158
G1 X73.089 Y99.724 E10.07638
G1 X72.775 Y98.562 E10.18574
G1 X73.749 Y97.582 E10.31133
G1 X71.592 Y96.587 E10.52727
G1 X71.650 Y95.898 E10.59014
G1 X70.940 Y95.571 E10.66126
G1 X71.907 Y94.313 E10.80549
G1 X71.545 Y94.011 E10.84841
G1 X73.283 Y94.011 E11.00644
G1 X73.283 Y94.160 E11.01999
G1 X75.369 Y94.160 E11.20968
G1 X75.369 Y94.309 E11.22323
G1 X77.306 Y94.309 E11.39935
G1 X77.306 Y94.458 E11.41290
G1 X79.243 Y94.458 E11.58906
G1 X79.243 Y94.608 E11.60274
G1 X81.030 Y94.608 E11.76526
G1 X81.030 Y94.756 E11.77873
G1 X82.968 Y94.756 E11.95493
G1 X82.968 Y94.905 E11.96848
G1 X84.755 Y94.905 E12.13099
G1 X84.755 Y95.079 E12.14684
G1 X85.316 Y95.070 E12.19781
G1 X85.313 Y95.203 E12.20987
G1 X86.991 Y95.203 E12.36244
G1 X86.991 Y95.352 E12.37599
G1 X88.779 Y95.352 E12.53864
G1 X88.779 Y95.501 E12.55219
G1 X90.419 Y95.501 E12.70125
G1 X90.419 Y95.650 E12.71480
G1 X91.909 Y95.650 E12.85029
G1 X91.909 Y95.782 E12.86234
G1 X93.586 Y95.800 E13.01489
G1 X93.590 Y96.338 E13.06387
G1 X94.984 Y95.948 E13.19556
G1 X95.932 Y95.948 E13.28172
G1 X95.932 Y96.097 E13.29527
G1 X97.421 Y96.097 E13.43068
G1 X97.421 Y96.246 E13.44423
G1 X98.912 Y96.246 E13.57981
G1 X98.912 Y96.395 E13.59336
G1 X101.147 Y96.395 E13.79658
G1 X101.147 Y96.544 E13.81013
G1 X102.637 Y96.544 E13.94564
G1 X102.637 Y96.693 E13.95918
G1 X103.978 Y96.693 E14.08109
G1 X103.978 Y96.842 E14.09465
G1 X105.319 Y96.842 E14.21663
G1 X105.319 Y96.991 E14.23014
G1 X106.660 Y96.991 E14.35209
G1 X106.660 Y97.140 E14.36568
G1 X108.001 Y97.140 E14.48759
G1 X108.001 Y97.267 E14.49911
G1 X109.356 Y97.286 E14.62231
G1 X109.400 Y97.782 E14.66758
G1 X110.532 Y97.465 E14.77442
G1 X110.532 Y97.590 E14.78580
G1 X111.727 Y97.589 E14.89444
G1 X111.727 Y97.736 E14.90782
G1 X113.067 Y97.736 E15.02974
G1 X113.067 Y97.885 E15.04328
G1 X114.260 Y97.885 E15.15170
G1 X114.260 Y98.034 E15.16525
G1 X115.451 Y98.034 E15.27361
G1 X115.451 Y98.183 E15.28717
G1 X116.644 Y98.183 E15.39558
G1 X116.644 Y98.332 E15.40915
G1 X117.836 Y98.332 E15.51752
G1 X117.836 Y98.481 E15.53109
G1 X118.682 Y98.481 E15.60805
G1 X118.631 Y98.566 E15.61706
G1 X119.217 Y98.585 E15.67042
G1 X118.599 Y99.413 E15.76437
G1 X118.954 Y99.534 E15.79846
G1 X118.639 Y99.956 E15.84630
G1 X119.922 Y100.436 E15.97086
G1 X119.922 Y101.455 E16.06350
G1 X120.421 Y101.457 E16.10883
G1 X121.242 Y104.743 E16.41682
G1 X121.825 Y103.577 E16.53534
G1 X122.105 Y103.633 E16.56134
G1 X122.121 Y103.846 E16.58078
G1 X122.585 Y103.846 E16.62299
G1 X122.609 Y104.054 E16.64203
G1 X122.754 Y104.075 E16.65530
G1 X122.754 Y104.738 E16.71559
G1 X122.902 Y104.738 E16.72908
G1 X122.902 Y104.888 E16.74273
G1 X124.153 Y104.888 E16.85651
G1 X124.243 Y105.023 E16.87116
G1 X124.243 Y105.633 E16.92669
G1 X125.464 Y105.633 E17.03776
G1 X125.755 Y106.893 E17.15527
G1 X126.638 Y106.271 E17.25345
G1 X127.887 Y106.467 E17.36847
G1 X128.302 Y106.797 E17.41669
G1 X128.320 Y106.853 E17.42203
G1 X129.070 Y107.867 E17.53672
G1 X129.368 Y107.868 E17.56383
G1 X129.766 Y108.464 E17.62904
G1 X130.042 Y108.464 E17.65416
G1 X130.263 Y108.763 E17.68790
G1 X130.798 Y108.763 E17.73656
G1 X130.922 Y109.587 E17.81236
G1 X131.758 Y110.702 E17.93903
G1 X132.061 Y110.701 E17.96659
G1 X132.340 Y111.445 E18.03882
G1 X132.875 Y111.445 E18.08745
G1 X133.096 Y111.743 E18.12123
G1 X133.193 Y111.743 E18.13003
G1 X133.491 Y112.189 E18.17885
G1 X134.674 Y112.189 E18.28638
G1 X134.674 Y112.338 E18.29986
G1 X135.350 Y112.338 E18.36132
G1 X135.555 Y112.529 E18.38679
G1 X135.717 Y112.771 E18.41328
G1 X135.717 Y113.321 E18.46325
G1 E16.46325 F2400.00000
G92 E0
G1 X140.199 Y115.906 F7800.000
G1 E2.00000 F2400.00000
G1 F1800
G1 X140.961 Y116.271 E2.07685
G1 X140.961 Y116.767 E2.12199
G1 X140.518 Y116.767 E2.16230
G1 X140.430 Y116.469 E2.19055
G1 X140.078 Y116.469 E2.22256
G1 X140.078 Y116.321 E2.23611
G1 X139.032 Y116.320 E2.33119
G1 X139.031 Y116.172 E2.34474
G1 X138.137 Y116.171 E2.42604
G1 X138.136 Y116.022 E2.43959
G1 X137.095 Y116.022 E2.53425
G1 X137.095 Y115.873 E2.54779
G1 X136.206 Y115.873 E2.62864
G1 X136.206 Y115.724 E2.64219
G1 X135.160 Y115.724 E2.73726
G1 X135.160 Y115.576 E2.75080
G1 X134.114 Y115.575 E2.84587
G1 X134.113 Y115.426 E2.85941
G1 X133.076 Y115.426 E2.95370
G1 X133.076 Y115.277 E2.96726
G1 X132.024 Y115.277 E3.06291
G1 X132.023 Y115.128 E3.07645
G1 X131.138 Y115.128 E3.15689
G1 X131.138 Y114.979 E3.17044
G1 X130.090 Y114.979 E3.26574
G1 X130.089 Y114.830 E3.27929
G1 X128.899 Y114.830 E3.38752
G1 X128.898 Y114.681 E3.40108
G1 X127.858 Y114.681 E3.49566
G1 X127.857 Y114.532 E3.50920
G1 X126.810 Y114.532 E3.60443
G1 X126.809 Y114.383 E3.61799
G1 X125.478 Y114.383 E3.73902
G1 X125.478 Y114.085 E3.76612
G1 X124.277 Y114.085 E3.87527
G1 X124.276 Y113.936 E3.88882
G1 X123.091 Y113.936 E3.99652
G1 X123.091 Y113.788 E4.01003
G1 X122.049 Y113.788 E4.10480
G1 X122.049 Y113.638 E4.11839
G1 X120.113 Y113.638 E4.29445
G1 X120.113 Y113.489 E4.30800
G1 X118.914 Y113.489 E4.41695
G1 X118.913 Y113.340 E4.43050
G1 X117.876 Y113.340 E4.52486
G1 X117.875 Y113.192 E4.53837
G1 X115.938 Y113.191 E4.71450
G1 X115.938 Y113.042 E4.72801
G1 X113.249 Y113.042 E4.97250
G1 X113.248 Y112.893 E4.98606
G1 X111.312 Y112.893 E5.16207
G1 X111.310 Y112.744 E5.17562
G1 X110.715 Y112.744 E5.22974
G1 X110.713 Y112.595 E5.24329
G1 X109.820 Y112.595 E5.32453
G1 X109.818 Y112.446 E5.33809
G1 X108.186 Y112.446 E5.48655
G1 X108.185 Y112.297 E5.50010
G1 X106.851 Y112.297 E5.62136
G1 X106.851 Y112.148 E5.63490
G1 X103.867 Y112.148 E5.90620
G1 X103.867 Y111.999 E5.91975
G1 X100.275 Y111.999 E6.24638
G1 X99.737 Y111.230 E6.33172
G1 X98.967 Y111.856 E6.42194
G1 X98.655 Y111.780 E6.45109
G1 X98.655 Y111.552 E6.47185
G1 X97.310 Y111.552 E6.59411
G1 X97.310 Y111.403 E6.60766
G1 X95.675 Y111.403 E6.75628
G1 X95.675 Y111.254 E6.76983
G1 X94.184 Y111.254 E6.90539
G1 X94.184 Y111.105 E6.91894
G1 X93.290 Y111.105 E7.00025
G1 X93.290 Y110.956 E7.01380
G1 X92.098 Y110.956 E7.12219
G1 X92.098 Y110.807 E7.13575
G1 X90.460 Y110.807 E7.28464
G1 X90.460 Y110.632 E7.30057
G1 X87.626 Y110.707 E7.55835
G1 X87.620 Y109.019 E7.71184
G1 X87.421 Y109.019 E7.72989
G1 X87.410 Y108.870 E7.74348
G1 X85.278 Y108.870 E7.93735
G1 X84.750 Y108.606 E7.99098
G1 X84.636 Y108.721 E8.00574
G1 X83.155 Y108.721 E8.14042
G1 X83.154 Y108.572 E8.15397
G1 X81.369 Y108.572 E8.31623
G1 X81.369 Y108.423 E8.32978
G1 X79.431 Y108.423 E8.50599
G1 X79.431 Y108.274 E8.51954
G1 X77.494 Y108.274 E8.69565
G1 X77.494 Y108.126 E8.70914
G1 X75.283 Y108.124 E8.91016
G1 X75.259 Y108.051 E8.91719
G1 X74.820 Y107.743 E8.96593
G1 X74.793 Y106.337 E9.09380
G1 X74.594 Y106.337 E9.11197
G1 X74.580 Y106.188 E9.12558
G1 X74.439 Y106.188 E9.13838
G1 X74.270 Y105.484 E9.20416
G1 X74.719 Y105.149 E9.25512
G1 X74.066 Y104.170 E9.36207
G1 X73.991 Y104.094 E9.37180
G1 X73.934 Y103.921 E9.38836
G1 X74.558 Y103.063 E9.48487
G1 X73.804 Y103.063 E9.55340
G1 X74.163 Y100.429 E9.79511
G1 X73.503 Y100.744 E9.86162
G1 X72.714 Y100.380 E9.94071
G1 X72.706 Y100.219 E9.95532
G1 X72.547 Y100.113 E9.97270
G1 X72.078 Y98.378 E10.13617
G1 X72.676 Y97.776 E10.21333
G1 X70.933 Y96.971 E10.38788
G1 X70.991 Y96.282 E10.45074
G1 X70.439 Y96.028 E10.50599
G1 X70.325 Y95.345 E10.56895
G1 X71.046 Y94.408 E10.67637
G1 X70.791 Y94.196 E10.70653
G1 X70.791 Y93.237 E10.79372
G1 X71.821 Y93.237 E10.88741
G1 X71.821 Y93.386 E10.90096
G1 X73.908 Y93.386 E11.09065
G1 X73.908 Y93.535 E11.10420
G1 X75.994 Y93.535 E11.29389
G1 X75.994 Y93.684 E11.30744
G1 X77.931 Y93.684 E11.48356
G1 X77.931 Y93.833 E11.49711
G1 X79.868 Y93.833 E11.67327
G1 X79.868 Y93.983 E11.68693
G1 X81.655 Y93.983 E11.84946
G1 X81.655 Y94.131 E11.86294
G1 X83.593 Y94.131 E12.03914
G1 X83.593 Y94.280 E12.05269
G1 X85.380 Y94.280 E12.21520
G1 X85.380 Y94.444 E12.23015
G1 X85.957 Y94.435 E12.28256
G1 X85.953 Y94.578 E12.29554
G1 X87.615 Y94.578 E12.44670
G1 X87.615 Y94.727 E12.46025
G1 X89.404 Y94.727 E12.62290
G1 X89.404 Y94.876 E12.63645
G1 X91.043 Y94.876 E12.78550
G1 X91.043 Y95.025 E12.79905
G1 X92.533 Y95.025 E12.93454
G1 X92.533 Y95.164 E12.94718
G1 X94.207 Y95.181 E13.09938
G1 X94.209 Y95.516 E13.12981
G1 X94.898 Y95.323 E13.19487
G1 X96.557 Y95.323 E13.34566
G1 X96.557 Y95.472 E13.35922
G1 X98.046 Y95.472 E13.49462
G1 X98.046 Y95.621 E13.50817
G1 X99.537 Y95.621 E13.64375
G1 X99.537 Y95.770 E13.65730
G1 X101.772 Y95.769 E13.86052
G1 X101.772 Y95.919 E13.87416
G1 X103.262 Y95.919 E14.00967
G1 X103.262 Y96.068 E14.02321
G1 X104.603 Y96.068 E14.14512
G1 X104.603 Y96.217 E14.15868
G1 X105.944 Y96.217 E14.28066
G1 X105.944 Y96.366 E14.29418
G1 X107.285 Y96.366 E14.41613
G1 X107.285 Y96.515 E14.42970
G1 X108.626 Y96.515 E14.55162
G1 X108.626 Y96.651 E14.56393
G1 X109.928 Y96.669 E14.68233
G1 X109.956 Y96.978 E14.71052
G1 X110.544 Y96.813 E14.76609
G1 X111.157 Y96.813 E14.82178
G1 X111.157 Y96.965 E14.83558
G1 X112.352 Y96.963 E14.94422
G1 X112.352 Y97.111 E14.95768
G1 X113.692 Y97.111 E15.07959
G1 X113.692 Y97.260 E15.09314
G1 X114.885 Y97.260 E15.20156
G1 X114.885 Y97.409 E15.21511
G1 X116.076 Y97.409 E15.32347
G1 X116.076 Y97.558 E15.33702
G1 X117.269 Y97.558 E15.44543
G1 X117.269 Y97.707 E15.45900
G1 X118.460 Y97.707 E15.56737
G1 X118.460 Y97.856 E15.58093
G1 X119.791 Y97.856 E15.70193
G1 X119.718 Y97.976 E15.71468
G1 X119.824 Y97.980 E15.72431
G1 X120.322 Y98.149 E15.77213
G1 X119.613 Y99.099 E15.87989
G1 X119.968 Y99.220 E15.91397
G1 X119.638 Y99.663 E15.96417
G1 X120.434 Y99.961 E16.04150
G1 X120.547 Y100.412 E16.08379
G1 X120.547 Y100.833 E16.12203
G1 X120.909 Y100.834 E16.15495
G1 X121.439 Y102.953 E16.35353
G1 X122.038 Y101.754 E16.47541
G1 X122.342 Y101.849 E16.50439
G1 X122.302 Y102.133 E16.53051
G1 X122.505 Y102.136 E16.54893
G1 X122.517 Y102.403 E16.57323
G1 X122.647 Y102.438 E16.58546
G1 X122.703 Y103.221 E16.65681
G1 X123.158 Y103.361 E16.70011
G1 X123.174 Y103.505 E16.71328
G1 X123.378 Y103.535 E16.73201
G1 X123.378 Y104.114 E16.78462
G1 X123.527 Y104.114 E16.79813
G1 X123.527 Y104.264 E16.81175
G1 X124.457 Y104.264 E16.89629
G1 X124.550 Y104.357 E16.90828
G1 X124.868 Y104.833 E16.96036
G1 X124.868 Y105.008 E16.97627
G1 X125.961 Y105.008 E17.07573
G1 X126.155 Y105.846 E17.15392
G1 X127.382 Y104.982 E17.29044
G1 X127.268 Y105.737 E17.35993
G1 X128.195 Y105.883 E17.44522
G1 X128.312 Y106.007 E17.46069
G1 X128.842 Y106.428 E17.52225
G1 X128.885 Y106.567 E17.53546
G1 X129.385 Y107.243 E17.61194
G1 X129.672 Y107.243 E17.63799
G1 X129.765 Y107.337 E17.65002
G1 X130.100 Y107.840 E17.70496
G1 X130.357 Y107.840 E17.72831
G1 X130.578 Y108.138 E17.76204
G1 X131.336 Y108.138 E17.83096
G1 X131.517 Y109.338 E17.94134
G1 X132.070 Y110.076 E18.02520
G1 X132.494 Y110.075 E18.06372
G1 X132.773 Y110.820 E18.13606
G1 X133.189 Y110.820 E18.17387
G1 X133.410 Y111.118 E18.20765
G1 X133.528 Y111.118 E18.21831
G1 X133.826 Y111.565 E18.26713
G1 X135.299 Y111.565 E18.40107
G1 X135.299 Y111.713 E18.41459
G1 X135.595 Y111.713 E18.44153
G1 X136.034 Y112.121 E18.49598
G1 X136.341 Y112.582 E18.54638
