; generated by Slic3r 1.3.0-dev on 2017-08-18 at 22:26:26

; external perimeters extrusion width = 0.40mm (1.14mm^3/s)
; perimeters extrusion width = 0.68mm (3.95mm^3/s)
; infill extrusion width = 1.20mm (9.43mm^3/s)
; solid infill extrusion width = 0.68mm (1.32mm^3/s)
; top infill extrusion width = 0.68mm (0.99mm^3/s)
; support material extrusion width = 0.40mm (2.27mm^3/s)

M107
M190 S66 ; set bed temperature and wait for it to be reached
M104 S215 ; set temperature
G28 ; home all axes
G1 Z5 F5000 ; lift nozzle

; Filament gcode

M109 S215 ; set temperature and wait for it to be reached
G21 ; set units to millimeters
G90 ; use absolute coordinates
M82 ; use absolute distances for extrusion
G92 E0
G1 Z0.350 F7800.000
G1 E-2.00000 F2400.00000
G92 E0
G1 X66.643 Y80.436 F7800.000
G1 E2.00000 F2400.00000
G1 F1800
G1 X68.714 Y79.451 E2.20854
G1 X70.481 Y79.211 E2.37064
G1 X71.662 Y79.211 E2.47812
G1 X72.553 Y79.272 E2.55927
G1 X94.267 Y82.218 E4.55184
G1 X99.805 Y82.992 E5.06024
G1 X107.165 Y84.175 E5.73811
G1 X109.719 Y84.651 E5.97436
G1 X116.039 Y85.856 E6.55942
G1 X127.425 Y88.226 E7.61684
G1 X129.618 Y88.692 E7.82076
G1 X138.046 Y90.615 E8.60678
G1 X138.644 Y90.781 E8.66326
G1 X139.381 Y91.023 E8.73377
G1 X140.573 Y91.551 E8.85227
G1 X141.065 Y91.830 E8.90374
G1 X142.835 Y93.288 E9.11228
G1 X144.002 Y95.262 E9.32082
G1 X144.388 Y96.880 E9.47204
G1 X146.179 Y113.369 E10.98023
G1 X145.758 Y116.510 E11.26836
G1 X143.892 Y119.144 E11.56183
G1 X143.594 Y119.399 E11.59754
G1 X141.862 Y120.471 E11.78274
G1 X120.525 Y129.491 E13.88914
G1 X118.913 Y129.943 E14.04140
G1 X116.479 Y130.290 E14.26492
G1 X110.985 Y130.761 E14.76635
G1 X108.701 Y130.558 E14.97489
G1 X105.860 Y128.967 E15.27099
G1 X65.743 Y90.914 E20.29882
G1 X64.377 Y89.072 E20.50737
G1 X63.721 Y86.874 E20.71591
G1 X63.854 Y84.584 E20.92445
G1 X64.765 Y82.469 E21.13384
G1 X64.929 Y82.220 E21.16094
G1 X65.032 Y82.068 E21.17760
G1 X66.601 Y80.479 E21.38068
G1 E19.38068 F2400.00000
G92 E0
G1 X119.155 Y119.254 F7800.000
G1 E2.00000 F2400.00000
G1 F1800
G1 X119.093 Y119.891 E2.05824
G1 X118.210 Y119.834 E2.13865
G1 X117.029 Y120.709 E2.27234
G1 X117.029 Y118.871 E2.43946
G1 X112.848 Y121.001 E2.86614
G1 X112.592 Y121.210 E2.89619
G1 X112.269 Y121.257 E2.92586
G1 X111.867 Y120.172 E3.03105
G1 X111.919 Y119.485 E3.09364
G1 X111.698 Y119.338 E3.11775
G1 X111.693 Y118.801 E3.16662
G1 X111.173 Y118.724 E3.21443
G1 X111.036 Y117.801 E3.29931
G1 X110.924 Y117.801 E3.30946
G1 X110.882 Y117.127 E3.37083
G1 X110.228 Y117.027 E3.43098
G1 X109.795 Y116.739 E3.47831
G1 X109.686 Y116.630 E3.49222
G1 X109.592 Y115.878 E3.56119
G1 X109.188 Y115.878 E3.59798
G1 X109.119 Y114.950 E3.68261
G1 X107.607 Y114.252 E3.83401
G1 X107.503 Y114.252 E3.84351
G1 X107.888 Y112.773 E3.98243
G1 X106.966 Y112.773 E4.06624
G1 X107.492 Y112.049 E4.14762
G1 X106.620 Y111.468 E4.24298
G1 X106.737 Y109.588 E4.41426
G1 X105.487 Y110.213 E4.54137
G1 X105.182 Y109.908 E4.58061
G1 X103.284 Y109.766 E4.75365
G1 X103.085 Y109.964 E4.77919
G1 X102.561 Y109.965 E4.82685
G1 X102.506 Y109.597 E4.86066
G1 X102.620 Y109.484 E4.87524
G1 X101.830 Y108.009 E5.02734
G1 X101.577 Y107.773 E5.05883
G1 X101.517 Y107.572 E5.07783
G1 X101.471 Y107.530 E5.08357
G1 X101.332 Y106.282 E5.19773
G1 X101.211 Y106.268 E5.20876
G1 X100.956 Y104.688 E5.35434
G1 X100.843 Y104.684 E5.36463
G1 X100.973 Y103.431 E5.47918
G1 X100.137 Y103.570 E5.55623
G1 X99.853 Y103.253 E5.59489
G1 X99.836 Y102.363 E5.67583
G1 X102.366 Y100.879 E5.94257
G1 X99.903 Y100.219 E6.17440
G1 X98.990 Y99.155 E6.30190
G1 X98.990 Y98.135 E6.39458
G1 X98.371 Y98.135 E6.45092
G1 X98.332 Y97.905 E6.47214
G1 X97.429 Y97.755 E6.55541
G1 X96.173 Y96.466 E6.71907
G1 X95.686 Y97.269 E6.80444
G1 X95.279 Y96.112 E6.91592
G1 X94.569 Y96.336 E6.98364
G1 X94.122 Y96.038 E7.03249
G1 X93.542 Y95.459 E7.10697
G1 X92.945 Y95.372 E7.16185
G1 X92.830 Y95.178 E7.18239
G1 X92.464 Y95.178 E7.21562
G1 X92.204 Y95.135 E7.23965
G1 X92.110 Y94.571 E7.29158
G1 X90.118 Y94.372 E7.47356
G1 X90.142 Y94.143 E7.49448
G1 X88.826 Y94.143 E7.61414
G1 X88.405 Y93.723 E7.66820
G1 X86.822 Y93.403 E7.81506
G1 X86.160 Y93.405 E7.87526
G1 X85.391 Y93.856 E7.95629
G1 X85.240 Y93.994 E7.97493
G1 X83.662 Y93.439 E8.12699
G1 X83.472 Y94.772 E8.24948
G1 X82.981 Y94.847 E8.29458
G1 X82.643 Y94.591 E8.33313
G1 X82.563 Y94.198 E8.36961
G1 X82.400 Y94.089 E8.38743
G1 X82.510 Y93.395 E8.45129
G1 X81.029 Y93.149 E8.58779
G1 X80.841 Y92.517 E8.64772
G1 X80.115 Y92.517 E8.71375
G1 X79.877 Y92.358 E8.73983
G1 X79.805 Y92.114 E8.76292
G1 X80.835 Y90.776 E8.91643
G1 X78.722 Y90.454 E9.11071
G1 X78.449 Y90.272 E9.14062
G1 X78.357 Y90.181 E9.15237
G1 X78.397 Y88.724 E9.28490
G1 X79.585 Y88.744 E9.39288
G1 X80.388 Y88.850 E9.46659
G1 X80.405 Y89.027 E9.48275
G1 X81.300 Y89.040 E9.56420
G1 X81.300 Y89.210 E9.57970
G1 X82.187 Y89.210 E9.66037
G1 X82.187 Y89.358 E9.67380
G1 X83.223 Y89.358 E9.76794
G1 X83.223 Y89.506 E9.78138
G1 X83.962 Y89.506 E9.84860
G1 X83.962 Y89.802 E9.87550
G1 X84.881 Y89.802 E9.95904
G1 X86.883 Y90.001 E10.14203
G1 X88.640 Y90.294 E10.30396
G1 X88.717 Y90.097 E10.32313
G1 X89.600 Y90.097 E10.40344
G1 X89.957 Y90.811 E10.47598
G1 X90.818 Y90.393 E10.56299
G1 X91.682 Y90.393 E10.64156
G1 X91.972 Y91.649 E10.75874
G1 X93.336 Y90.689 E10.91045
G1 X93.720 Y90.689 E10.94535
G1 X93.720 Y90.837 E10.95881
G1 X94.607 Y90.837 E11.03951
G1 X94.607 Y90.985 E11.05293
G1 X95.938 Y90.985 E11.17393
G1 X95.938 Y91.132 E11.18734
G1 X97.153 Y91.132 E11.29778
G1 X97.434 Y92.353 E11.41171
G1 X99.051 Y91.247 E11.58980
G1 X99.052 Y91.521 E11.61467
G1 X100.628 Y91.559 E11.75800
G1 X100.618 Y91.872 E11.78649
G1 X101.557 Y91.872 E11.87186
G1 X101.557 Y92.020 E11.88531
G1 X102.444 Y92.020 E11.96597
G1 X102.444 Y92.168 E11.97948
G1 X103.183 Y92.168 E12.04671
G1 X103.183 Y92.287 E12.05751
G1 X104.460 Y92.310 E12.17365
G1 X106.141 Y92.476 E12.32716
G1 X106.141 Y92.753 E12.35241
G1 X107.668 Y92.757 E12.49129
G1 X108.114 Y92.865 E12.53304
G1 X108.122 Y93.070 E12.55176
G1 X108.802 Y93.111 E12.61366
G1 X108.802 Y93.350 E12.63547
G1 X109.541 Y93.350 E12.70270
G1 X109.541 Y93.502 E12.71651
G1 X110.428 Y93.501 E12.79716
G1 X110.428 Y93.653 E12.81095
G1 X111.907 Y93.648 E12.94540
G1 X111.907 Y93.942 E12.97211
G1 X113.090 Y93.942 E13.07967
G1 X113.090 Y94.055 E13.08995
G1 X114.576 Y94.088 E13.22513
G1 X114.823 Y94.169 E13.24877
G1 X114.781 Y94.473 E13.27674
G1 X116.331 Y94.526 E13.41771
G1 X117.702 Y94.784 E13.54459
G1 X117.668 Y94.972 E13.56196
G1 X118.709 Y95.034 E13.65675
G1 X118.709 Y95.276 E13.67884
G1 X119.448 Y95.275 E13.74606
G1 X119.448 Y95.425 E13.75965
G1 X120.990 Y95.422 E13.89984
G1 X121.501 Y95.545 E13.94768
G1 X121.500 Y95.621 E13.95452
G1 X122.081 Y95.685 E14.00768
G1 X122.257 Y95.728 E14.02414
G1 X122.257 Y95.813 E14.03186
G1 X122.959 Y95.903 E14.09623
G1 X122.956 Y96.021 E14.10699
G1 X123.736 Y96.067 E14.17801
G1 X123.736 Y96.301 E14.19921
G1 X125.064 Y96.307 E14.31995
G1 X125.063 Y96.424 E14.33066
G1 X125.798 Y96.512 E14.39791
G1 X125.797 Y96.614 E14.40726
G1 X126.545 Y96.659 E14.47538
G1 X126.545 Y96.800 E14.48822
G1 X127.964 Y96.891 E14.61747
G1 X128.081 Y97.086 E14.63813
G1 X128.073 Y97.204 E14.64893
G1 X129.617 Y97.314 E14.78969
G1 X130.242 Y97.461 E14.84801
G1 X130.242 Y97.742 E14.87358
G1 X131.742 Y97.784 E15.01003
G1 X132.312 Y97.899 E15.06290
G1 X132.312 Y98.498 E15.11741
G1 X131.385 Y98.190 E15.20621
G1 X130.057 Y99.658 E15.38623
G1 X128.379 Y100.136 E15.54491
G1 X128.373 Y100.249 E15.55522
G1 X128.095 Y100.312 E15.58119
G1 X127.880 Y99.912 E15.62248
G1 X123.086 Y104.440 E16.22217
G1 X124.059 Y104.440 E16.31070
G1 X123.671 Y104.828 E16.36066
G1 X125.953 Y104.765 E16.56827
G1 X125.952 Y107.008 E16.77224
G1 X128.252 Y104.701 E17.06845
G1 X129.173 Y104.676 E17.15221
G1 X128.007 Y105.701 E17.29335
G1 X129.061 Y106.096 E17.39566
G1 X128.444 Y106.368 E17.45700
G1 X128.269 Y105.873 E17.50471
G1 X126.084 Y108.484 E17.81430
G1 X125.723 Y108.483 E17.84719
G1 X124.032 Y110.157 E18.06350
G1 X124.032 Y111.793 E18.21232
G1 X123.643 Y111.940 E18.25011
G1 X123.388 Y112.436 E18.30083
G1 X122.787 Y112.594 E18.35731
G1 X121.345 Y112.088 E18.49631
G1 X120.114 Y113.357 E18.65712
G1 X119.919 Y113.853 E18.70550
G1 X119.600 Y114.278 E18.75385
G1 X119.590 Y117.157 E19.01560
G1 X119.900 Y117.157 E19.04385
G1 X119.957 Y119.267 E19.23582
G1 X119.215 Y119.255 E19.30330
G1 E17.30330 F2400.00000
G92 E0
G1 X132.452 Y98.545 F7800.000
G1 E2.00000 F2400.00000
G1 F1800
G1 X132.503 Y98.230 E2.02900
G1 X133.410 Y98.230 E2.11148
G1 X134.240 Y98.356 E2.18776
G1 X134.240 Y98.538 E2.20428
G1 X134.973 Y98.581 E2.27102
G1 X134.973 Y98.629 E2.27535
G1 X135.121 Y98.648 E2.28890
G1 X135.121 Y99.103 E2.33032
G1 X132.872 Y98.746 E2.53738
G1 X132.703 Y98.629 E2.55603
G1 X132.509 Y98.564 E2.57466
G1 X131.575 Y98.911 F7800.000
G1 F1800
G1 X130.400 Y100.210 E2.73383
G1 X128.982 Y100.613 E2.86793
G1 X128.961 Y101.071 E2.90954
G1 X128.791 Y101.274 E2.93358
G1 X128.557 Y101.274 E2.95488
G1 X128.090 Y101.627 E3.00811
G1 X127.715 Y100.927 E3.08030
G1 X124.657 Y103.815 E3.46277
G1 X125.568 Y103.815 E3.54557
G1 X125.223 Y104.160 E3.58996
G1 X126.578 Y104.123 E3.71325
G1 X126.578 Y105.496 E3.83812
G1 X127.986 Y104.083 E4.01946
G1 X129.230 Y104.049 E4.13261
G1 X129.998 Y104.212 E4.20404
G1 X130.386 Y104.441 E4.24500
G1 X129.203 Y105.481 E4.38823
G1 X130.488 Y105.963 E4.51302
G1 X130.591 Y106.236 E4.53950
G1 X129.807 Y106.667 E4.62084
G1 X129.495 Y106.587 E4.65013
G1 X128.580 Y106.990 E4.74099
G1 X128.269 Y107.751 E4.81576
G1 X128.045 Y107.115 E4.87715
G1 X126.538 Y108.916 E5.09064
G1 X126.240 Y109.109 E5.12301
G1 X125.979 Y109.109 E5.14672
G1 X124.657 Y110.417 E5.31587
G1 X124.657 Y112.226 E5.48029
G1 X124.088 Y112.440 E5.53549
G1 X123.816 Y112.970 E5.58967
G1 X123.029 Y113.176 E5.66366
G1 X123.029 Y113.299 E5.67481
G1 X122.684 Y113.241 E5.70661
G1 X122.461 Y113.129 E5.72933
G1 X121.518 Y112.807 E5.81997
G1 X120.650 Y113.702 E5.93335
G1 X120.470 Y114.160 E5.97803
G1 X120.225 Y114.487 E6.01527
G1 X120.217 Y116.531 E6.20114
G1 X120.509 Y116.531 E6.22767
G1 X120.574 Y118.973 E6.44977
G1 X121.499 Y118.379 E6.54970
G1 X121.851 Y118.725 E6.59452
G1 X121.725 Y119.356 E6.65303
G1 X121.535 Y119.509 E6.67516
G1 X120.538 Y119.901 E6.77262
G1 X119.721 Y119.888 E6.84692
G1 X119.655 Y120.559 E6.90821
G1 X119.451 Y120.588 E6.92698
G1 X118.867 Y120.503 E6.98058
G1 X118.395 Y120.472 E7.02359
G1 X117.661 Y121.016 E7.10669
G1 X116.534 Y122.065 E7.24671
G1 X116.809 Y121.983 E7.27282
G1 X117.052 Y122.511 E7.32569
G1 X116.576 Y122.590 E7.36957
G1 X116.404 Y121.477 E7.47201
G1 X116.404 Y119.891 E7.61623
G1 X113.191 Y121.528 E7.94409
G1 X112.853 Y121.804 E7.98386
G1 X112.577 Y121.844 E8.00918
G1 X112.274 Y121.956 E8.03853
G1 X111.893 Y122.242 E8.08183
G1 X111.231 Y121.848 E8.15187
G1 X111.231 Y121.356 E8.19660
G1 X111.513 Y121.014 E8.23687
G1 X111.234 Y120.261 E8.30985
G1 X111.268 Y119.803 E8.35163
G1 X111.076 Y119.675 E8.37262
G1 X111.073 Y119.341 E8.40298
G1 X110.623 Y119.274 E8.44439
G1 X110.497 Y118.425 E8.52240
G1 X110.338 Y118.425 E8.53687
G1 X110.290 Y117.669 E8.60580
G1 X109.997 Y117.624 E8.63278
G1 X109.396 Y117.224 E8.69836
G1 X109.250 Y117.078 E8.71717
G1 X109.099 Y116.965 E8.73435
G1 X109.041 Y116.503 E8.77673
G1 X108.660 Y116.503 E8.81133
G1 X108.594 Y116.324 E8.82861
G1 X108.523 Y115.363 E8.91630
G1 X107.483 Y114.883 E9.02043
G1 X107.029 Y115.023 E9.06363
G1 X107.018 Y114.877 E9.07698
G1 X106.763 Y114.877 E9.10022
G1 X106.755 Y114.643 E9.12146
G1 X107.079 Y113.398 E9.23845
G1 X106.353 Y113.398 E9.30453
G1 X106.341 Y112.571 E9.37979
G1 X106.604 Y112.208 E9.42051
G1 X105.974 Y111.788 E9.48942
G1 X106.046 Y110.632 E9.59474
G1 X105.363 Y110.973 E9.66411
G1 X104.904 Y110.514 E9.72322
G1 X103.523 Y110.410 E9.84912
G1 X103.344 Y110.589 E9.87210
G1 X102.754 Y110.590 E9.92579
G1 X102.439 Y110.904 E9.96628
G1 X102.198 Y110.785 E9.99070
G1 X102.214 Y110.662 E10.00201
G1 X101.967 Y110.217 E10.04834
G1 X101.869 Y109.556 E10.10906
G1 X101.744 Y109.476 E10.12253
G1 X101.850 Y109.370 E10.13612
G1 X101.328 Y108.395 E10.23665
G1 X101.026 Y108.113 E10.27420
G1 X100.968 Y107.919 E10.29267
G1 X100.876 Y107.835 E10.30401
G1 X100.765 Y106.844 E10.39465
G1 X100.745 Y106.842 E10.39655
G1 X100.629 Y106.584 E10.42228
G1 X100.421 Y105.294 E10.54104
G1 X100.334 Y105.291 E10.54891
G1 X100.306 Y105.179 E10.55944
G1 X100.171 Y105.098 E10.57368
G1 X100.267 Y104.182 E10.65747
G1 X99.636 Y104.287 E10.71566
G1 X99.506 Y103.912 E10.75169
G1 X99.558 Y103.860 E10.75838
G1 X99.233 Y103.498 E10.80264
G1 X99.203 Y102.010 E10.93798
G1 X100.761 Y101.096 E11.10218
G1 X99.064 Y100.641 E11.26190
G1 X99.312 Y100.489 E11.28830
G1 X98.366 Y99.386 E11.42048
G1 X98.366 Y98.760 E11.47737
G1 X97.841 Y98.760 E11.52502
G1 X97.789 Y98.448 E11.55379
G1 X97.125 Y98.337 E11.61508
G1 X96.288 Y97.480 E11.72398
G1 X95.848 Y98.205 E11.80114
G1 X95.542 Y97.899 E11.84057
G1 X95.320 Y97.825 E11.86185
G1 X95.130 Y97.571 E11.89062
G1 X94.890 Y96.890 E11.95630
G1 X94.190 Y97.111 E12.02302
G1 X94.139 Y96.801 E12.05162
G1 X93.723 Y96.524 E12.09700
G1 X93.247 Y96.048 E12.15824
G1 X92.560 Y95.948 E12.22137
G1 X92.474 Y95.803 E12.23668
G1 X91.661 Y95.678 E12.31153
G1 X91.572 Y95.146 E12.36059
G1 X90.154 Y95.004 E12.49018
G1 X89.377 Y95.484 E12.57320
G1 X89.450 Y94.768 E12.63865
G1 X88.650 Y94.768 E12.71141
G1 X88.401 Y94.602 E12.73865
G1 X88.097 Y94.298 E12.77773
G1 X86.760 Y94.028 E12.90169
G1 X86.331 Y94.029 E12.94077
G1 X85.764 Y94.362 E13.00052
G1 X85.384 Y94.707 E13.04718
G1 X84.173 Y94.281 E13.16391
G1 X84.025 Y95.320 E13.25938
G1 X83.313 Y95.428 E13.32488
G1 X83.281 Y96.152 E13.39070
G1 X82.908 Y95.911 E13.43108
G1 X82.660 Y95.663 E13.46301
G1 X82.604 Y95.345 E13.49233
G1 X82.079 Y94.947 E13.55231
G1 X82.002 Y94.575 E13.58682
G1 X81.720 Y94.387 E13.61767
G1 X81.796 Y93.910 E13.66158
G1 X80.698 Y93.727 E13.76271
G1 X80.521 Y93.635 E13.78084
G1 X80.375 Y93.142 E13.82767
G1 X79.926 Y93.142 E13.86848
G1 X79.341 Y92.751 E13.93245
G1 X79.305 Y92.629 E13.94405
G1 X78.853 Y92.327 E13.99348
G1 X79.694 Y91.234 E14.11889
G1 X78.491 Y91.051 E14.22948
G1 X78.050 Y90.758 E14.27764
G1 X77.725 Y90.432 E14.31947
G1 X77.752 Y89.443 E14.40944
G1 X77.632 Y89.443 E14.42042
G1 X76.946 Y88.987 E14.49531
G1 X76.617 Y88.880 E14.52682
G1 X76.415 Y88.779 E14.54729
G1 X75.963 Y88.477 E14.59675
G1 X75.807 Y88.465 E14.61099
G1 X75.663 Y87.698 E14.68198
G1 X76.898 Y87.698 E14.79432
G1 X76.898 Y87.846 E14.80777
G1 X77.932 Y87.846 E14.90181
G1 X77.932 Y87.893 E14.90603
G1 X79.013 Y88.012 E15.00488
G1 X79.018 Y88.109 E15.01375
G1 X80.003 Y88.126 E15.10334
G1 X80.003 Y88.169 E15.10725
G1 X80.965 Y88.296 E15.19548
G1 X80.975 Y88.410 E15.20589
G1 X81.925 Y88.424 E15.29225
G1 X81.925 Y88.586 E15.30695
G1 X82.812 Y88.586 E15.38761
G1 X82.812 Y88.733 E15.40105
G1 X83.847 Y88.733 E15.49518
G1 X83.847 Y88.881 E15.50862
G1 X84.587 Y88.881 E15.57585
G1 X84.587 Y89.177 E15.60274
G1 X85.474 Y89.177 E15.68340
G1 X85.474 Y89.233 E15.68848
G1 X86.966 Y89.381 E15.82479
G1 X88.243 Y89.594 E15.94256
G1 X88.364 Y89.286 E15.97267
G1 X88.727 Y89.296 E16.00564
G1 X88.727 Y89.472 E16.02165
G1 X89.986 Y89.473 E16.13620
G1 X90.240 Y89.979 E16.18769
G1 X91.092 Y89.565 E16.27389
G1 X91.092 Y89.768 E16.29234
G1 X92.179 Y89.768 E16.39114
G1 X92.372 Y90.604 E16.46908
G1 X93.458 Y89.839 E16.58988
G1 X93.458 Y90.064 E16.61033
G1 X94.345 Y90.064 E16.69095
G1 X94.345 Y90.212 E16.70442
G1 X95.232 Y90.212 E16.78511
G1 X95.232 Y90.360 E16.79854
G1 X96.563 Y90.360 E16.91954
G1 X96.563 Y90.507 E16.93296
G1 X97.650 Y90.508 E17.03178
G1 X97.837 Y91.320 E17.10763
G1 X98.767 Y90.684 E17.21011
G1 X99.673 Y90.801 E17.29314
G1 X99.674 Y90.911 E17.30314
G1 X100.626 Y90.934 E17.38978
G1 X101.269 Y91.054 E17.44928
G1 X101.263 Y91.247 E17.46681
G1 X102.182 Y91.247 E17.55033
G1 X102.182 Y91.395 E17.56378
G1 X103.069 Y91.395 E17.64444
G1 X103.069 Y91.543 E17.65793
G1 X103.808 Y91.543 E17.72516
G1 X103.808 Y91.673 E17.73700
G1 X105.139 Y91.697 E17.85802
G1 X105.139 Y91.749 E17.86273
G1 X106.765 Y91.909 E18.01133
G1 X106.765 Y92.130 E18.03140
G1 X107.743 Y92.132 E18.12028
G1 X108.720 Y92.368 E18.21164
