; generated by Slic3r 1.3.0-dev on 2017-08-18 at 22:27:31

; external perimeters extrusion width = 0.40mm (1.14mm^3/s)
; perimeters extrusion width = 0.68mm (3.95mm^3/s)
; infill extrusion width = 1.20mm (9.43mm^3/s)
; solid infill extrusion width = 0.68mm (1.32mm^3/s)
; top infill extrusion width = 0.68mm (0.99mm^3/s)
; support material extrusion width = 0.40mm (2.27mm^3/s)

M107
M190 S66 ; set bed temperature and wait for it to be reached
M104 S215 ; set temperature
G28 ; home all axes
G1 Z5 F5000 ; lift nozzle

; Filament gcode

M109 S215 ; set temperature and wait for it to be reached
G21 ; set units to millimeters
G90 ; use absolute coordinates
M82 ; use absolute distances for extrusion
G92 E0
G1 Z0.350 F7800.000
G1 E-2.00000 F2400.00000
G92 E0
G1 X99.463 Y86.550 F7800.000
G1 E2.00000 F2400.00000
G1 F1800
G1 X99.544 Y86.469 E2.01044
G1 X101.422 Y85.152 E2.21898
G1 X104.216 Y84.528 E2.47928
G1 X104.391 Y84.528 E2.49519
G1 X105.726 Y84.664 E2.61722
G1 X107.785 Y85.090 E2.80837
G1 X110.665 Y85.752 E3.07712
G1 X111.650 Y86.001 E3.16943
G1 X112.736 Y86.329 E3.27264
G1 X114.753 Y87.420 E3.48118
G1 X116.278 Y89.133 E3.68973
G1 X117.243 Y92.061 E3.97003
G1 X118.973 Y112.706 E5.85380
G1 X119.035 Y113.567 E5.93237
G1 X119.052 Y114.188 E5.98880
G1 X118.969 Y115.236 E6.08441
G1 X118.234 Y119.807 E6.50535
G1 X117.484 Y121.974 E6.71389
G1 X115.434 Y124.223 E6.99059
G1 X115.307 Y124.310 E7.00459
G1 X113.294 Y125.238 E7.20611
G1 X109.881 Y125.256 E7.51647
G1 X99.552 Y122.560 E8.48711
G1 X95.996 Y121.550 E8.82326
G1 X95.478 Y121.383 E8.87277
G1 X93.461 Y120.293 E9.08132
G1 X91.936 Y118.579 E9.28986
G1 X91.087 Y116.449 E9.49840
G1 X90.948 Y115.095 E9.62212
G1 X90.948 Y114.689 E9.65903
G1 X90.985 Y113.999 E9.72191
G1 X91.147 Y112.456 E9.86295
G1 X91.241 Y111.841 E9.91951
G1 X92.933 Y103.447 E10.69816
G1 X94.209 Y98.577 E11.15591
G1 X94.359 Y98.056 E11.20523
G1 X94.557 Y97.470 E11.26143
G1 X97.816 Y89.144 E12.07447
G1 X98.222 Y88.272 E12.16198
G1 X99.428 Y86.599 E12.34951
G1 E10.34951 F2400.00000
G92 E0
G1 X110.185 Y117.127 F7800.000
G1 E2.00000 F2400.00000
G1 F1800
G1 X109.829 Y117.127 E2.03244
G1 X109.829 Y117.046 E2.03982
G1 X109.587 Y117.046 E2.06180
G1 X109.587 Y116.642 E2.09854
G1 X110.496 Y116.642 E2.18123
G1 X110.218 Y117.076 E2.22818
G1 E0.22818 F2400.00000
G92 E0
G1 X108.706 Y114.344 F7800.000
G1 E2.00000 F2400.00000
G1 F1800
G1 X109.943 Y114.344 E2.11251
G1 X109.869 Y114.826 E2.15682
G1 X108.844 Y115.853 E2.28874
G1 X108.426 Y115.853 E2.32675
G1 X108.426 Y115.772 E2.33413
G1 X108.100 Y115.772 E2.36377
G1 X108.100 Y115.690 E2.37115
G1 X107.777 Y115.690 E2.40057
G1 X107.777 Y115.609 E2.40795
G1 X107.532 Y115.609 E2.43023
G1 X107.532 Y115.528 E2.43761
G1 X107.195 Y115.528 E2.46823
G1 X107.194 Y115.447 E2.47563
G1 X106.884 Y115.447 E2.50382
G1 X106.884 Y115.366 E2.51119
G1 X106.560 Y115.366 E2.54070
G1 X106.560 Y115.285 E2.54807
G1 X106.309 Y115.285 E2.57081
G1 X106.309 Y115.173 E2.58100
G1 X105.640 Y115.185 E2.64180
G1 X105.639 Y115.122 E2.64754
G1 X105.343 Y115.122 E2.67447
G1 X105.343 Y115.041 E2.68188
G1 X105.017 Y115.041 E2.71158
G1 X105.017 Y114.960 E2.71895
G1 X104.682 Y114.960 E2.74938
G1 X104.681 Y114.879 E2.75676
G1 X104.449 Y114.879 E2.77793
G1 X104.449 Y114.798 E2.78530
G1 X104.121 Y114.798 E2.81506
G1 X104.121 Y114.716 E2.82245
G1 X103.794 Y114.716 E2.85218
G1 X103.794 Y114.638 E2.85927
G1 X102.905 Y114.637 E2.94010
G1 X102.428 Y113.592 E3.04449
G1 X101.844 Y114.067 E3.11293
G1 X101.279 Y114.067 E3.16427
G1 X101.279 Y113.986 E3.17165
G1 X100.958 Y113.986 E3.20088
G1 X100.958 Y113.905 E3.20826
G1 X100.636 Y113.905 E3.23754
G1 X100.636 Y113.566 E3.26835
G1 X101.505 Y112.697 E3.38008
G1 X100.105 Y112.597 E3.50773
G1 X99.905 Y112.537 E3.52665
G1 X99.904 Y111.948 E3.58018
G1 X100.254 Y110.947 E3.67666
G1 X100.877 Y110.319 E3.75707
G1 X100.877 Y110.165 E3.77107
G1 X101.040 Y110.004 E3.79189
G1 X101.040 Y109.636 E3.82532
G1 X101.923 Y108.488 E3.95702
G1 X101.672 Y108.343 E3.98337
G1 X101.785 Y108.165 E4.00257
G1 X101.585 Y108.049 E4.02358
G1 X101.332 Y107.866 E4.05194
G1 X101.445 Y107.691 E4.07090
G1 X101.445 Y106.238 E4.20304
G1 X101.202 Y106.034 E4.23193
G1 X101.202 Y105.858 E4.24787
G1 X101.656 Y105.404 E4.30625
G1 X101.442 Y105.131 E4.33781
G1 X102.408 Y104.165 E4.46202
G1 X101.905 Y103.976 E4.51089
G1 X102.082 Y103.685 E4.54189
G1 X101.821 Y103.534 E4.56930
G1 X104.355 Y101.001 E4.89514
G1 X103.505 Y101.001 E4.97243
G1 X103.605 Y100.871 E4.98734
G1 X103.507 Y100.841 E4.99666
G1 X103.960 Y100.002 E5.08340
G1 X103.961 Y99.934 E5.08956
G1 X104.013 Y99.882 E5.09627
G1 X104.021 Y99.630 E5.11918
G1 X104.115 Y99.536 E5.13123
G1 X104.121 Y99.117 E5.16934
G1 X104.192 Y98.728 E5.20532
G1 X104.286 Y98.634 E5.21740
G1 X104.286 Y98.391 E5.23954
G1 X104.368 Y98.309 E5.24999
G1 X104.368 Y98.066 E5.27212
G1 X104.449 Y97.985 E5.28255
G1 X104.449 Y97.741 E5.30470
G1 X104.530 Y97.660 E5.31514
G1 X104.530 Y97.417 E5.33729
G1 X104.611 Y97.336 E5.34771
G1 X104.611 Y97.092 E5.36986
G1 X104.692 Y97.011 E5.38031
G1 X104.692 Y96.524 E5.42453
G1 X104.774 Y96.443 E5.43498
G1 X104.773 Y96.199 E5.45714
G1 X104.855 Y96.118 E5.46757
G1 X104.855 Y95.874 E5.48975
G1 X104.936 Y95.793 E5.50019
G1 X104.936 Y95.550 E5.52233
G1 X105.017 Y95.468 E5.53279
G1 X105.017 Y94.982 E5.57699
G1 X105.098 Y94.901 E5.58743
G1 X105.098 Y94.657 E5.60964
G1 X105.179 Y94.576 E5.62008
G1 X105.179 Y94.332 E5.64222
G1 X105.256 Y94.255 E5.65208
G1 X105.258 Y94.010 E5.67442
G1 X105.314 Y93.954 E5.68161
G1 X105.321 Y93.703 E5.70442
G1 X105.423 Y93.602 E5.71747
G1 X105.423 Y93.483 E5.72828
G1 X106.038 Y93.483 E5.78424
G1 X106.038 Y93.565 E5.79165
G1 X106.282 Y93.565 E5.81380
G1 X106.282 Y93.646 E5.82120
G1 X106.606 Y93.646 E5.85071
G1 X106.606 Y93.727 E5.85808
G1 X106.931 Y93.727 E5.88761
G1 X106.931 Y93.808 E5.89499
G1 X107.583 Y93.808 E5.95427
G1 X107.890 Y95.137 E6.07831
G1 X107.905 Y95.145 E6.07988
G1 X107.914 Y96.551 E6.20777
G1 X107.898 Y97.591 E6.30231
G1 X106.731 Y99.481 E6.50429
G1 X107.268 Y99.571 E6.55385
G1 X106.064 Y101.200 E6.73812
G1 X107.339 Y101.231 E6.85410
G1 X107.339 Y101.543 E6.88251
G1 X107.035 Y102.626 E6.98481
G1 X107.410 Y102.813 E7.02288
G1 X107.214 Y103.729 E7.10808
G1 X105.152 Y104.282 E7.30213
G1 X106.610 Y105.011 E7.45032
G1 X107.877 Y105.859 E7.58894
G1 X105.966 Y107.770 E7.83464
G1 X107.581 Y107.770 E7.98150
G1 X107.342 Y108.314 E8.03558
G1 X107.688 Y108.329 E8.06704
G1 X107.270 Y109.030 E8.14123
G1 X107.834 Y109.070 E8.19263
G1 X107.647 Y109.307 E8.22000
G1 X107.845 Y110.492 E8.32925
G1 X107.905 Y110.582 E8.33917
G1 X107.907 Y111.903 E8.45927
G1 X108.311 Y111.905 E8.49601
G1 X108.311 Y112.232 E8.52573
G1 X108.635 Y112.232 E8.55519
G1 X108.635 Y112.318 E8.56300
G1 X109.366 Y112.355 E8.62958
G1 X109.366 Y113.128 E8.69988
G1 X109.635 Y113.128 E8.72429
G1 X108.742 Y114.297 E8.85803
G1 X109.969 Y113.719 F7800.000
G1 F1800
G1 X110.882 Y113.719 E8.94109
G1 X110.882 Y114.502 E9.01225
G1 X110.538 Y114.590 E9.04462
G1 X110.456 Y115.123 E9.09361
G1 X108.941 Y116.640 E9.28859
G1 X108.368 Y116.640 E9.34068
G1 X108.368 Y116.559 E9.34807
G1 X108.127 Y116.559 E9.37005
G1 X108.127 Y116.478 E9.37743
G1 X107.801 Y116.478 E9.40700
G1 X107.801 Y116.396 E9.41438
G1 X107.476 Y116.396 E9.44397
G1 X107.476 Y116.315 E9.45135
G1 X107.152 Y116.315 E9.48081
G1 X107.152 Y116.234 E9.48819
G1 X106.907 Y116.234 E9.51042
G1 X106.907 Y116.153 E9.51780
G1 X106.576 Y116.153 E9.54797
G1 X106.575 Y116.072 E9.55536
G1 X106.259 Y116.072 E9.58407
G1 X106.259 Y115.991 E9.59144
G1 X105.935 Y115.991 E9.62096
G1 X105.935 Y115.909 E9.62833
G1 X105.687 Y115.909 E9.65084
G1 X105.687 Y115.809 E9.65993
G1 X105.026 Y115.822 E9.72001
G1 X105.025 Y115.747 E9.72682
G1 X104.718 Y115.747 E9.75474
G1 X104.718 Y115.666 E9.76214
G1 X104.392 Y115.666 E9.79178
G1 X104.392 Y115.585 E9.79916
G1 X104.061 Y115.585 E9.82922
G1 X104.061 Y115.504 E9.83659
G1 X103.824 Y115.504 E9.85814
G1 X103.824 Y115.422 E9.86551
G1 X103.497 Y115.422 E9.89518
G1 X103.497 Y115.341 E9.90256
G1 X103.171 Y115.341 E9.93220
G1 X103.171 Y115.262 E9.93941
G1 X102.503 Y115.261 E10.00016
G1 X102.195 Y114.587 E10.06753
G1 X101.866 Y114.854 E10.10611
G1 X101.317 Y114.854 E10.15602
G1 X101.318 Y114.773 E10.16340
G1 X100.983 Y114.773 E10.19389
G1 X100.983 Y114.692 E10.20128
G1 X100.656 Y114.692 E10.23097
G1 X100.656 Y114.611 E10.23835
G1 X100.333 Y114.611 E10.26769
G1 X100.333 Y114.530 E10.27507
G1 X100.010 Y114.530 E10.30444
G1 X100.010 Y114.448 E10.31186
G1 X99.685 Y114.448 E10.34145
G1 X99.685 Y114.367 E10.34880
G1 X99.359 Y114.367 E10.37840
G1 X99.359 Y114.286 E10.38578
G1 X99.032 Y114.286 E10.41554
G1 X100.095 Y113.223 E10.55228
G1 X99.259 Y113.163 E10.62850
G1 X99.348 Y113.022 E10.64364
G1 X99.248 Y112.992 E10.65315
G1 X99.197 Y112.415 E10.70582
G1 X99.197 Y112.174 E10.72775
G1 X99.279 Y112.092 E10.73831
G1 X99.279 Y111.843 E10.76096
G1 X99.711 Y110.607 E10.88000
G1 X100.252 Y110.062 E10.94987
G1 X100.252 Y109.904 E10.96417
G1 X100.415 Y109.743 E10.98498
G1 X100.415 Y109.423 E11.01405
G1 X100.992 Y108.673 E11.10018
G1 X100.795 Y108.559 E11.12089
G1 X100.908 Y108.381 E11.14008
G1 X100.853 Y108.349 E11.14586
G1 X100.881 Y108.311 E11.15015
G1 X100.649 Y108.142 E11.17620
G1 X100.656 Y107.761 E11.21085
G1 X100.821 Y107.507 E11.23842
G1 X100.821 Y106.529 E11.32728
G1 X100.577 Y106.325 E11.35616
G1 X100.577 Y105.600 E11.42216
G1 X100.823 Y105.353 E11.45384
G1 X100.610 Y105.080 E11.48540
G1 X101.280 Y104.409 E11.57161
G1 X100.979 Y104.296 E11.60088
G1 X101.216 Y103.907 E11.64236
G1 X101.050 Y103.811 E11.65983
G1 X101.389 Y103.151 E11.72729
G1 X101.389 Y103.083 E11.73347
G1 X102.847 Y101.625 E11.92089
G1 X102.236 Y101.625 E11.97639
G1 X102.557 Y101.208 E12.02423
G1 X102.317 Y101.137 E12.04698
G1 X103.079 Y100.318 E12.14864
G1 X103.336 Y99.843 E12.19778
G1 X103.337 Y99.674 E12.21310
G1 X103.396 Y99.614 E12.22079
G1 X103.405 Y99.363 E12.24370
G1 X103.494 Y99.274 E12.25513
G1 X103.497 Y99.056 E12.27495
G1 X103.580 Y98.526 E12.32370
G1 X103.662 Y98.375 E12.33929
G1 X103.662 Y98.132 E12.36143
G1 X103.743 Y98.051 E12.37187
G1 X103.743 Y97.807 E12.39400
G1 X103.824 Y97.726 E12.40444
G1 X103.824 Y97.482 E12.42659
G1 X103.905 Y97.401 E12.43703
G1 X103.905 Y97.158 E12.45917
G1 X103.986 Y97.077 E12.46960
G1 X103.986 Y96.833 E12.49175
G1 X104.067 Y96.752 E12.50219
G1 X104.067 Y96.266 E12.54642
G1 X104.149 Y96.184 E12.55686
G1 X104.149 Y95.941 E12.57902
G1 X104.230 Y95.859 E12.58946
G1 X104.230 Y95.616 E12.61164
G1 X104.311 Y95.534 E12.62207
G1 X104.311 Y95.291 E12.64422
G1 X104.392 Y95.210 E12.65467
G1 X104.392 Y94.723 E12.69887
G1 X104.473 Y94.642 E12.70931
G1 X104.473 Y94.398 E12.73152
G1 X104.554 Y94.317 E12.74196
G1 X104.554 Y94.073 E12.76410
G1 X104.633 Y93.995 E12.77419
G1 X104.635 Y93.749 E12.79653
G1 X104.697 Y93.687 E12.80452
G1 X104.704 Y93.436 E12.82732
G1 X104.798 Y93.343 E12.83935
G1 X104.798 Y92.856 E12.88363
G1 X104.879 Y92.775 E12.89408
G1 X104.879 Y92.615 E12.90859
G1 X105.689 Y92.615 E12.98224
G1 X105.689 Y92.696 E12.98963
G1 X106.014 Y92.696 E13.01915
G1 X106.014 Y92.778 E13.02657
G1 X106.338 Y92.778 E13.05608
G1 X106.338 Y92.858 E13.06340
G1 X106.663 Y92.858 E13.09293
G1 X106.663 Y92.940 E13.10032
G1 X106.907 Y92.940 E13.12247
G1 X106.907 Y93.021 E13.12986
G1 X107.231 Y93.021 E13.15937
G1 X107.231 Y93.102 E13.16675
G1 X107.556 Y93.102 E13.19628
G1 X107.556 Y93.183 E13.20366
G1 X108.080 Y93.183 E13.25131
G1 X108.254 Y93.939 E13.32181
G1 X108.530 Y93.745 E13.35248
G1 X108.530 Y95.933 E13.55147
G1 X108.692 Y95.935 E13.56617
G1 X108.692 Y96.105 E13.58170
G1 X108.774 Y96.105 E13.58917
G1 X108.771 Y96.474 E13.62273
G1 X108.538 Y96.627 E13.64813
G1 X108.520 Y97.773 E13.75230
G1 X107.751 Y99.018 E13.88532
G1 X108.377 Y99.122 E13.94300
G1 X107.281 Y100.604 E14.11063
G1 X107.964 Y100.621 E14.17271
G1 X107.964 Y101.629 E14.26441
G1 X107.776 Y102.298 E14.32755
G1 X108.122 Y102.470 E14.36271
G1 X107.904 Y103.492 E14.45771
G1 X108.205 Y103.492 E14.48515
G1 X108.205 Y104.111 E14.54140
G1 X106.904 Y104.459 E14.66388
G1 X107.787 Y104.900 E14.75357
G1 X107.663 Y104.964 E14.76618
G1 X108.707 Y105.663 E14.88043
G1 X108.724 Y105.895 E14.90162
G1 X107.475 Y107.145 E15.06227
G1 X108.538 Y107.145 E15.15893
G1 X108.281 Y107.729 E15.21694
G1 X108.760 Y107.749 E15.26055
G1 X108.326 Y108.479 E15.33776
G1 X108.612 Y108.499 E15.36386
G1 X108.611 Y109.095 E15.41798
G1 X108.309 Y109.477 E15.46222
G1 X108.439 Y110.257 E15.53414
G1 X108.530 Y110.393 E15.54902
G1 X108.531 Y111.281 E15.62974
G1 X108.936 Y111.282 E15.66655
G1 X108.936 Y111.608 E15.69615
G1 X109.260 Y111.608 E15.72560
G1 X109.260 Y111.724 E15.73612
G1 X109.748 Y111.748 E15.78052
G1 X109.748 Y111.782 E15.78357
G1 X109.991 Y111.822 E15.80602
G1 X109.991 Y112.503 E15.86788
G1 X110.072 Y112.503 E15.87526
G1 X110.072 Y112.664 E15.88995
G1 X110.316 Y112.664 E15.91210
G1 X110.316 Y112.745 E15.91948
G1 X110.713 Y112.745 E15.95558
G1 X110.005 Y113.672 E16.06157
G1 X111.232 Y113.095 F7800.000
G1 F1800
G1 X111.671 Y113.095 E16.10147
G1 X111.671 Y113.257 E16.11624
G1 X111.904 Y113.257 E16.13737
G1 X111.719 Y113.549 E16.16881
G1 X111.947 Y114.157 E16.22785
G1 X111.749 Y114.505 E16.26426
G1 X111.507 Y114.505 E16.28619
G1 X111.507 Y114.839 E16.31653
G1 X111.342 Y115.030 E16.33953
G1 X111.093 Y115.093 E16.36288
G1 X111.043 Y115.419 E16.39287
G1 X110.447 Y116.017 E16.46963
G1 X111.022 Y116.017 E16.52193
G1 X111.022 Y116.260 E16.54407
G1 X111.103 Y116.260 E16.55145
G1 X111.103 Y116.496 E16.57291
G1 X111.196 Y116.498 E16.58136
G1 X111.157 Y116.768 E16.60611
G1 X111.025 Y116.974 E16.62842
G1 X111.140 Y117.039 E16.64038
G1 X111.031 Y117.208 E16.65865
G1 X111.442 Y117.456 E16.70223
G1 X111.265 Y117.632 E16.72490
G1 X111.265 Y117.850 E16.74468
G1 X110.667 Y118.499 E16.82499
G1 X110.667 Y118.077 E16.86340
G1 X110.422 Y118.077 E16.88560
G1 X110.422 Y117.995 E16.89298
G1 X110.098 Y117.995 E16.92250
G1 X110.097 Y117.914 E16.92988
G1 X109.774 Y117.914 E16.95930
G1 X109.774 Y117.833 E16.96668
G1 X109.530 Y117.833 E16.98882
G1 X109.530 Y117.752 E16.99620
G1 X109.205 Y117.752 E17.02578
G1 X109.205 Y117.671 E17.03316
G1 X108.962 Y117.671 E17.05524
G1 X108.962 Y117.590 E17.06262
G1 X108.637 Y117.590 E17.09213
G1 X108.638 Y117.508 E17.09952
G1 X108.312 Y117.508 E17.12907
G1 X108.312 Y117.427 E17.13645
G1 X108.069 Y117.427 E17.15856
G1 X108.069 Y117.265 E17.17331
G1 X107.744 Y117.265 E17.20289
G1 X107.744 Y117.184 E17.21027
G1 X107.501 Y117.184 E17.23234
G1 X107.501 Y117.102 E17.23972
G1 X107.176 Y117.102 E17.26927
G1 X107.176 Y117.021 E17.27665
G1 X106.851 Y117.021 E17.30620
G1 X106.851 Y116.940 E17.31358
G1 X106.527 Y116.940 E17.34308
G1 X106.527 Y116.859 E17.35046
G1 X106.283 Y116.859 E17.37263
G1 X106.283 Y116.778 E17.38001
G1 X105.956 Y116.778 E17.40972
G1 X105.956 Y116.697 E17.41711
G1 X105.634 Y116.697 E17.44633
G1 X105.634 Y116.615 E17.45371
G1 X105.309 Y116.615 E17.48323
G1 X105.310 Y116.534 E17.49061
G1 X105.065 Y116.534 E17.51289
G1 X105.064 Y116.446 E17.52089
G1 X104.412 Y116.459 E17.58024
G1 X104.410 Y116.372 E17.58812
G1 X104.092 Y116.372 E17.61703
G1 X104.092 Y116.291 E17.62442
G1 X103.767 Y116.291 E17.65400
G1 X103.767 Y116.209 E17.66139
G1 X103.441 Y116.209 E17.69107
G1 X103.440 Y116.128 E17.69844
G1 X103.199 Y116.128 E17.72037
G1 X103.199 Y116.047 E17.72775
G1 X102.874 Y116.047 E17.75732
G1 X102.874 Y115.966 E17.76470
G1 X102.549 Y115.966 E17.79425
G1 X102.548 Y115.886 E17.80157
G1 X102.101 Y115.885 E17.84224
G1 X101.962 Y115.581 E17.87260
G1 X101.788 Y115.723 E17.89302
G1 X101.280 Y115.723 E17.93926
G1 X101.199 Y115.561 E17.95573
G1 X101.005 Y115.560 E17.97336
G1 X101.004 Y115.479 E17.98074
G1 X100.686 Y115.479 E18.00963
G1 X100.687 Y115.398 E18.01702
G1 X100.358 Y115.398 E18.04693
G1 X100.358 Y115.317 E18.05432
G1 X100.033 Y115.317 E18.08389
G1 X100.032 Y115.236 E18.09127
G1 X99.708 Y115.236 E18.12072
G1 X99.708 Y115.154 E18.12810
G1 X99.384 Y115.154 E18.15757
G1 X99.384 Y115.073 E18.16497
G1 X99.059 Y115.073 E18.19452
G1 X99.059 Y114.992 E18.20190
G1 X98.735 Y114.992 E18.23145
G1 X98.735 Y114.911 E18.23883
G1 X98.491 Y114.911 E18.26096
G1 X98.491 Y114.830 E18.26834
