; generated by Slic3r 1.3.0-dev on 2017-08-18 at 22:31:51

; external perimeters extrusion width = 0.40mm (1.14mm^3/s)
; perimeters extrusion width = 0.68mm (3.95mm^3/s)
; infill extrusion width = 1.20mm (9.43mm^3/s)
; solid infill extrusion width = 0.68mm (1.32mm^3/s)
; top infill extrusion width = 0.68mm (0.99mm^3/s)
; support material extrusion width = 0.40mm (2.27mm^3/s)

M107
M190 S66 ; set bed temperature and wait for it to be reached
M104 S215 ; set temperature
G28 ; home all axes
G1 Z5 F5000 ; lift nozzle

; Filament gcode

M109 S215 ; set temperature and wait for it to be reached
G21 ; set units to millimeters
G90 ; use absolute coordinates
M82 ; use absolute distances for extrusion
G92 E0
G1 Z0.350 F7800.000
G1 E-2.00000 F2400.00000
G92 E0
G1 X92.541 Y77.759 F7800.000
G1 E2.00000 F2400.00000
G1 F1800
G1 X92.693 Y77.607 E2.01963
G1 X93.876 Y76.668 E2.15694
G1 X97.423 Y74.461 E2.53677
G1 X98.261 Y73.999 E2.62386
G1 X101.363 Y73.228 E2.91443
G1 X112.378 Y73.876 E3.91775
G1 X120.097 Y74.481 E4.62185
G1 X123.490 Y74.789 E4.93161
G1 X124.024 Y74.860 E4.98061
G1 X124.932 Y75.017 E5.06440
G1 X127.089 Y75.795 E5.27294
G1 X128.853 Y77.262 E5.48148
G1 X130.010 Y79.242 E5.69003
G1 X130.354 Y80.595 E5.81697
G1 X135.033 Y112.896 E8.78471
G1 X135.101 Y113.905 E8.87665
G1 X135.098 Y114.212 E8.90463
G1 X134.681 Y116.467 E9.11317
G1 X133.520 Y118.445 E9.32171
G1 X132.214 Y119.621 E9.48144
G1 X131.980 Y119.781 E9.50721
G1 X131.449 Y120.109 E9.56401
G1 X102.850 Y135.946 E12.53658
G1 X99.641 Y136.775 E12.83799
G1 X99.335 Y136.775 E12.86583
G1 X98.223 Y136.680 E12.96728
G1 X96.599 Y136.403 E13.11709
G1 X95.487 Y136.112 E13.22164
G1 X93.373 Y135.357 E13.42572
G1 X84.706 Y132.164 E14.26561
G1 X83.988 Y131.850 E14.33679
G1 X83.348 Y131.524 E14.40216
G1 X81.670 Y130.305 E14.59070
G1 X80.916 Y129.550 E14.68779
G1 X79.431 Y127.280 E14.93439
G1 X75.355 Y116.863 E15.95152
G1 X74.900 Y114.449 E16.17493
G1 X74.900 Y112.788 E16.32596
G1 X74.932 Y112.130 E16.38591
G1 X75.838 Y103.071 E17.21369
G1 X76.990 Y99.949 E17.51627
G1 X91.785 Y78.663 E19.87347
G1 X92.502 Y77.805 E19.97507
G1 E17.97507 F2400.00000
G92 E0
G1 X99.490 Y129.738 F7800.000
G1 E2.00000 F2400.00000
G1 F1800
G1 X99.490 Y129.546 E2.01473
G1 X97.683 Y129.310 F7800.000
G1 F1800
G1 X97.674 Y129.244 E2.02185
G1 X97.702 Y129.210 E2.02655
G1 X97.810 Y129.151 E2.03976
G1 X97.820 Y129.122 E2.04303
G1 F1800
G1 X97.829 Y129.093 E2.04589
G1 X97.810 Y129.151 F7800.000
G1 F1800
G1 X97.888 Y129.165 E2.05382
G1 F1800
G1 X97.965 Y129.178 E2.06067
G1 F1800
G1 X98.038 Y129.186 E2.06600
G1 F1800
G1 X98.119 Y129.209 E2.07150
G1 F1800
G1 X98.201 Y129.231 E2.07594
G1 F1800
G1 X98.388 Y129.280 E2.08372
G1 F1800
G1 X98.495 Y129.318 E2.08924
G1 X98.583 Y128.490 F7800.000
G1 F1800
G1 X98.393 Y128.490 E2.10388
G1 X98.355 Y128.473 E2.10701
G1 F1800
G1 X98.281 Y128.439 E2.11248
G1 F1800
G1 X98.207 Y128.414 E2.11709
G1 X98.068 Y128.276 E2.12855
G1 E0.12855 F2400.00000
G92 E0
G1 X119.478 Y111.189 F7800.000
G1 E2.00000 F2400.00000
G1 F1800
G1 X118.667 Y112.810 E2.16480
G1 X118.875 Y113.364 E2.21861
G1 X118.875 Y114.390 E2.31194
G1 X116.459 Y116.806 E2.62258
G1 X116.459 Y117.379 E2.67463
G1 X115.887 Y117.379 E2.72669
G1 X115.737 Y117.529 E2.74601
G1 X113.169 Y117.530 E2.97951
G1 X112.867 Y117.831 E3.01826
G1 X111.962 Y117.831 E3.10060
G1 X111.811 Y117.982 E3.12003
G1 X111.659 Y117.982 E3.13378
G1 X111.509 Y118.133 E3.15319
G1 X111.207 Y118.133 E3.18064
G1 X110.905 Y118.435 E3.21946
G1 X110.603 Y118.435 E3.24691
G1 X110.452 Y118.586 E3.26630
G1 X110.301 Y118.586 E3.28003
G1 X110.150 Y118.737 E3.29948
G1 X109.999 Y118.737 E3.31320
G1 X109.848 Y118.888 E3.33261
G1 X109.546 Y118.888 E3.36007
G1 X109.218 Y119.216 E3.40224
G1 X108.905 Y117.718 E3.54139
G1 X107.131 Y119.492 E3.76954
G1 X106.526 Y119.492 E3.82448
G1 X106.199 Y119.820 E3.86664
G1 X105.886 Y118.321 E4.00584
G1 X105.361 Y118.846 E4.07330
G1 X105.283 Y118.471 E4.10813
G1 X103.507 Y120.247 E4.33649
G1 X102.903 Y120.247 E4.39138
G1 X102.752 Y120.398 E4.41080
G1 X102.300 Y120.398 E4.45198
G1 X102.149 Y120.549 E4.47139
G1 X100.757 Y120.549 E4.59794
G1 X100.757 Y120.582 E4.60094
G1 X98.237 Y123.102 E4.92505
G1 X97.919 Y123.104 E4.95389
G1 X97.919 Y122.965 E4.96660
G1 X94.415 Y122.964 E5.28525
G1 X94.415 Y124.659 E5.43942
G1 X94.147 Y124.927 E5.47386
G1 X93.541 Y124.927 E5.52895
G1 X93.541 Y124.776 E5.54269
G1 X93.239 Y124.776 E5.57017
G1 X93.239 Y124.625 E5.58390
G1 X92.937 Y124.625 E5.61138
G1 X92.937 Y124.474 E5.62510
G1 X92.182 Y124.474 E5.69371
G1 X92.182 Y124.323 E5.70743
G1 X92.031 Y124.323 E5.72118
G1 X92.031 Y124.172 E5.73491
G1 X91.578 Y124.172 E5.77608
G1 X91.578 Y124.021 E5.78980
G1 X91.277 Y124.021 E5.81723
G1 X91.277 Y123.870 E5.83095
G1 X90.823 Y123.870 E5.87220
G1 X90.823 Y123.719 E5.88593
G1 X89.926 Y123.719 E5.96750
G1 X89.938 Y121.273 E6.18997
G1 X87.953 Y123.267 E6.44580
G1 X87.351 Y123.267 E6.50048
G1 X87.351 Y119.638 E6.83046
G1 X87.502 Y119.485 E6.84998
G1 X87.502 Y116.776 E7.09634
G1 X87.200 Y116.776 E7.12380
G1 X87.200 Y116.322 E7.16504
G1 X87.049 Y116.322 E7.17878
G1 X87.049 Y116.171 E7.19254
G1 X86.294 Y116.171 E7.26116
G1 X86.294 Y115.869 E7.28861
G1 X86.144 Y115.869 E7.30232
G1 X86.144 Y115.718 E7.31607
G1 X85.691 Y115.718 E7.35727
G1 X85.691 Y115.567 E7.37098
G1 X85.540 Y115.567 E7.38471
G1 X85.540 Y115.265 E7.41216
G1 X84.936 Y115.265 E7.46707
G1 X84.936 Y115.114 E7.48080
G1 X84.785 Y115.114 E7.49452
G1 X84.785 Y114.963 E7.50825
G1 X84.634 Y114.963 E7.52198
G1 X84.634 Y114.812 E7.53570
G1 X84.332 Y114.812 E7.56315
G1 X84.332 Y114.510 E7.59060
G1 X84.181 Y114.510 E7.60430
G1 X84.181 Y114.056 E7.64560
G1 X84.030 Y114.056 E7.65936
G1 X84.030 Y113.451 E7.71437
G1 X85.087 Y112.394 E7.85029
G1 X85.087 Y109.226 E8.13835
G1 X84.936 Y109.226 E8.15206
G1 X84.936 Y109.075 E8.16579
G1 X84.785 Y109.075 E8.17952
G1 X84.785 Y108.925 E8.19321
G1 X84.634 Y108.925 E8.20693
G1 X84.634 Y108.320 E8.26190
G1 X84.332 Y108.320 E8.28936
G1 X84.332 Y106.658 E8.44054
G1 X86.741 Y104.249 E8.75026
G1 X85.836 Y104.248 E8.83254
G1 X88.226 Y101.858 E9.13991
G1 X88.679 Y101.858 E9.18109
G1 X88.830 Y101.707 E9.20050
G1 X89.132 Y101.707 E9.22796
G1 X89.283 Y101.556 E9.24739
G1 X89.434 Y101.556 E9.26112
G1 X89.736 Y101.254 E9.29994
G1 X89.887 Y101.254 E9.31368
G1 X92.302 Y98.838 E9.62427
G1 X92.937 Y98.838 E9.68198
G1 X92.937 Y98.386 E9.72315
G1 X93.390 Y98.386 E9.76432
G1 X93.390 Y97.631 E9.83297
G1 X93.963 Y97.631 E9.88510
G1 X94.148 Y97.446 E9.90883
G1 X94.308 Y97.438 E9.92347
G1 X95.764 Y95.983 E10.11058
G1 X95.772 Y95.821 E10.12530
G1 X96.259 Y95.335 E10.18787
G1 X96.259 Y95.184 E10.20160
G1 X96.410 Y95.033 E10.22101
G1 X96.410 Y94.882 E10.23474
G1 X96.561 Y94.731 E10.25416
G1 X96.561 Y94.429 E10.28162
G1 X96.712 Y94.278 E10.30104
G1 X96.712 Y93.193 E10.39967
G1 X97.568 Y91.928 E10.53856
G1 X96.897 Y91.677 E10.60369
G1 X97.164 Y91.410 E10.63805
G1 X97.164 Y90.504 E10.72042
G1 X97.315 Y90.353 E10.73983
G1 X97.315 Y90.202 E10.75356
G1 X99.729 Y87.788 E11.06391
G1 X98.523 Y87.788 E11.17355
G1 X98.523 Y86.127 E11.32464
G1 X98.221 Y86.127 E11.35209
G1 X98.221 Y85.552 E11.40434
G1 X98.523 Y85.552 E11.43178
G1 X98.523 Y84.012 E11.57182
G1 X98.674 Y83.861 E11.59123
G1 X98.674 Y83.559 E11.61868
G1 X98.794 Y83.440 E11.63408
G1 X99.092 Y83.440 E11.66118
G1 X99.245 Y83.288 E11.68078
G1 X99.550 Y83.287 E11.70848
G1 X99.695 Y83.142 E11.72715
G1 X100.302 Y83.146 E11.78239
G1 X100.460 Y82.987 E11.80277
G1 X101.846 Y82.987 E11.92879
G1 X101.846 Y81.899 E12.02774
G1 X102.270 Y81.475 E12.08224
G1 X102.270 Y81.779 E12.10989
G1 X103.174 Y81.779 E12.19211
G1 X103.174 Y81.930 E12.20583
G1 X106.800 Y81.930 E12.53557
G1 X106.801 Y82.081 E12.54931
G1 X108.915 Y82.081 E12.74156
G1 X108.915 Y82.232 E12.75528
G1 X112.237 Y82.232 E13.05734
G1 X112.238 Y82.383 E13.07108
G1 X114.199 Y82.383 E13.24936
G1 X114.199 Y82.534 E13.26309
G1 X116.012 Y82.534 E13.42797
G1 X116.013 Y82.685 E13.44170
G1 X117.970 Y82.685 E13.61964
G1 X117.970 Y82.836 E13.63337
G1 X119.637 Y82.836 E13.78500
G1 X119.638 Y82.987 E13.79873
G1 X121.292 Y82.987 E13.94911
G1 X121.292 Y83.126 E13.96176
G1 X121.894 Y83.130 E14.01651
G1 X121.894 Y84.347 E14.12720
G1 X121.593 Y84.649 E14.16594
G1 X121.593 Y84.800 E14.17969
G1 X121.441 Y84.952 E14.19918
G1 X121.441 Y85.438 E14.24338
G1 X120.988 Y85.464 E14.28468
G1 X120.988 Y86.593 E14.38729
G1 X119.810 Y88.171 E14.56640
G1 X120.215 Y88.309 E14.60529
G1 X118.478 Y90.080 E14.83085
G1 X120.536 Y90.081 E15.01797
G1 X120.536 Y91.742 E15.16904
G1 X120.687 Y91.742 E15.18277
G1 X120.687 Y92.798 E15.27877
G1 X120.837 Y92.798 E15.29249
G1 X120.837 Y93.102 E15.32011
G1 X120.988 Y93.102 E15.33385
G1 X120.988 Y93.404 E15.36128
G1 X121.140 Y93.404 E15.37503
G1 X121.141 Y94.611 E15.48482
G1 X121.290 Y94.611 E15.49844
G1 X121.290 Y95.050 E15.53837
G1 X121.441 Y95.051 E15.55205
G1 X121.441 Y95.822 E15.62213
G1 X121.289 Y95.975 E15.64170
G1 X121.292 Y98.536 E15.87465
G1 X121.441 Y98.536 E15.88822
G1 X121.441 Y99.140 E15.94307
G1 X121.592 Y99.140 E15.95680
G1 X121.592 Y99.895 E16.02550
G1 X121.743 Y99.895 E16.03922
G1 X121.743 Y100.799 E16.12140
G1 X121.892 Y100.799 E16.13491
G1 X121.892 Y100.953 E16.14893
G1 X122.045 Y100.953 E16.16291
G1 X122.045 Y101.103 E16.17652
G1 X122.347 Y101.103 E16.20397
G1 X122.347 Y102.130 E16.29737
G1 X119.512 Y102.131 E16.55518
G1 X115.992 Y105.636 E17.00691
G1 X118.422 Y105.634 E17.22789
G1 X118.422 Y106.538 E17.31007
G1 X118.573 Y106.538 E17.32380
G1 X118.573 Y107.442 E17.40604
G1 X118.724 Y107.442 E17.41972
G1 X118.723 Y107.596 E17.43367
G1 X118.875 Y107.595 E17.44744
G1 X118.875 Y107.897 E17.47482
G1 X119.026 Y107.897 E17.48855
G1 X119.026 Y108.500 E17.54345
G1 X119.328 Y108.500 E17.57091
G1 X119.328 Y108.802 E17.59837
G1 X119.479 Y108.802 E17.61209
G1 X119.479 Y109.708 E17.69445
G1 X119.630 Y109.708 E17.70817
G1 X119.630 Y109.859 E17.72191
G1 X119.779 Y109.859 E17.73547
G1 X119.779 Y110.011 E17.74928
G1 X119.932 Y110.011 E17.76322
G1 X119.932 Y110.325 E17.79178
G1 X120.164 Y110.407 E17.81414
G1 X119.968 Y110.745 E17.84966
G1 X120.023 Y111.189 E17.89030
G1 X119.538 Y111.189 E17.93440
G1 X119.864 Y111.814 F7800.000
G1 F1800
G1 X119.348 Y112.846 E18.03931
G1 X119.500 Y113.251 E18.07864
G1 X119.500 Y114.649 E18.20581
G1 X118.272 Y115.877 E18.36370
G1 X119.027 Y115.877 E18.43237
G1 X118.561 Y116.343 E18.49227
G1 X117.807 Y116.342 E18.56087
G1 X117.084 Y117.065 E18.65380
G1 X117.084 Y117.797 E18.72041
G1 X116.755 Y118.003 E18.75575
G1 X116.146 Y118.003 E18.81113
G1 X115.995 Y118.154 E18.83054
G1 X115.844 Y118.154 E18.84427
G1 X115.693 Y118.305 E18.86369
G1 X114.958 Y118.305 E18.93051
G1 X114.958 Y118.154 E18.94426
G1 X113.428 Y118.155 E19.08340
G1 X113.126 Y118.456 E19.12217
G1 X112.221 Y118.456 E19.20452
G1 X112.069 Y118.607 E19.22395
G1 X111.918 Y118.607 E19.23768
G1 X111.767 Y118.758 E19.25709
G1 X111.466 Y118.758 E19.28455
G1 X111.164 Y119.060 E19.32337
G1 X110.862 Y119.060 E19.35082
G1 X110.711 Y119.211 E19.37022
G1 X110.560 Y119.211 E19.38395
G1 X110.409 Y119.362 E19.40339
G1 X110.258 Y119.362 E19.41711
G1 X110.107 Y119.513 E19.43653
G1 X109.805 Y119.513 E19.46398
G1 X109.654 Y119.664 E19.48339
G1 X109.201 Y119.664 E19.52456
G1 X109.050 Y119.815 E19.54398
G1 X108.705 Y119.815 E19.57538
G1 X108.530 Y118.977 E19.65322
G1 X107.389 Y120.117 E19.79984
G1 X106.785 Y120.117 E19.85476
G1 X106.634 Y120.268 E19.87418
G1 X106.182 Y120.268 E19.91534
G1 X106.031 Y120.419 E19.93476
G1 X105.686 Y120.419 E19.96615
G1 X105.510 Y119.580 E20.04404
G1 X104.985 Y120.106 E20.11155
G1 X104.907 Y119.731 E20.14638
G1 X103.766 Y120.872 E20.29313
G1 X103.162 Y120.872 E20.34803
G1 X103.011 Y121.023 E20.36744
G1 X102.558 Y121.023 E20.40862
G1 X102.407 Y121.174 E20.42803
G1 X101.382 Y121.174 E20.52125
G1 X101.383 Y122.047 E20.60068
G1 X101.232 Y122.198 E20.62005
G1 X101.232 Y122.349 E20.63378
G1 X101.081 Y122.500 E20.65321
G1 X101.081 Y122.651 E20.66693
G1 X100.931 Y122.802 E20.68633
G1 X100.931 Y122.926 E20.69760
G1 X100.559 Y123.185 E20.73882
G1 X100.011 Y123.350 E20.79084
G1 X100.010 Y122.213 E20.89423
G1 X98.331 Y123.891 E21.11009
G1 X98.180 Y123.891 E21.12382
G1 X98.029 Y124.042 E21.14322
G1 X97.596 Y124.042 E21.18260
G1 X97.596 Y123.891 E21.19633
G1 X97.439 Y123.891 E21.21065
G1 X97.438 Y123.733 E21.22508
G1 X97.294 Y123.734 E21.23810
G1 X97.294 Y123.589 E21.25121
G1 X95.040 Y123.589 E21.45622
G1 X95.040 Y124.918 E21.57710
G1 X93.953 Y126.005 E21.71685
G1 X93.671 Y126.005 E21.74248
G1 X93.671 Y125.854 E21.75621
G1 X93.520 Y125.854 E21.76994
G1 X93.520 Y125.703 E21.78367
G1 X93.369 Y125.703 E21.79741
G1 X93.369 Y125.552 E21.81113
G1 X92.916 Y125.552 E21.85230
G1 X92.916 Y125.401 E21.86603
G1 X92.614 Y125.401 E21.89351
G1 X92.614 Y125.250 E21.90723
G1 X92.312 Y125.250 E21.93470
G1 X92.312 Y125.099 E21.94843
G1 X91.557 Y125.099 E22.01704
G1 X91.557 Y124.948 E22.03077
G1 X91.406 Y124.948 E22.04451
G1 X91.406 Y124.797 E22.05824
G1 X90.953 Y124.797 E22.09941
G1 X90.953 Y124.646 E22.11314
G1 X90.652 Y124.646 E22.14057
G1 X90.652 Y124.495 E22.15430
G1 X90.198 Y124.495 E22.19552
G1 X90.198 Y124.344 E22.20925
G1 X89.298 Y124.344 E22.29112
G1 X89.305 Y122.794 E22.43211
G1 X87.912 Y124.193 E22.61167
G1 X87.330 Y124.193 E22.66458
G1 X87.330 Y124.042 E22.67831
G1 X87.178 Y124.042 E22.69212
G1 X87.178 Y123.891 E22.70583
G1 X86.727 Y123.891 E22.74691
G1 X86.726 Y119.381 E23.15706
G1 X86.877 Y119.228 E23.17658
G1 X86.877 Y117.400 E23.34279
G1 X86.576 Y117.400 E23.37025
G1 X86.575 Y116.947 E23.41146
G1 X86.424 Y116.947 E23.42520
G1 X86.424 Y116.796 E23.43895
G1 X85.670 Y116.796 E23.50757
G1 X85.670 Y116.494 E23.53503
G1 X85.519 Y116.494 E23.54874
G1 X85.519 Y116.343 E23.56248
G1 X85.066 Y116.343 E23.60367
G1 X85.066 Y116.192 E23.61740
G1 X84.915 Y116.192 E23.63112
G1 X84.915 Y115.890 E23.65858
G1 X84.311 Y115.890 E23.71349
G1 X84.311 Y115.739 E23.72722
G1 X84.160 Y115.739 E23.74094
G1 X84.160 Y115.588 E23.75467
G1 X84.009 Y115.588 E23.76840
G1 X84.009 Y115.437 E23.78212
G1 X83.707 Y115.437 E23.80957
G1 X83.707 Y115.135 E23.83702
G1 X83.556 Y115.135 E23.85073
G1 X83.556 Y114.681 E23.89199
G1 X83.405 Y114.681 E23.90574
G1 X83.405 Y114.229 E23.94685
G1 X83.254 Y114.229 E23.96057
G1 X83.254 Y113.927 E23.98804
G1 X83.103 Y113.927 E24.00176
G1 X83.103 Y113.494 E24.04114
G1 X84.462 Y112.135 E24.21588
G1 X84.462 Y109.851 E24.42359
G1 X84.311 Y109.851 E24.43731
G1 X84.311 Y109.700 E24.45104
G1 X84.160 Y109.700 E24.46476
G1 X84.160 Y109.549 E24.47846
G1 X84.009 Y109.549 E24.49219
G1 X84.009 Y108.945 E24.54714
G1 X83.707 Y108.945 E24.57460
G1 X83.707 Y106.399 E24.80614
G1 X85.234 Y104.872 E25.00246
G1 X83.707 Y104.870 E25.14129
G1 X83.707 Y104.134 E25.20820
G1 X84.193 Y103.648 E25.27071
G1 X85.079 Y103.647 E25.35124
G1 X85.079 Y104.121 E25.39434
G1 X87.481 Y101.719 E25.70326
G1 X87.481 Y101.384 E25.73374
G1 X87.817 Y101.383 E25.76430
G1 X87.967 Y101.233 E25.78355
G1 X88.420 Y101.233 E25.82473
G1 X88.571 Y101.082 E25.84414
G1 X88.873 Y101.082 E25.87160
G1 X89.024 Y100.931 E25.89103
G1 X89.175 Y100.931 E25.90476
G1 X89.477 Y100.629 E25.94358
G1 X89.628 Y100.629 E25.95731
G1 X92.043 Y98.214 E26.26791
G1 X92.312 Y98.214 E26.29236
G1 X92.312 Y97.761 E26.33354
G1 X92.765 Y97.761 E26.37471
G1 X92.765 Y97.157 E26.42962
G1 X92.949 Y97.157 E26.44634
G1 X93.100 Y97.006 E26.46576
G1 X93.704 Y97.006 E26.52070
G1 X93.876 Y96.834 E26.54274
G1 X94.036 Y96.826 E26.55739
G1 X95.152 Y95.711 E26.70082
G1 X95.160 Y95.549 E26.71553
G1 X95.634 Y95.076 E26.77640
G1 X95.634 Y94.925 E26.79013
G1 X95.785 Y94.774 E26.80954
G1 X95.785 Y94.623 E26.82327
G1 X95.936 Y94.472 E26.84268
G1 X95.936 Y94.170 E26.87014
G1 X96.087 Y94.019 E26.88956
G1 X96.087 Y93.002 E26.98208
G1 X96.606 Y92.235 E27.06627
G1 X96.208 Y92.086 E27.10486
G1 X96.389 Y91.906 E27.12803
G1 X96.389 Y91.302 E27.18295
G1 X96.540 Y91.151 E27.20236
G1 X96.540 Y90.245 E27.28472
G1 X96.691 Y90.094 E27.30414
G1 X96.691 Y89.943 E27.31787
G1 X98.220 Y88.413 E27.51457
G1 X97.898 Y88.413 E27.54386
G1 X97.898 Y86.752 E27.69493
G1 X97.596 Y86.752 E27.72238
G1 X97.596 Y86.451 E27.74978
G1 X97.445 Y86.451 E27.76352
G1 X97.445 Y86.149 E27.79098
