; generated by Slic3r 1.3.0-dev on 2017-08-18 at 22:33:02

; external perimeters extrusion width = 0.40mm (1.14mm^3/s)
; perimeters extrusion width = 0.68mm (3.95mm^3/s)
; infill extrusion width = 1.20mm (9.43mm^3/s)
; solid infill extrusion width = 0.68mm (1.32mm^3/s)
; top infill extrusion width = 0.68mm (0.99mm^3/s)
; support material extrusion width = 0.40mm (2.27mm^3/s)

M107
M190 S66 ; set bed temperature and wait for it to be reached
M104 S215 ; set temperature
G28 ; home all axes
G1 Z5 F5000 ; lift nozzle

; Filament gcode

M109 S215 ; set temperature and wait for it to be reached
G21 ; set units to millimeters
G90 ; use absolute coordinates
M82 ; use absolute distances for extrusion
G92 E0
G1 Z0.350 F7800.000
G1 E-2.00000 F2400.00000
G92 E0
G1 X84.287 Y85.571 F7800.000
G1 E2.00000 F2400.00000
G1 F1800
G1 X84.858 Y85.008 E2.07296
G1 X85.298 Y84.611 E2.12683
G1 X89.081 Y81.497 E2.57237
G1 X89.770 Y80.977 E2.65084
G1 X91.110 Y80.208 E2.79134
G1 X92.263 Y79.716 E2.90535
G1 X92.834 Y79.503 E2.96072
G1 X93.237 Y79.373 E2.99928
G1 X95.155 Y79.054 E3.17606
G1 X96.203 Y79.053 E3.27131
G1 X98.023 Y79.308 E3.43846
G1 X101.294 Y80.242 E3.74774
G1 X102.276 Y80.609 E3.84304
G1 X104.892 Y81.838 E4.10595
G1 X108.399 Y83.681 E4.46615
G1 X109.856 Y84.721 E4.62888
G1 X110.710 Y85.524 E4.73553
G1 X111.213 Y86.053 E4.80194
G1 X111.803 Y86.747 E4.88468
G1 X129.291 Y107.865 E7.37792
G1 X130.500 Y110.077 E7.60713
G1 X130.736 Y110.818 E7.67785
G1 X130.997 Y112.004 E7.78825
G1 X131.118 Y112.964 E7.87623
G1 X131.133 Y114.494 E8.01541
G1 X130.976 Y115.966 E8.14997
G1 X130.341 Y118.170 E8.35851
G1 X129.745 Y119.161 E8.46371
G1 X128.160 Y121.339 E8.70865
G1 X126.976 Y122.587 E8.86506
G1 X124.557 Y123.863 E9.11373
G1 X100.556 Y130.694 E11.38285
G1 X98.275 Y130.931 E11.59139
G1 X96.222 Y130.449 E11.78313
G1 X95.397 Y130.110 E11.86424
G1 X93.459 Y128.883 E12.07278
G1 X91.923 Y126.804 E12.30784
G1 X79.465 Y100.333 E14.96810
G1 X78.835 Y97.516 E15.23053
G1 X78.845 Y94.201 E15.53202
G1 X79.362 Y91.966 E15.74056
G1 X80.067 Y90.708 E15.87172
G1 X81.624 Y88.526 E16.11540
G1 X82.144 Y87.885 E16.19047
G1 X84.245 Y85.614 E16.47180
G1 E14.47180 F2400.00000
G92 E0
G1 X98.813 Y123.633 F7800.000
G1 E2.00000 F2400.00000
G1 F1800
G1 X97.984 Y123.633 E2.07534
G1 X98.813 Y122.803 E2.18197
G1 X98.813 Y123.573 E2.25197
G1 X98.413 Y123.633 F7800.000
G1 X99.274 Y122.160 F7800.000
G1 F1800
G1 X99.282 Y121.958 E2.25678
G1 F1800
G1 X99.249 Y121.846 E2.26095
G1 F1800
G1 X99.210 Y121.768 E2.26520
G1 F1800
G1 X99.165 Y121.724 E2.26915
G1 F1800
G1 X99.120 Y121.680 E2.27398
G1 F1800
G1 X99.076 Y121.636 E2.27969
G1 F1800
G1 X99.031 Y121.592 E2.28627
G1 F1800
G1 X98.986 Y121.548 E2.29374
G1 E0.29374 F2400.00000
G92 E0
G1 X115.016 Y116.161 F7800.000
G1 E2.00000 F2400.00000
G1 F1800
G1 X115.229 Y115.928 E2.01377
G1 X115.340 Y115.862 E2.01939
G1 X115.377 Y115.861 E2.02101
G1 F1800
G1 X115.451 Y115.859 E2.02349
G1 F1800
G1 X115.577 Y115.821 E2.02668
G1 X115.632 Y115.642 E2.03125
G1 X115.665 Y115.606 E2.03241
G1 F1800
G1 X115.801 Y115.477 E2.03485
G1 E0.03485 F2400.00000
G92 E0
G1 X122.692 Y117.035 F7800.000
G1 E2.00000 F2400.00000
G1 F1800
G1 X122.873 Y116.879 E2.00496
G1 X123.045 Y116.649 E2.01095
G1 E0.01095 F2400.00000
G92 E0
G1 X124.050 Y114.055 F7800.000
G1 E2.00000 F2400.00000
G1 F1800
G1 X124.322 Y114.055 E2.02469
G1 X124.038 Y114.340 E2.06122
G1 X124.038 Y114.481 E2.07400
G1 X123.860 Y114.957 E2.12026
G1 X122.652 Y113.278 E2.30842
G1 X122.976 Y113.278 E2.33790
G1 X123.300 Y112.954 E2.37954
G1 X123.470 Y112.939 E2.39507
G1 X123.596 Y112.813 E2.41122
G1 X123.884 Y112.813 E2.43748
G1 X123.899 Y113.034 E2.45769
G1 X123.997 Y113.065 E2.46699
G1 X123.920 Y113.397 E2.49794
G1 X124.039 Y113.398 E2.50875
G1 X124.049 Y113.995 E2.56304
G1 X124.068 Y114.326 F7800.000
G1 E0.56304 F2400.00000
G92 E0
G1 X111.893 Y102.240 F7800.000
G1 E2.00000 F2400.00000
G1 F1800
G1 X111.464 Y102.646 E2.01222
G1 E0.01222 F2400.00000
G92 E0
G1 X89.631 Y104.801 F7800.000
G1 E2.00000 F2400.00000
G1 F1800
G1 X89.054 Y104.832 E2.01569
G1 E0.01569 F2400.00000
G92 E0
G1 X88.132 Y102.318 F7800.000
G1 E2.00000 F2400.00000
G1 F1800
G1 X88.035 Y102.268 E2.00120
G1 X88.016 Y102.168 E2.00232
G1 X88.034 Y102.078 E2.00332
G1 F1800
G1 X88.097 Y101.769 E2.00976
G1 E0.00976 F2400.00000
G92 E0
G1 X85.459 Y94.578 F7800.000
G1 E2.00000 F2400.00000
G1 F1800
G1 X85.538 Y94.587 E2.00089
G1 X85.702 Y94.411 E2.00359
G1 E0.00359 F2400.00000
G92 E0
G1 X120.231 Y115.846 F7800.000
G1 E2.00000 F2400.00000
G1 F1800
G1 X119.924 Y115.846 E2.02791
G1 X120.396 Y115.342 E2.09064
G1 X120.537 Y115.361 E2.10358
G1 X120.817 Y115.076 E2.13997
G1 X120.913 Y115.028 E2.14977
G1 X121.147 Y115.066 E2.17133
G1 X121.568 Y114.639 E2.22581
G1 X122.526 Y115.554 E2.34625
G1 X122.301 Y115.715 E2.37145
G1 X122.068 Y116.141 E2.41556
G1 X121.243 Y115.977 E2.49205
G1 X120.492 Y116.698 E2.58673
G1 X120.415 Y116.468 E2.60875
G1 X120.335 Y116.468 E2.61605
G1 X120.241 Y115.905 E2.66799
G1 E0.66799 F2400.00000
G92 E0
G1 X117.183 Y112.503 F7800.000
G1 E2.00000 F2400.00000
G1 F1800
G1 X117.539 Y112.503 E2.03237
G1 X117.249 Y113.664 E2.14111
G1 X115.850 Y113.666 E2.26831
G1 X115.791 Y113.466 E2.28732
G1 X115.744 Y113.436 E2.29236
G1 X115.756 Y113.196 E2.31425
G1 X114.523 Y112.374 E2.44904
G1 X114.090 Y112.322 E2.48866
G1 X113.863 Y111.639 E2.55413
G1 X113.582 Y111.639 E2.57963
G1 X113.466 Y110.861 E2.65120
G1 X113.087 Y110.861 E2.68571
G1 X112.931 Y110.082 E2.75791
G1 X112.602 Y110.082 E2.78787
G1 X112.602 Y109.883 E2.80596
G1 X112.285 Y109.836 E2.83515
G1 X112.285 Y109.304 E2.88355
G1 X112.130 Y109.304 E2.89767
G1 X112.130 Y108.992 E2.92599
G1 X108.982 Y108.992 E3.21222
G1 X108.523 Y110.754 E3.37778
G1 X108.479 Y111.387 E3.43548
G1 X107.856 Y113.407 E3.62765
G1 X107.996 Y113.407 E3.64032
G1 X107.996 Y113.897 E3.68494
G1 X106.521 Y113.809 E3.81929
G1 X106.520 Y113.508 E3.84674
G1 X105.570 Y113.508 E3.93317
G1 X105.567 Y113.352 E3.94733
G1 X104.803 Y113.352 E4.01685
G1 X104.802 Y113.196 E4.03102
G1 X103.867 Y113.196 E4.11606
G1 X103.866 Y113.041 E4.13022
G1 X102.943 Y113.041 E4.21417
G1 X102.943 Y112.771 E4.23866
G1 X99.513 Y113.007 E4.55122
G1 X99.513 Y112.106 E4.63309
G1 X99.365 Y112.106 E4.64654
G1 X99.368 Y111.162 E4.73238
G1 X98.287 Y111.167 E4.83071
G1 X98.041 Y110.981 E4.85873
G1 X97.978 Y110.602 E4.89363
G1 X97.669 Y110.385 E4.92805
G1 X97.199 Y109.017 E5.05955
G1 X96.954 Y109.012 E5.08186
G1 X96.875 Y108.213 E5.15481
G1 X96.402 Y108.213 E5.19776
G1 X96.402 Y107.914 E5.22501
G1 X96.082 Y107.911 E5.25413
G1 X96.079 Y107.590 E5.28333
G1 X94.220 Y107.591 E5.45238
G1 X94.217 Y105.173 E5.67219
G1 X93.141 Y105.867 E5.78863
G1 X93.055 Y105.105 E5.85836
G1 X95.552 Y102.608 E6.17953
G1 X92.439 Y102.608 E6.46263
G1 X92.392 Y101.997 E6.51834
G1 X90.902 Y101.982 E6.65383
G1 X89.949 Y101.673 E6.74491
G1 X89.977 Y101.339 E6.77530
G1 X90.661 Y100.196 E6.89643
G1 X90.070 Y99.422 E6.98491
G1 X89.778 Y98.438 E7.07827
G1 X90.934 Y96.849 E7.25689
G1 X88.742 Y96.849 E7.45621
G1 X88.668 Y96.629 E7.47735
G1 X87.597 Y96.539 E7.57509
G1 X88.422 Y95.714 E7.68111
G1 X87.367 Y95.012 E7.79632
G1 X87.719 Y94.592 E7.84612
G1 X88.689 Y93.668 E7.96789
G1 X88.703 Y93.263 E8.00477
G1 X89.225 Y92.741 E8.07182
G1 X89.250 Y92.643 E8.08106
G1 X89.766 Y92.041 E8.15311
G1 X90.093 Y91.718 E8.19492
G1 X90.216 Y91.407 E8.22537
G1 X91.139 Y91.501 E8.30972
G1 X91.167 Y91.625 E8.32130
G1 X94.685 Y89.218 E8.70887
G1 X94.408 Y88.802 E8.75431
G1 X95.537 Y87.673 E8.89956
G1 X96.155 Y87.902 E8.95949
G1 X97.570 Y89.682 E9.16625
G1 X98.798 Y88.679 E9.31042
G1 X98.917 Y88.679 E9.32120
G1 X99.127 Y88.522 E9.34505
G1 X99.385 Y88.884 E9.38550
G1 X99.960 Y88.927 E9.43801
G1 X100.391 Y89.506 E9.50365
G1 X100.405 Y92.647 E9.78925
G1 X102.888 Y90.668 E10.07799
G1 X103.121 Y90.901 E10.10802
G1 X103.519 Y91.497 E10.17319
G1 X104.132 Y91.600 E10.22975
G1 X104.891 Y92.105 E10.31266
G1 X104.981 Y94.752 E10.55341
G1 X105.336 Y94.752 E10.58572
G1 X105.404 Y94.874 E10.59840
G1 X105.516 Y95.251 E10.63418
G1 X105.606 Y96.617 E10.75865
G1 X106.273 Y96.618 E10.81937
G1 X106.593 Y97.554 E10.90933
G1 X106.750 Y97.554 E10.92359
G1 X106.750 Y98.489 E11.00859
G1 X106.880 Y98.489 E11.02045
G1 X106.582 Y99.704 E11.13423
G1 X107.092 Y99.704 E11.18067
G1 X107.101 Y99.964 E11.20427
G1 X107.686 Y100.137 E11.25974
G1 X107.840 Y100.291 E11.27953
G1 X107.840 Y101.073 E11.35060
G1 X108.029 Y101.124 E11.36840
G1 X108.216 Y102.382 E11.48407
G1 X108.308 Y102.382 E11.49244
G1 X108.087 Y104.089 E11.64895
G1 X108.463 Y104.090 E11.68310
G1 X108.463 Y105.606 E11.82097
G1 X110.788 Y104.889 E12.04224
G1 X111.700 Y104.832 E12.12527
G1 X111.970 Y104.562 E12.16004
G1 X112.356 Y104.562 E12.19509
G1 X112.356 Y105.173 E12.25063
G1 X112.511 Y105.174 E12.26479
G1 X112.511 Y105.653 E12.30831
G1 X112.667 Y105.653 E12.32248
G1 X112.667 Y106.586 E12.40736
G1 X112.990 Y106.586 E12.43672
G1 X112.997 Y107.559 E12.52521
G1 X113.135 Y107.570 E12.53772
G1 X113.135 Y108.126 E12.58834
G1 X113.290 Y108.128 E12.60243
G1 X113.290 Y108.453 E12.63200
G1 X113.446 Y108.453 E12.64617
G1 X113.446 Y108.766 E12.67461
G1 X115.058 Y108.766 E12.82120
G1 X115.094 Y109.381 E12.87719
G1 X115.470 Y109.383 E12.91136
G1 X115.470 Y112.424 E13.18793
G1 X116.171 Y111.725 E13.27801
G1 X116.871 Y111.725 E13.34168
G1 X116.871 Y111.878 E13.35563
G1 X117.027 Y111.878 E13.36979
G1 X117.027 Y112.191 E13.39820
G1 X117.183 Y112.191 E13.41236
G1 X117.183 Y112.443 E13.43533
G1 X117.808 Y111.878 F7800.000
G1 F1800
G1 X118.089 Y111.878 E13.46094
G1 X118.225 Y112.336 E13.50430
G1 X117.833 Y113.903 E13.65117
G1 X118.275 Y113.903 E13.69134
G1 X118.275 Y114.289 E13.72644
G1 X115.828 Y114.291 E13.94894
G1 X115.686 Y114.389 E13.96461
G1 X115.447 Y114.509 E13.98896
G1 X115.258 Y113.870 E14.04959
G1 X115.100 Y113.771 E14.06653
G1 X115.114 Y113.518 E14.08949
G1 X114.301 Y112.977 E14.17832
G1 X113.623 Y112.896 E14.24040
G1 X113.412 Y112.264 E14.30095
G1 X113.043 Y112.264 E14.33451
G1 X112.928 Y111.486 E14.40608
G1 X112.575 Y111.486 E14.43816
G1 X112.419 Y110.707 E14.51036
G1 X111.974 Y110.707 E14.55080
G1 X111.975 Y110.421 E14.57677
G1 X111.660 Y110.374 E14.60574
G1 X111.660 Y109.928 E14.64630
G1 X111.505 Y109.928 E14.66043
G1 X111.505 Y109.617 E14.68875
G1 X109.465 Y109.617 E14.87424
G1 X109.142 Y110.855 E14.99058
G1 X109.098 Y111.502 E15.04956
G1 X108.703 Y112.782 E15.17137
G1 X108.776 Y112.782 E15.17805
G1 X108.776 Y113.458 E15.23949
G1 X108.621 Y113.614 E15.25951
G1 X108.621 Y114.237 E15.31615
G1 X108.465 Y114.392 E15.33617
G1 X108.465 Y114.600 E15.35503
G1 X107.603 Y114.600 E15.43342
G1 X107.602 Y114.500 E15.44250
G1 X106.374 Y114.427 E15.55434
G1 X105.897 Y114.380 E15.59791
G1 X105.897 Y114.133 E15.62038
G1 X104.953 Y114.133 E15.70614
G1 X104.951 Y113.977 E15.72030
G1 X104.181 Y113.977 E15.79032
G1 X104.180 Y113.821 E15.80449
G1 X103.246 Y113.821 E15.88945
G1 X103.245 Y113.665 E15.90361
G1 X102.318 Y113.665 E15.98794
G1 X102.318 Y113.441 E16.00839
G1 X99.634 Y113.625 E16.25297
G1 X99.597 Y115.011 E16.37904
G1 X99.336 Y115.278 E16.41299
G1 X98.887 Y114.963 E16.46291
G1 X98.911 Y114.331 E16.52045
G1 X98.888 Y114.314 E16.52297
G1 X98.888 Y112.731 E16.66692
G1 X98.739 Y112.731 E16.68052
G1 X98.741 Y111.790 E16.76609
G1 X97.843 Y111.794 E16.84780
G1 X97.760 Y111.552 E16.87108
G1 X97.465 Y111.329 E16.90471
G1 X97.405 Y110.963 E16.93839
G1 X97.121 Y110.764 E16.96994
G1 X97.113 Y110.692 E16.97653
G1 X96.749 Y109.632 E17.07838
G1 X96.386 Y109.624 E17.11141
G1 X96.308 Y108.838 E17.18323
G1 X95.777 Y108.838 E17.23152
G1 X95.777 Y108.534 E17.25918
G1 X95.461 Y108.532 E17.28791
G1 X95.459 Y108.215 E17.31669
G1 X93.596 Y108.216 E17.48607
G1 X93.594 Y106.319 E17.65855
G1 X92.508 Y107.019 E17.77598
G1 X92.272 Y106.700 E17.81208
G1 X92.303 Y106.560 E17.82508
G1 X92.463 Y106.240 E17.85762
G1 X92.314 Y105.612 E17.91632
G1 X92.471 Y105.506 E17.93353
G1 X92.400 Y104.876 E17.99112
G1 X94.044 Y103.233 E18.20250
G1 X91.860 Y103.233 E18.40102
G1 X91.813 Y102.616 E18.45725
G1 X90.800 Y102.606 E18.54937
G1 X90.146 Y102.394 E18.61184
G1 X89.839 Y102.816 E18.65936
G1 X89.561 Y102.691 E18.68709
G1 X89.668 Y102.210 E18.73189
G1 X89.229 Y101.917 E18.77984
G1 X89.321 Y101.689 E18.80225
G1 X89.366 Y101.143 E18.85203
G1 X89.907 Y100.239 E18.94784
G1 X89.504 Y99.710 E19.00829
G1 X89.302 Y99.029 E19.07288
G1 X88.737 Y99.029 E19.12429
G1 X88.823 Y98.689 E19.15611
G1 X89.707 Y97.474 E19.29273
G1 X88.291 Y97.474 E19.42142
G1 X88.206 Y97.217 E19.44608
G1 X87.245 Y97.136 E19.53378
G1 X87.057 Y96.537 E19.59085
G1 X86.715 Y96.537 E19.62196
G1 X87.441 Y95.812 E19.71527
G1 X86.735 Y95.341 E19.79241
G1 X86.757 Y94.767 E19.84460
G1 X87.262 Y94.163 E19.91621
G1 X88.073 Y93.391 E20.01806
G1 X88.088 Y92.994 E20.05414
G1 X88.663 Y92.420 E20.12804
G1 X88.682 Y92.346 E20.13496
G1 X89.308 Y91.615 E20.22252
G1 X89.560 Y91.366 E20.25470
G1 X89.743 Y90.902 E20.30010
G1 X89.905 Y90.747 E20.32046
G1 X90.583 Y90.816 E20.38248
G1 X90.684 Y90.401 E20.42135
G1 X91.408 Y89.890 E20.50191
G1 X91.570 Y90.592 E20.56744
G1 X93.823 Y89.051 E20.81560
G1 X93.379 Y88.386 E20.88827
G1 X93.753 Y87.855 E20.94732
G1 X93.753 Y87.510 E20.97866
G1 X94.034 Y87.275 E21.01197
G1 X94.486 Y87.275 E21.05305
G1 X94.665 Y87.662 E21.09176
G1 X95.597 Y86.729 E21.21172
G1 X95.852 Y86.767 E21.23515
G1 X95.852 Y87.123 E21.26755
G1 X96.696 Y87.436 E21.34939
G1 X96.726 Y87.615 E21.36589
G1 X97.665 Y88.797 E21.50323
G1 X98.576 Y88.054 E21.61009
G1 X98.709 Y88.054 E21.62219
G1 X99.086 Y87.771 E21.66511
G1 X99.227 Y87.982 E21.68819
G1 X99.543 Y88.029 E21.71722
G1 X99.724 Y88.283 E21.74555
G1 X100.291 Y88.325 E21.79733
G1 X101.015 Y89.298 E21.90761
G1 X101.024 Y91.354 E22.09457
G1 X102.849 Y89.900 E22.30674
G1 X103.083 Y89.979 E22.32922
G1 X103.607 Y90.503 E22.39662
G1 X103.889 Y90.926 E22.44280
G1 X104.367 Y91.005 E22.48694
G1 X105.505 Y91.764 E22.61122
G1 X105.585 Y94.127 E22.82623
G1 X105.835 Y94.127 E22.84892
G1 X105.927 Y94.439 E22.87857
G1 X105.927 Y94.528 E22.88666
G1 X105.984 Y94.630 E22.89725
G1 X106.135 Y95.140 E22.94562
G1 X106.191 Y95.993 E23.02334
G1 X106.721 Y95.994 E23.07151
G1 X107.040 Y96.930 E23.16137
G1 X107.270 Y96.930 E23.18228
G1 X107.375 Y97.559 E23.24031
G1 X107.375 Y97.864 E23.26806
G1 X107.586 Y97.864 E23.28729
G1 X107.604 Y98.164 E23.31456
G1 X107.379 Y99.080 E23.40035
G1 X107.697 Y99.080 E23.42926
G1 X107.711 Y99.493 E23.46682
G1 X108.095 Y99.607 E23.50324
G1 X108.105 Y99.672 E23.50930
G1 X108.465 Y100.032 E23.55559
G1 X108.465 Y100.594 E23.60664
G1 X108.554 Y100.618 E23.61499
G1 X108.611 Y100.791 E23.63162
G1 X108.755 Y101.757 E23.72040
G1 X108.932 Y101.757 E23.73649
G1 X108.932 Y102.432 E23.79786
G1 X108.798 Y103.466 E23.89269
G1 X109.088 Y103.467 E23.91903
G1 X109.088 Y104.760 E24.03657
G1 X110.675 Y104.270 E24.18762
G1 X111.425 Y104.223 E24.25593
G1 X112.501 Y103.148 E24.39422
G1 X112.743 Y103.142 E24.41623
G1 X112.825 Y103.635 E24.46165
G1 X112.825 Y103.937 E24.48910
G1 X112.980 Y103.937 E24.50324
G1 X112.980 Y104.552 E24.55920
G1 X113.136 Y104.553 E24.57336
G1 X113.136 Y105.027 E24.61645
G1 X113.292 Y105.027 E24.63062
G1 X113.292 Y105.961 E24.71553
G1 X113.610 Y105.961 E24.74446
G1 X113.618 Y106.980 E24.83707
G1 X113.759 Y106.990 E24.84996
G1 X113.760 Y107.508 E24.89704
G1 X113.915 Y107.510 E24.91115
G1 X113.915 Y107.829 E24.94017
G1 X114.071 Y107.829 E24.95434
G1 X114.071 Y108.141 E24.98273
G1 X115.647 Y108.141 E25.12606
G1 X115.683 Y108.759 E25.18234
G1 X115.783 Y108.759 E25.19142
G1 X115.783 Y108.828 E25.19767
G1 X116.095 Y108.921 E25.22721
G1 X116.095 Y110.918 E25.40883
G1 X116.927 Y110.088 E25.51569
G1 X117.183 Y110.263 E25.54395
G1 X116.816 Y111.100 E25.62701
G1 X117.496 Y111.100 E25.68885
G1 X117.496 Y111.254 E25.70288
G1 X117.652 Y111.254 E25.71704
G1 X117.652 Y111.566 E25.74541
G1 X117.808 Y111.566 E25.75956
G1 X117.808 Y111.818 E25.78250
G1 X118.433 Y111.254 F7800.000
G1 F1800
G1 X118.743 Y111.254 E25.81077
G1 X118.743 Y111.678 E25.84935
G1 X118.694 Y111.720 E25.85526
G1 X118.854 Y112.258 E25.90625
G1 X118.854 Y112.397 E25.91891
G1 X118.633 Y113.278 E26.00143
G1 X118.900 Y113.278 E26.02565
G1 X118.900 Y113.589 E26.05395
